; G-Code generated by Simplify3D(R) Version 3.0.0
; фев 16, 2016 at 12:52:43 
; Settings Summary
;   processName,Process1
;   applyToModels,angle1_4,angle1_4(2),angle1_4(3),angle1_4(2)(2),angle1_4(4),angle1_4(2)(3),angle1_4(3)(2),angle1_4(2)(2)(2),angle1_4(5),angle1_4(2)(4),angle1_4(3)(3),angle1_4(2)(2)(3),angle1_4(4)(2),angle1_4(2)(3)(2),angle1_4(3)(2)(2),angle1_4(2)(2)(2)(2)
;   profileName,prusa 1mm
;   profileVersion,2016-02-16 12:52:21
;   baseProfile,Default
;   printMaterial,PLA
;   printQuality,Medium
;   printExtruders,
;   extruderName,Extruder 1
;   extruderToolheadNumber,0
;   extruderDiameter,0.5
;   extruderAutoWidth,1
;   extruderWidth,0.6
;   extrusionMultiplier,1.01
;   extruderUseRetract,1
;   extruderRetractionDistance,4
;   extruderExtraRestartDistance,-0.2
;   extruderRetractionZLift,0
;   extruderRetractionSpeed,2400
;   extruderUseCoasting,1
;   extruderCoastingDistance,0.2
;   extruderUseWipe,0
;   extruderWipeDistance,5
;   primaryExtruder,0
;   layerHeight,0.2
;   topSolidLayers,3
;   bottomSolidLayers,3
;   perimeterOutlines,1
;   printPerimetersInsideOut,0
;   startPointOption,1
;   startPointOriginX,150
;   startPointOriginY,0
;   startPointOriginZ,120
;   sequentialIslands,0
;   spiralVaseMode,0
;   firstLayerHeightPercentage,85
;   firstLayerWidthPercentage,100
;   firstLayerUnderspeed,0.22
;   useRaft,0
;   raftExtruder,0
;   raftLayers,3
;   raftOffset,3
;   raftSeparationDistance,0.14
;   raftInfill,85
;   disableRaftBaseLayers,0
;   useSkirt,1
;   skirtExtruder,0
;   skirtLayers,1
;   skirtOutlines,1
;   skirtOffset,1
;   usePrimePillar,0
;   primePillarExtruder,999
;   primePillarWidth,12
;   primePillarLocation,7
;   primePillarSpeedMultiplier,1
;   useOozeShield,0
;   oozeShieldExtruder,999
;   oozeShieldOffset,2
;   oozeShieldOutlines,1
;   oozeShieldSidewallShape,1
;   oozeShieldSidewallAngle,30
;   oozeShieldSpeedMultiplier,1
;   infillExtruder,0
;   internalInfillPattern,Wiggle
;   externalInfillPattern,Concentric
;   infillPercentage,23
;   outlineOverlapPercentage,15
;   infillExtrusionWidthPercentage,100
;   minInfillLength,5
;   infillLayerInterval,1
;   infillAngles,0
;   overlapInfillAngles,0
;   generateSupport,0
;   supportExtruder,0
;   supportInfillPercentage,30
;   supportExtraInflation,0
;   denseSupportLayers,0
;   denseSupportInfillPercentage,70
;   supportLayerInterval,1
;   supportHorizontalPartOffset,0.3
;   supportUpperSeparationLayers,1
;   supportLowerSeparationLayers,1
;   supportType,0
;   supportGridSpacing,4
;   maxOverhangAngle,45
;   supportAngles,0
;   temperatureName,Extruder 1 Temperature,Heated Bed
;   temperatureNumber,0,1
;   temperatureSetpointCount,2,1
;   temperatureSetpointLayers,1,2,1
;   temperatureSetpointTemperatures,240,225,115
;   temperatureStabilizeAtStartup,1,1
;   temperatureHeatedBed,0,1
;   temperatureRelayBetweenLayers,0,0
;   temperatureRelayBetweenLoops,0,0
;   fanLayers,1
;   fanSpeeds,0
;   blipFanToFullPower,0
;   adjustSpeedForCooling,1
;   minSpeedLayerTime,10
;   minCoolingSpeedSlowdown,20
;   increaseFanForCooling,0
;   minFanLayerTime,45
;   maxCoolingFanSpeed,100
;   increaseFanForBridging,0
;   bridgingFanSpeed,100
;   use5D,1
;   relativeEdistances,0
;   allowEaxisZeroing,1
;   independentExtruderAxes,0
;   includeM10123,0
;   stickySupport,1
;   applyToolheadOffsets,0
;   gcodeXoffset,0
;   gcodeYoffset,0
;   gcodeZoffset,0
;   overrideMachineDefinition,1
;   machineTypeOverride,0
;   strokeXoverride,200
;   strokeYoverride,200
;   strokeZoverride,200
;   originOffsetXoverride,0
;   originOffsetYoverride,0
;   originOffsetZoverride,0
;   homeXdirOverride,-1
;   homeYdirOverride,-1
;   homeZdirOverride,-1
;   flipXoverride,1
;   flipYoverride,-1
;   flipZoverride,1
;   toolheadOffsets,0,0|0,0|0,0|0,0|0,0|0,0
;   overrideFirmwareConfiguration,1
;   firmwareTypeOverride,RepRap (Marlin/Repetier/Sprinter)
;   GPXconfigOverride,r2
;   baudRateOverride,115200
;   overridePrinterModels,0
;   printerModelsOverride
;   startingGcode,G28 ; home all axes
;   layerChangeGcode,
;   retractionGcode,
;   toolChangeGcode,
;   endingGcode,M104 S0 ; turn off extruder,M140 S0 ; turn off bed,G28 X0;,M84 ; disable motors
;   createX3G,0
;   celebration,0
;   celebrationSong,Random Song
;   createMB5G,0
;   postProcessing,
;   defaultSpeed,3600
;   outlineUnderspeed,0.5
;   solidInfillUnderspeed,0.8
;   supportUnderspeed,0.8
;   rapidXYspeed,4800
;   rapidZspeed,1002
;   minBridgingArea,50
;   bridgingExtraInflation,0
;   bridgingExtrusionMultiplier,1
;   bridgingSpeedMultiplier,1
;   filamentDiameter,1.75
;   filamentPricePerKg,46
;   filamentDensity,1.25
;   useMinPrintHeight,0
;   minPrintHeight,0
;   useMaxPrintHeight,0
;   maxPrintHeight,0
;   useDiaphragm,0
;   diaphragmLayerInterval,20
;   robustSlicing,1
;   mergeAllIntoSolid,0
;   onlyRetractWhenCrossingOutline,1
;   retractBetweenLayers,1
;   useRetractionMinTravel,1
;   retractionMinTravel,5
;   retractWhileWiping,0
;   onlyWipeOutlines,1
;   avoidCrossingOutline,1
;   maxMovementDetourFactor,3
;   toolChangeRetractionDistance,12
;   toolChangeExtraRestartDistance,-0.5
;   toolChangeRetractionSpeed,600
;   allowThinWallGapFill,1
;   thinWallAllowedOverlapPercentage,1
;   horizontalSizeCompensation,0
G90
M82
M106 S0
M140 S115
M190 S115
M104 S240 T0
M109 S240 T0
G28 ; home all axes
G92 E0
G1 E-4.0000 F2400
G1 Z0.170 F1002
; layer 1, Z = 0.17
T0
; tool H0.200 W0.600
; skirt
G1 X84.840 Y77.319 F4800
G1 E-0.2000 F720
G92 E0
G1 X84.952 Y77.276 E0.0060 F792
G1 X85.899 Y77.298 E0.0538
G1 X86.008 Y77.346 E0.0598
G1 X87.206 Y78.602 E0.1472
G1 X88.529 Y77.340 E0.2394
G1 X88.641 Y77.297 E0.2454
G1 X89.588 Y77.320 E0.2932
G1 X89.697 Y77.368 E0.2992
G1 X90.871 Y78.598 E0.3848
G1 X92.168 Y77.361 E0.4752
G1 X92.279 Y77.318 E0.4812
G1 X93.227 Y77.340 E0.5289
G1 X93.336 Y77.388 E0.5350
G1 X94.534 Y78.644 E0.6224
G1 X95.857 Y77.382 E0.7145
G1 X95.968 Y77.339 E0.7206
G1 X96.916 Y77.361 E0.7683
G1 X97.025 Y77.410 E0.7743
G1 X98.072 Y78.507 E0.8507
G1 X99.233 Y77.399 E0.9316
G1 X99.345 Y77.356 E0.9376
G1 X100.292 Y77.379 E0.9854
G1 X100.401 Y77.427 E0.9914
G1 X101.599 Y78.683 E1.0789
G1 X102.922 Y77.421 E1.1710
G1 X103.034 Y77.378 E1.1770
G1 X103.981 Y77.400 E1.2248
G1 X104.090 Y77.448 E1.2308
G1 X105.264 Y78.679 E1.3165
G1 X106.561 Y77.441 E1.4068
G1 X106.672 Y77.398 E1.4128
G1 X107.620 Y77.420 E1.4606
G1 X107.729 Y77.469 E1.4666
G1 X108.927 Y78.725 E1.5540
G1 X110.250 Y77.463 E1.6462
G1 X110.361 Y77.420 E1.6522
G1 X111.309 Y77.442 E1.6999
G1 X111.418 Y77.490 E1.7060
G1 X112.642 Y78.774 E1.7953
G1 X113.823 Y77.648 E1.8775
G1 X113.934 Y77.605 E1.8835
G1 X114.881 Y77.628 E1.9313
G1 X114.990 Y77.676 E1.9373
G1 X116.188 Y78.932 E2.0248
G1 X117.512 Y77.670 E2.1169
G1 X117.623 Y77.627 E2.1229
G1 X118.570 Y77.649 E2.1707
G1 X118.680 Y77.697 E2.1767
G1 X119.853 Y78.928 E2.2624
G1 X121.150 Y77.690 E2.3527
G1 X121.262 Y77.647 E2.3587
G1 X122.209 Y77.670 E2.4065
G1 X122.318 Y77.718 E2.4125
G1 X123.516 Y78.974 E2.4999
G1 X124.839 Y77.712 E2.5921
G1 X124.951 Y77.669 E2.5981
G1 X125.898 Y77.691 E2.6458
G1 X126.007 Y77.739 E2.6519
G1 X127.054 Y78.837 E2.7283
G1 X128.215 Y77.729 E2.8091
G1 X128.327 Y77.686 E2.8152
G1 X129.274 Y77.708 E2.8629
G1 X129.383 Y77.757 E2.8689
G1 X130.581 Y79.012 E2.9564
G1 X131.904 Y77.750 E3.0485
G1 X132.016 Y77.707 E3.0545
G1 X132.963 Y77.730 E3.1023
G1 X133.072 Y77.778 E3.1083
G1 X134.246 Y79.008 E3.1940
G1 X135.543 Y77.771 E3.2843
G1 X135.654 Y77.728 E3.2903
G1 X136.602 Y77.750 E3.3381
G1 X136.711 Y77.798 E3.3441
G1 X137.909 Y79.054 E3.4316
G1 X139.232 Y77.792 E3.5237
G1 X139.343 Y77.749 E3.5297
G1 X140.291 Y77.772 E3.5775
G1 X140.400 Y77.820 E3.5835
G1 X142.435 Y79.953 E3.7320
G1 X142.478 Y80.064 E3.7380
G1 X142.455 Y81.012 E3.7858
G1 X142.407 Y81.121 E3.7918
G1 X114.060 Y108.159 E5.7657
G1 X120.392 Y114.797 E6.2280
G1 X120.435 Y114.909 E6.2340
G1 X120.413 Y115.856 E6.2818
G1 X120.364 Y115.965 E6.2878
G1 X118.231 Y118.000 E6.4363
G1 X118.120 Y118.043 E6.4423
G1 X117.172 Y118.020 E6.4901
G1 X117.063 Y117.972 E6.4961
G1 X115.865 Y116.716 E6.5836
G1 X114.542 Y117.978 E6.6757
G1 X114.431 Y118.021 E6.6817
G1 X113.483 Y117.999 E6.7295
G1 X113.374 Y117.951 E6.7355
G1 X112.201 Y116.720 E6.8212
G1 X110.904 Y117.958 E6.9115
G1 X110.792 Y118.001 E6.9175
G1 X109.845 Y117.978 E6.9653
G1 X109.736 Y117.930 E6.9713
G1 X108.538 Y116.674 E7.0587
G1 X107.215 Y117.936 E7.1509
G1 X107.103 Y117.979 E7.1569
G1 X106.156 Y117.957 E7.2046
G1 X106.047 Y117.909 E7.2107
G1 X105.000 Y116.811 E7.2871
G1 X103.838 Y117.919 E7.3679
G1 X103.727 Y117.962 E7.3740
G1 X102.780 Y117.940 E7.4217
G1 X102.670 Y117.892 E7.4277
G1 X101.473 Y116.636 E7.5152
G1 X100.149 Y117.898 E7.6073
G1 X100.038 Y117.941 E7.6133
G1 X99.091 Y117.918 E7.6611
G1 X98.981 Y117.870 E7.6671
G1 X97.808 Y116.640 E7.7528
G1 X96.511 Y117.877 E7.8431
G1 X96.399 Y117.920 E7.8491
G1 X95.452 Y117.898 E7.8969
G1 X95.343 Y117.850 E7.9029
G1 X94.145 Y116.594 E7.9904
G1 X92.822 Y117.856 E8.0825
G1 X92.710 Y117.899 E8.0885
G1 X91.763 Y117.876 E8.1363
G1 X91.654 Y117.828 E8.1423
G1 X90.429 Y116.544 E8.2317
G1 X89.249 Y117.670 E8.3138
G1 X89.138 Y117.713 E8.3199
G1 X88.190 Y117.691 E8.3676
G1 X88.081 Y117.642 E8.3736
G1 X86.883 Y116.387 E8.4611
G1 X85.560 Y117.649 E8.5532
G1 X85.449 Y117.692 E8.5592
G1 X84.501 Y117.669 E8.6070
G1 X84.392 Y117.621 E8.6130
G1 X83.219 Y116.391 E8.6987
G1 X81.921 Y117.628 E8.7890
G1 X81.810 Y117.671 E8.7950
G1 X80.863 Y117.649 E8.8428
G1 X80.753 Y117.601 E8.8488
G1 X79.556 Y116.345 E8.9362
G1 X78.232 Y117.607 E9.0284
G1 X78.121 Y117.650 E9.0344
G1 X77.174 Y117.627 E9.0822
G1 X77.064 Y117.579 E9.0882
G1 X76.018 Y116.482 E9.1646
G1 X74.856 Y117.589 E9.2455
G1 X74.745 Y117.633 E9.2515
G1 X73.797 Y117.610 E9.2992
G1 X73.688 Y117.562 E9.3052
G1 X72.490 Y116.306 E9.3927
G1 X71.167 Y117.568 E9.4848
G1 X71.056 Y117.611 E9.4909
G1 X70.108 Y117.589 E9.5386
G1 X69.999 Y117.540 E9.5446
G1 X68.826 Y116.310 E9.6303
G1 X67.529 Y117.548 E9.7206
G1 X67.417 Y117.591 E9.7266
G1 X66.470 Y117.568 E9.7744
G1 X66.361 Y117.520 E9.7804
G1 X65.163 Y116.264 E9.8679
G1 X63.840 Y117.526 E9.9600
G1 X63.728 Y117.569 E9.9660
G1 X62.781 Y117.547 E10.0138
G1 X62.672 Y117.499 E10.0198
G1 X53.735 Y108.129 E10.6722
G1 X53.692 Y108.018 E10.6782
G1 X53.714 Y107.070 E10.7260
G1 X53.763 Y106.961 E10.7320
G1 X84.696 Y77.457 E12.8860
G1 X84.840 Y77.319 F792
; outer perimeter
G1 X85.385 Y79.011 F4800
G92 E0
G1 X86.351 Y80.024 E0.0705 F396
G1 X57.406 Y107.632 E2.0861
G1 X64.308 Y114.868 E2.5900
G1 X63.295 Y115.834 E2.6605
G1 X55.427 Y107.585 E3.2350
G1 X85.240 Y79.149 E5.3110
G1 X85.385 Y79.011 F396
; solid layer
G1 X85.368 Y79.732 F4800
G92 E0
G1 X85.630 Y80.007 E0.0191 F634
G1 X56.685 Y107.615 E2.0347
G1 X63.587 Y114.851 E2.5386
G1 X63.312 Y115.113 E2.5578
G1 X56.148 Y107.602 E3.0808
G1 X85.223 Y79.870 E5.1054
G1 X85.368 Y79.732 F634
G92 E0
G1 E-4.0000 F2400
; outer perimeter
G1 X73.903 Y91.905 F4800
G1 X57.415 Y107.632 F4800
G1 X59.116 Y107.606 F4800
G1 E-0.2000 F2400
G92 E0
G1 X89.074 Y79.032 E2.0861 F396
G1 X90.040 Y80.045 E2.1567
G1 X61.095 Y107.653 E4.1722
G1 X67.997 Y114.889 E4.6761
G1 X66.984 Y115.856 E4.7467
G1 X59.254 Y107.751 E5.3110
G1 X59.116 Y107.606 F396
; solid layer
G1 X59.837 Y107.623 F4800
G92 E0
G1 X89.057 Y79.753 E2.0347 F634
G1 X89.319 Y80.028 E2.0539
G1 X60.374 Y107.636 E4.0694
G1 X67.276 Y114.872 E4.5733
G1 X67.001 Y115.135 E4.5925
G1 X59.975 Y107.768 E5.1054
G1 X59.837 Y107.623 F634
; outer perimeter
G1 X62.755 Y107.627 F4800
G92 E0
G1 X92.712 Y79.052 E2.0861 F396
G1 X93.679 Y80.066 E2.1567
G1 X64.734 Y107.674 E4.1722
G1 X71.636 Y114.910 E4.6761
G1 X70.623 Y115.876 E4.7467
G1 X62.893 Y107.772 E5.3110
G1 X62.755 Y107.627 F396
; solid layer
G1 X63.476 Y107.644 F4800
G92 E0
G1 X92.695 Y79.774 E2.0347 F634
G1 X92.958 Y80.049 E2.0539
G1 X64.013 Y107.657 E4.0694
G1 X70.915 Y114.893 E4.5733
G1 X70.640 Y115.155 E4.5925
G1 X63.614 Y107.789 E5.1054
G1 X63.476 Y107.644 F634
G92 E0
G1 E-4.0000 F2400
; outer perimeter
G1 X72.274 Y100.490 F4800
G1 X93.687 Y80.066 F4800
G1 X97.368 Y80.087 F4800
G1 E-0.2000 F2400
G92 E0
G1 X68.423 Y107.695 E2.0156 F396
G1 X75.325 Y114.931 E2.5195
G1 X74.312 Y115.898 E2.5900
G1 X66.444 Y107.648 E3.1644
G1 X96.401 Y79.074 E5.2505
G1 X97.230 Y79.942 E5.3110
G1 X97.368 Y80.087 F396
; solid layer
G1 X96.647 Y80.070 F4800
G92 E0
G1 X67.702 Y107.678 E2.0156 F634
G1 X74.604 Y114.914 E2.5195
G1 X74.329 Y115.176 E2.5386
G1 X67.165 Y107.665 E3.0616
G1 X96.384 Y79.795 E5.0964
G1 X96.509 Y79.925 E5.1054
G1 X96.647 Y80.070 F634
G92 E0
G1 E-4.0000 F2400
; outer perimeter
G1 X95.926 Y81.470 F4800
G1 X68.431 Y107.695 F4800
G1 X75.333 Y114.931 F4800
G1 X78.701 Y114.948 F4800
G1 E-0.2000 F2400
G92 E0
G1 X77.688 Y115.915 E0.0705 F396
G1 X69.820 Y107.665 E0.6450
G1 X99.778 Y79.091 E2.7311
G1 X100.744 Y80.104 E2.8016
G1 X71.799 Y107.712 E4.8172
G1 X78.563 Y114.804 E5.3110
G1 X78.701 Y114.948 F396
; solid layer
G1 X77.980 Y114.931 F4800
G92 E0
G1 X77.705 Y115.194 E0.0191 F634
G1 X70.541 Y107.683 E0.5422
G1 X99.761 Y79.812 E2.5769
G1 X100.023 Y80.087 E2.5960
G1 X71.078 Y107.695 E4.6116
G1 X77.842 Y114.787 E5.1054
G1 X77.980 Y114.931 F634
G92 E0
G1 E-4.0000 F2400
; outer perimeter
G1 X78.285 Y114.503 F4800
G1 X71.808 Y107.712 F4800
G1 X100.752 Y80.104 F4800
G1 X103.467 Y79.113 F4800
G1 E-0.2000 F2400
G92 E0
G1 X104.433 Y80.126 E0.0705 F396
G1 X75.488 Y107.734 E2.0861
G1 X82.390 Y114.970 E2.5900
G1 X81.377 Y115.936 E2.6605
G1 X73.509 Y107.687 E3.2350
G1 X103.322 Y79.251 E5.3110
G1 X103.467 Y79.113 F396
; solid layer
G1 X103.450 Y79.834 F4800
G92 E0
G1 X103.712 Y80.109 E0.0191 F634
G1 X74.767 Y107.717 E2.0347
G1 X81.669 Y114.953 E2.5386
G1 X81.394 Y115.215 E2.5578
G1 X74.230 Y107.704 E3.0808
G1 X103.305 Y79.972 E5.1054
G1 X103.450 Y79.834 F634
G92 E0
G1 E-4.0000 F2400
; outer perimeter
G1 X102.218 Y82.246 F4800
G1 X75.497 Y107.734 F4800
G1 X82.399 Y114.970 F4800
G1 X85.016 Y115.957 F4800
G1 E-0.2000 F2400
G92 E0
G1 X77.148 Y107.707 E0.5744 F396
G1 X107.105 Y79.133 E2.6605
G1 X108.072 Y80.146 E2.7311
G1 X79.127 Y107.754 E4.7467
G1 X86.029 Y114.990 E5.2505
G1 X85.161 Y115.819 E5.3110
G1 X85.016 Y115.957 F396
; solid layer
G1 X85.033 Y115.236 F4800
G92 E0
G1 X77.869 Y107.724 E0.5230 F634
G1 X107.088 Y79.854 E2.5578
G1 X107.351 Y80.129 E2.5769
G1 X78.406 Y107.737 E4.5925
G1 X85.308 Y114.973 E5.0964
G1 X85.178 Y115.098 E5.1054
G1 X85.033 Y115.236 F634
G92 E0
G1 E-4.0000 F2400
; outer perimeter
G1 X85.563 Y114.493 F4800
G1 X79.135 Y107.754 F4800
G1 X108.080 Y80.146 F4800
G1 X110.794 Y79.155 F4800
G1 E-0.2000 F2400
G92 E0
G1 X111.761 Y80.168 E0.0705 F396
G1 X82.816 Y107.776 E2.0861
G1 X89.718 Y115.012 E2.5900
G1 X88.705 Y115.978 E2.6605
G1 X80.837 Y107.729 E3.2350
G1 X110.650 Y79.293 E5.3110
G1 X110.794 Y79.154 F396
; solid layer
G1 X110.777 Y79.876 F4800
G92 E0
G1 X111.040 Y80.150 E0.0191 F634
G1 X82.095 Y107.759 E2.0347
G1 X88.997 Y114.995 E2.5386
G1 X88.722 Y115.257 E2.5578
G1 X81.558 Y107.746 E3.0808
G1 X110.633 Y80.014 E5.1054
G1 X110.777 Y79.876 F634
G92 E0
G1 E-4.0000 F2400
; outer perimeter
G1 X109.616 Y82.222 F4800
G1 X82.824 Y107.776 F4800
G1 X89.726 Y115.012 F4800
G1 X93.290 Y115.198 F4800
G1 E-0.2000 F2400
G92 E0
G1 X92.277 Y116.164 E0.0705 F396
G1 X84.409 Y107.915 E0.6450
G1 X114.367 Y79.340 E2.7311
G1 X115.333 Y80.353 E2.8016
G1 X86.388 Y107.961 E4.8172
G1 X93.152 Y115.053 E5.3110
G1 X93.290 Y115.198 F396
; solid layer
G1 X92.569 Y115.181 F4800
G92 E0
G1 X92.294 Y115.443 E0.0191 F634
G1 X85.130 Y107.932 E0.5422
G1 X114.350 Y80.061 E2.5769
