; G-Code generated by Simplify3D(R) Version 3.0.2
; мар 21, 2016 at 7:28:04 
; Settings Summary
;   processName,Process1
;   applyToModels,battery-aa-holder-4-mod3
;   profileName,builder (modified)
;   profileVersion,2016-03-08 17:07:31
;   baseProfile,Default
;   printMaterial,ABS
;   printQuality,Medium
;   printExtruders,
;   extruderName,Extruder 1
;   extruderToolheadNumber,0
;   extruderDiameter,0.5
;   extruderAutoWidth,0
;   extruderWidth,0.63
;   extrusionMultiplier,1.01
;   extruderUseRetract,1
;   extruderRetractionDistance,4
;   extruderExtraRestartDistance,0
;   extruderRetractionZLift,0
;   extruderRetractionSpeed,2400
;   extruderUseCoasting,0
;   extruderCoastingDistance,0.25
;   extruderUseWipe,0
;   extruderWipeDistance,5
;   primaryExtruder,0
;   layerHeight,0.2
;   topSolidLayers,3
;   bottomSolidLayers,2
;   perimeterOutlines,1
;   printPerimetersInsideOut,0
;   startPointOption,2
;   startPointOriginX,0
;   startPointOriginY,0
;   startPointOriginZ,300
;   sequentialIslands,0
;   spiralVaseMode,0
;   firstLayerHeightPercentage,80
;   firstLayerWidthPercentage,100
;   firstLayerUnderspeed,0.25
;   useRaft,0
;   raftExtruder,0
;   raftLayers,3
;   raftOffset,3
;   raftSeparationDistance,0.14
;   raftInfill,85
;   disableRaftBaseLayers,0
;   useSkirt,1
;   skirtExtruder,0
;   skirtLayers,1
;   skirtOutlines,8
;   skirtOffset,0
;   usePrimePillar,0
;   primePillarExtruder,999
;   primePillarWidth,12
;   primePillarLocation,7
;   primePillarSpeedMultiplier,1
;   useOozeShield,0
;   oozeShieldExtruder,999
;   oozeShieldOffset,2
;   oozeShieldOutlines,1
;   oozeShieldSidewallShape,1
;   oozeShieldSidewallAngle,30
;   oozeShieldSpeedMultiplier,1
;   infillExtruder,0
;   internalInfillPattern,Wiggle
;   externalInfillPattern,Rectilinear
;   infillPercentage,16
;   outlineOverlapPercentage,15
;   infillExtrusionWidthPercentage,100
;   minInfillLength,5
;   infillLayerInterval,1
;   infillAngles,0
;   overlapInfillAngles,0
;   generateSupport,0
;   supportExtruder,0
;   supportInfillPercentage,50
;   supportExtraInflation,0
;   denseSupportLayers,0
;   denseSupportInfillPercentage,70
;   supportLayerInterval,1
;   supportHorizontalPartOffset,0.3
;   supportUpperSeparationLayers,1
;   supportLowerSeparationLayers,1
;   supportType,0
;   supportGridSpacing,4
;   maxOverhangAngle,45
;   supportAngles,0
;   temperatureName,Extruder 1 Temperature,Heated Bed
;   temperatureNumber,0,1
;   temperatureSetpointCount,2,1
;   temperatureSetpointLayers,1,1,1
;   temperatureSetpointTemperatures,250,235,110
;   temperatureStabilizeAtStartup,1,1
;   temperatureHeatedBed,0,1
;   temperatureRelayBetweenLayers,0,0
;   temperatureRelayBetweenLoops,0,0
;   fanLayers,224
;   fanSpeeds,20
;   blipFanToFullPower,0
;   adjustSpeedForCooling,1
;   minSpeedLayerTime,10
;   minCoolingSpeedSlowdown,20
;   increaseFanForCooling,0
;   minFanLayerTime,45
;   maxCoolingFanSpeed,100
;   increaseFanForBridging,1
;   bridgingFanSpeed,60
;   use5D,1
;   relativeEdistances,0
;   allowEaxisZeroing,1
;   independentExtruderAxes,0
;   includeM10123,0
;   stickySupport,1
;   applyToolheadOffsets,0
;   gcodeXoffset,0
;   gcodeYoffset,0
;   gcodeZoffset,0
;   overrideMachineDefinition,1
;   machineTypeOverride,0
;   strokeXoverride,200
;   strokeYoverride,200
;   strokeZoverride,200
;   originOffsetXoverride,0
;   originOffsetYoverride,0
;   originOffsetZoverride,0
;   homeXdirOverride,-1
;   homeYdirOverride,-1
;   homeZdirOverride,-1
;   flipXoverride,1
;   flipYoverride,-1
;   flipZoverride,1
;   toolheadOffsets,0,0|0,0|0,0|0,0|0,0|0,0
;   overrideFirmwareConfiguration,1
;   firmwareTypeOverride,RepRap (Marlin/Repetier/Sprinter)
;   GPXconfigOverride,r2
;   baudRateOverride,115200
;   overridePrinterModels,0
;   printerModelsOverride
;   startingGcode,G28 ; home all axes
;   layerChangeGcode,
;   retractionGcode,
;   toolChangeGcode,
;   endingGcode,M104 S0 ; turn off extruder,M140 S0 ; turn off bed,G28 X0;,M84 ; disable motors
;   createX3G,0
;   celebration,0
;   celebrationSong,Star Wars
;   createMB5G,0
;   postProcessing,
;   defaultSpeed,3600
;   outlineUnderspeed,0.5
;   solidInfillUnderspeed,0.8
;   supportUnderspeed,0.8
;   rapidXYspeed,4800
;   rapidZspeed,1002
;   minBridgingArea,50
;   bridgingExtraInflation,0
;   bridgingExtrusionMultiplier,1
;   bridgingSpeedMultiplier,1
;   filamentDiameter,1.75
;   filamentPricePerKg,46
;   filamentDensity,1.25
;   useMinPrintHeight,0
;   minPrintHeight,0
;   useMaxPrintHeight,0
;   maxPrintHeight,0
;   useDiaphragm,0
;   diaphragmLayerInterval,24
;   robustSlicing,1
;   mergeAllIntoSolid,0
;   onlyRetractWhenCrossingOutline,1
;   retractBetweenLayers,1
;   useRetractionMinTravel,1
;   retractionMinTravel,5
;   retractWhileWiping,0
;   onlyWipeOutlines,1
;   avoidCrossingOutline,1
;   maxMovementDetourFactor,3
;   toolChangeRetractionDistance,12
;   toolChangeExtraRestartDistance,-0.5
;   toolChangeRetractionSpeed,600
;   allowThinWallGapFill,1
;   thinWallAllowedOverlapPercentage,5
;   horizontalSizeCompensation,0
G90
M82
M140 S110
M190 S110
M104 S250 T0
M109 S250 T0
G28 ; home all axes
G92 E0
G1 E-4.0000 F2400
G1 Z0.160 F1002
; layer 1, Z = 0.16
T0
; tool H0.200 W0.630
; skirt
G1 X57.789 Y69.998 F4800
G1 E0.0000 F720
G92 E0
G1 X58.204 Y69.687 E0.0274 F900
G1 X58.939 Y69.253 E0.0726
G1 X59.344 Y69.063 E0.0963
G1 X60.090 Y68.796 E0.1382
G1 X60.450 Y68.698 E0.1580
G1 X61.094 Y68.577 E0.1926
G1 X61.527 Y68.536 E0.2156
G1 X64.533 Y68.529 E0.3747
G1 X66.275 Y66.788 E0.5050
G1 X66.275 Y64.798 E0.6103
G1 X69.043 Y62.030 E0.8174
G1 X130.957 Y62.030 E4.0932
G1 X133.725 Y64.798 E4.3003
G1 X133.725 Y66.788 E4.4056
G1 X135.460 Y68.523 E4.5354
G1 X138.284 Y68.525 E4.6848
G1 X138.585 Y68.544 E4.7008
G1 X139.168 Y68.619 E4.7318
G1 X139.531 Y68.695 E4.7515
G1 X140.249 Y68.906 E4.7911
G1 X140.596 Y69.038 E4.8107
G1 X141.192 Y69.320 E4.8456
G1 X141.575 Y69.548 E4.8692
G1 X142.398 Y70.149 E4.9231
G1 X142.828 Y70.554 E4.9544
G1 X143.473 Y71.336 E5.0080
G1 X143.723 Y71.703 E5.0315
G1 X144.040 Y72.280 E5.0663
G1 X144.192 Y72.618 E5.0859
G1 X144.471 Y73.392 E5.1294
G1 X144.592 Y73.898 E5.1570
G1 X144.706 Y74.800 E5.2051
G1 X144.725 Y75.097 E5.2208
G1 X144.725 Y131.356 E8.1974
G1 X144.715 Y131.579 E8.2092
G1 X144.644 Y132.323 E8.2488
G1 X144.539 Y132.833 E8.2763
G1 X144.223 Y133.804 E8.3304
G1 X144.009 Y134.279 E8.3579
G1 X143.570 Y135.020 E8.4035
G1 X143.306 Y135.383 E8.4272
G1 X142.781 Y135.977 E8.4692
G1 X142.512 Y136.236 E8.4889
G1 X142.002 Y136.656 E8.5239
G1 X141.633 Y136.905 E8.5474
G1 X140.802 Y137.359 E8.5975
G1 X140.393 Y137.535 E8.6211
G1 X139.731 Y137.749 E8.6579
G1 X139.299 Y137.844 E8.6813
G1 X138.441 Y137.952 E8.7270
G1 X138.147 Y137.970 E8.7426
G1 X61.881 Y137.970 E12.7778
G1 X61.653 Y137.959 E12.7899
G1 X60.905 Y137.886 E12.8296
G1 X60.396 Y137.780 E12.8571
G1 X59.425 Y137.461 E12.9112
G1 X58.951 Y137.246 E12.9387
G1 X58.247 Y136.827 E12.9821
G1 X57.948 Y136.616 E13.0015
G1 X57.446 Y136.200 E13.0359
G1 X57.132 Y135.886 E13.0594
G1 X56.529 Y135.157 E13.1095
G1 X56.278 Y134.788 E13.1331
G1 X55.960 Y134.210 E13.1680
G1 X55.808 Y133.872 E13.1876
G1 X55.529 Y133.098 E13.2311
G1 X55.408 Y132.592 E13.2586
G1 X55.294 Y131.690 E13.3068
G1 X55.275 Y131.393 E13.3225
G1 X55.275 Y75.097 E16.3011
G1 X55.294 Y74.800 E16.3168
G1 X55.408 Y73.897 E16.3649
G1 X55.529 Y73.392 E16.3925
G1 X55.808 Y72.618 E16.4360
G1 X55.960 Y72.280 E16.4556
G1 X56.242 Y71.767 E16.4866
G1 X56.401 Y71.516 E16.5023
G1 X56.768 Y71.011 E16.5353
G1 X57.066 Y70.674 E16.5591
G1 X57.789 Y69.998 E16.6115
G1 X58.194 Y70.481 F4800
G92 E0
G1 X58.554 Y70.212 E0.0238 F900
G1 X59.234 Y69.810 E0.0656
G1 X59.585 Y69.646 E0.0861
G1 X60.279 Y69.397 E0.1251
G1 X60.591 Y69.312 E0.1422
G1 X61.182 Y69.201 E0.1740
G1 X61.557 Y69.166 E0.1940
G1 X64.905 Y69.159 E0.3711
G1 X64.905 Y69.049 E0.3769
G1 X66.905 Y67.049 E0.5265
G1 X66.905 Y65.059 E0.6318
G1 X69.304 Y62.660 E0.8113
G1 X130.696 Y62.660 E4.0595
G1 X133.095 Y65.059 E4.2390
G1 X133.095 Y67.049 E4.3443
G1 X135.095 Y69.049 E4.4939
G1 X135.095 Y69.153 E4.4994
G1 X138.264 Y69.154 E4.6671
G1 X138.524 Y69.171 E4.6809
G1 X139.063 Y69.241 E4.7096
G1 X139.378 Y69.307 E4.7266
G1 X140.048 Y69.503 E4.7636
G1 X140.349 Y69.618 E4.7806
G1 X140.896 Y69.877 E4.8126
G1 X141.227 Y70.074 E4.8330
G1 X141.995 Y70.635 E4.8833
G1 X142.367 Y70.986 E4.9104
G1 X142.969 Y71.714 E4.9604
G1 X143.185 Y72.032 E4.9807
G1 X143.476 Y72.562 E5.0127
G1 X143.608 Y72.855 E5.0297
G1 X143.866 Y73.573 E5.0701
G1 X143.972 Y74.011 E5.0939
G1 X144.079 Y74.860 E5.1392
G1 X144.095 Y75.116 E5.1528
G1 X144.095 Y131.341 E8.1276
G1 X144.086 Y131.534 E8.1378
G1 X144.020 Y132.229 E8.1747
G1 X143.929 Y132.671 E8.1986
G1 X143.635 Y133.576 E8.2490
G1 X143.449 Y133.988 E8.2728
G1 X143.043 Y134.673 E8.3150
G1 X142.814 Y134.988 E8.3356
G1 X142.325 Y135.541 E8.3746
G1 X142.093 Y135.765 E8.3917
G1 X141.625 Y136.150 E8.4238
G1 X141.305 Y136.366 E8.4442
G1 X140.526 Y136.792 E8.4912
G1 X140.171 Y136.945 E8.5116
G1 X139.566 Y137.140 E8.5453
G1 X139.192 Y137.223 E8.5655
G1 X138.382 Y137.324 E8.6087
G1 X138.128 Y137.340 E8.6222
G1 X61.896 Y137.340 E12.6555
G1 X61.698 Y137.330 E12.6660
G1 X61.001 Y137.263 E12.7031
G1 X60.559 Y137.170 E12.7269
G1 X59.655 Y136.874 E12.7773
G1 X59.244 Y136.687 E12.8012
G1 X58.590 Y136.298 E12.8414
G1 X58.331 Y136.115 E12.8582
G1 X57.871 Y135.734 E12.8898
G1 X57.599 Y135.462 E12.9102
G1 X57.033 Y134.778 E12.9571
G1 X56.816 Y134.459 E12.9775
G1 X56.524 Y133.928 E13.0096
G1 X56.392 Y133.635 E13.0266
G1 X56.134 Y132.917 E13.0669
G1 X56.028 Y132.479 E13.0908
G1 X55.921 Y131.630 E13.1361
G1 X55.905 Y131.374 E13.1497
G1 X55.905 Y75.116 E16.1262
G1 X55.921 Y74.860 E16.1398
G1 X56.028 Y74.011 E16.1850
G1 X56.134 Y73.572 E16.2089
G1 X56.392 Y72.855 E16.2492
G1 X56.524 Y72.562 E16.2663
G1 X56.785 Y72.088 E16.2949
G1 X56.923 Y71.871 E16.3085
G1 X57.260 Y71.406 E16.3389
G1 X57.518 Y71.114 E16.3595
G1 X58.194 Y70.481 E16.4085
G1 X58.599 Y70.965 F4800
G92 E0
G1 X58.904 Y70.737 E0.0201 F900
G1 X59.528 Y70.368 E0.0585
G1 X59.826 Y70.229 E0.0759
G1 X60.468 Y69.999 E0.1120
G1 X60.732 Y69.927 E0.1265
G1 X61.270 Y69.826 E0.1554
G1 X61.588 Y69.796 E0.1723
G1 X65.535 Y69.787 E0.3811
G1 X65.535 Y69.310 E0.4064
G1 X67.535 Y67.310 E0.5561
G1 X67.535 Y65.320 E0.6613
G1 X69.565 Y63.290 E0.8132
G1 X130.435 Y63.290 E4.0338
G1 X132.465 Y65.320 E4.1857
G1 X132.465 Y67.310 E4.2909
G1 X134.465 Y69.310 E4.4406
G1 X134.465 Y69.782 E4.4656
G1 X138.243 Y69.784 E4.6655
G1 X138.464 Y69.799 E4.6772
G1 X138.958 Y69.862 E4.7035
G1 X139.224 Y69.918 E4.7179
G1 X139.847 Y70.101 E4.7523
G1 X140.101 Y70.198 E4.7667
G1 X140.599 Y70.434 E4.7958
G1 X140.880 Y70.600 E4.8131
G1 X141.591 Y71.120 E4.8597
G1 X141.907 Y71.417 E4.8826
G1 X142.464 Y72.093 E4.9290
G1 X142.647 Y72.362 E4.9462
G1 X142.912 Y72.844 E4.9753
G1 X143.024 Y73.092 E4.9897
G1 X143.262 Y73.753 E5.0269
G1 X143.351 Y74.124 E5.0471
G1 X143.451 Y74.919 E5.0894
G1 X143.465 Y75.136 E5.1010
G1 X143.465 Y131.327 E8.0739
G1 X143.457 Y131.490 E8.0826
G1 X143.396 Y132.136 E8.1169
G1 X143.319 Y132.509 E8.1371
G1 X143.046 Y133.349 E8.1838
G1 X142.889 Y133.697 E8.2040
G1 X142.516 Y134.327 E8.2427
G1 X142.322 Y134.593 E8.2601
G1 X141.870 Y135.104 E8.2963
G1 X141.673 Y135.295 E8.3107
G1 X141.247 Y135.645 E8.3399
G1 X140.977 Y135.828 E8.3572
G1 X140.250 Y136.225 E8.4010
G1 X139.950 Y136.354 E8.4183
G1 X139.401 Y136.531 E8.4488
G1 X139.084 Y136.601 E8.4660
G1 X138.324 Y136.697 E8.5065
G1 X138.108 Y136.710 E8.5180
G1 X61.911 Y136.710 E12.5494
G1 X61.744 Y136.702 E12.5583
G1 X61.096 Y136.639 E12.5927
G1 X60.723 Y136.561 E12.6129
G1 X59.884 Y136.286 E12.6596
G1 X59.536 Y136.128 E12.6798
G1 X58.933 Y135.769 E12.7169
G1 X58.714 Y135.614 E12.7311
G1 X58.295 Y135.268 E12.7599
G1 X58.065 Y135.037 E12.7771
G1 X57.538 Y134.400 E12.8209
G1 X57.354 Y134.129 E12.8382
G1 X57.088 Y133.647 E12.8674
G1 X56.976 Y133.398 E12.8818
G1 X56.738 Y132.737 E12.9190
G1 X56.649 Y132.366 E12.9391
G1 X56.549 Y131.571 E12.9815
G1 X56.535 Y131.354 E12.9930
G1 X56.535 Y75.136 E15.9674
G1 X56.549 Y74.919 E15.9790
G1 X56.649 Y74.124 E16.0213
G1 X56.738 Y73.753 E16.0415
G1 X56.976 Y73.092 E16.0787
G1 X57.088 Y72.843 E16.0931
G1 X57.327 Y72.409 E16.1194
G1 X57.444 Y72.225 E16.1309
G1 X57.752 Y71.800 E16.1587
G1 X57.971 Y71.553 E16.1761
G1 X58.599 Y70.965 E16.2217
G1 X59.005 Y71.448 F4800
G92 E0
G1 X59.254 Y71.262 E0.0165 F900
G1 X59.823 Y70.926 E0.0514
G1 X60.066 Y70.812 E0.0656
G1 X60.657 Y70.600 E0.0989
G1 X60.873 Y70.541 E0.1107
G1 X61.358 Y70.450 E0.1368
G1 X61.618 Y70.426 E0.1506
G1 X66.165 Y70.416 E0.3912
G1 X66.165 Y69.571 E0.4359
G1 X67.826 Y67.910 E0.5602
G1 X68.165 Y67.910 E0.5781
G1 X68.165 Y65.581 E0.7014
G1 X69.826 Y63.920 E0.8256
G1 X130.174 Y63.920 E4.0186
G1 X131.835 Y65.581 E4.1429
G1 X131.835 Y67.910 E4.2661
G1 X132.174 Y67.910 E4.2840
G1 X133.835 Y69.571 E4.4083
G1 X133.835 Y70.412 E4.4528
G1 X138.223 Y70.414 E4.6850
G1 X138.403 Y70.426 E4.6945
G1 X138.852 Y70.484 E4.7185
G1 X139.071 Y70.530 E4.7303
G1 X139.646 Y70.698 E4.7620
G1 X139.854 Y70.778 E4.7738
G1 X140.302 Y70.990 E4.8000
G1 X140.532 Y71.127 E4.8142
G1 X141.188 Y71.606 E4.8571
G1 X141.446 Y71.849 E4.8759
G1 X141.960 Y72.471 E4.9186
G1 X142.109 Y72.691 E4.9327
G1 X142.348 Y73.125 E4.9589
G1 X142.439 Y73.328 E4.9707
G1 X142.657 Y73.934 E5.0047
G1 X142.730 Y74.238 E5.0212
G1 X142.824 Y74.978 E5.0607
G1 X142.835 Y75.156 E5.0702
G1 X142.835 Y131.312 E8.0413
G1 X142.829 Y131.445 E8.0483
G1 X142.772 Y132.042 E8.0801
G1 X142.709 Y132.347 E8.0966
G1 X142.458 Y133.121 E8.1396
G1 X142.329 Y133.406 E8.1561
G1 X141.989 Y133.980 E8.1914
G1 X141.831 Y134.198 E8.2057
G1 X141.415 Y134.668 E8.2389
G1 X141.253 Y134.824 E8.2508
G1 X140.870 Y135.140 E8.2771
G1 X140.649 Y135.289 E8.2912
G1 X139.974 Y135.658 E8.3319
G1 X139.728 Y135.764 E8.3460
G1 X139.236 Y135.922 E8.3734
G1 X138.976 Y135.980 E8.3874
G1 X138.265 Y136.069 E8.4254
G1 X138.088 Y136.080 E8.4348
G1 X61.926 Y136.080 E12.4644
G1 X61.789 Y136.073 E12.4716
G1 X61.191 Y136.015 E12.5034
G1 X60.886 Y135.951 E12.5199
G1 X60.113 Y135.698 E12.5630
G1 X59.828 Y135.569 E12.5795
G1 X59.276 Y135.240 E12.6135
G1 X59.097 Y135.113 E12.6251
G1 X58.720 Y134.801 E12.6510
G1 X58.532 Y134.613 E12.6651
G1 X58.042 Y134.021 E12.7057
G1 X57.891 Y133.800 E12.7199
G1 X57.652 Y133.365 E12.7462
G1 X57.561 Y133.162 E12.7579
G1 X57.343 Y132.556 E12.7920
G1 X57.270 Y132.252 E12.8085
G1 X57.176 Y131.512 E12.8480
G1 X57.165 Y131.334 E12.8574
G1 X57.165 Y75.156 E15.8298
G1 X57.176 Y74.978 E15.8392
G1 X57.270 Y74.238 E15.8787
G1 X57.343 Y73.934 E15.8952
G1 X57.561 Y73.328 E15.9293
G1 X57.652 Y73.125 E15.9410
G1 X57.870 Y72.730 E15.9649
G1 X57.965 Y72.579 E15.9744
G1 X58.245 Y72.195 E15.9995
G1 X58.423 Y71.993 E16.0138
G1 X59.005 Y71.448 E16.0559
G1 X59.410 Y71.932 F4800
G92 E0
G1 X59.604 Y71.787 E0.0128 F900
G1 X60.118 Y71.483 E0.0444
G1 X60.307 Y71.395 E0.0554
G1 X60.846 Y71.201 E0.0857
G1 X61.014 Y71.156 E0.0950
G1 X61.446 Y71.075 E0.1182
G1 X61.648 Y71.056 E0.1290
G1 X66.795 Y71.045 E0.4013
G1 X66.795 Y69.832 E0.4654
G1 X68.087 Y68.540 E0.5621
G1 X68.795 Y68.540 E0.5996
G1 X68.795 Y65.842 E0.7423
G1 X70.087 Y64.550 E0.8390
G1 X129.913 Y64.550 E4.0043
G1 X131.205 Y65.842 E4.1010
G1 X131.205 Y68.540 E4.2437
G1 X131.913 Y68.540 E4.2812
G1 X133.205 Y69.832 E4.3779
G1 X133.205 Y71.041 E4.4419
G1 X138.202 Y71.044 E4.7063
G1 X138.343 Y71.054 E4.7137
G1 X138.747 Y71.106 E4.7353
G1 X138.917 Y71.141 E4.7445
G1 X139.445 Y71.296 E4.7735
G1 X139.607 Y71.358 E4.7827
G1 X140.006 Y71.547 E4.8061
G1 X140.184 Y71.653 E4.8171
