; G-Code generated by Simplify3D(R) Version 3.0.2
; апр 6, 2016 at 8:51:40 
; Settings Summary
;   processName,Process1
;   applyToModels,otsek
;   profileName,builder (modified)
;   profileVersion,2016-03-08 17:07:31
;   baseProfile,Default
;   printMaterial,ABS
;   printQuality,Medium
;   printExtruders,
;   extruderName,Extruder 1
;   extruderToolheadNumber,0
;   extruderDiameter,0.5
;   extruderAutoWidth,0
;   extruderWidth,0.62
;   extrusionMultiplier,1.01
;   extruderUseRetract,1
;   extruderRetractionDistance,4
;   extruderExtraRestartDistance,0
;   extruderRetractionZLift,0
;   extruderRetractionSpeed,2400
;   extruderUseCoasting,0
;   extruderCoastingDistance,0.25
;   extruderUseWipe,0
;   extruderWipeDistance,5
;   primaryExtruder,0
;   layerHeight,0.2
;   topSolidLayers,3
;   bottomSolidLayers,2
;   perimeterOutlines,1
;   printPerimetersInsideOut,0
;   startPointOption,2
;   startPointOriginX,0
;   startPointOriginY,0
;   startPointOriginZ,300
;   sequentialIslands,0
;   spiralVaseMode,0
;   firstLayerHeightPercentage,80
;   firstLayerWidthPercentage,100
;   firstLayerUnderspeed,0.25
;   useRaft,0
;   raftExtruder,0
;   raftLayers,3
;   raftOffset,3
;   raftSeparationDistance,0.14
;   raftInfill,85
;   disableRaftBaseLayers,0
;   useSkirt,1
;   skirtExtruder,0
;   skirtLayers,1
;   skirtOutlines,1
;   skirtOffset,2
;   usePrimePillar,0
;   primePillarExtruder,999
;   primePillarWidth,12
;   primePillarLocation,7
;   primePillarSpeedMultiplier,1
;   useOozeShield,0
;   oozeShieldExtruder,999
;   oozeShieldOffset,2
;   oozeShieldOutlines,1
;   oozeShieldSidewallShape,1
;   oozeShieldSidewallAngle,30
;   oozeShieldSpeedMultiplier,1
;   infillExtruder,0
;   internalInfillPattern,Wiggle
;   externalInfillPattern,Rectilinear
;   infillPercentage,25
;   outlineOverlapPercentage,15
;   infillExtrusionWidthPercentage,100
;   minInfillLength,5
;   infillLayerInterval,1
;   infillAngles,0
;   overlapInfillAngles,0
;   generateSupport,0
;   supportExtruder,0
;   supportInfillPercentage,50
;   supportExtraInflation,0
;   denseSupportLayers,0
;   denseSupportInfillPercentage,70
;   supportLayerInterval,1
;   supportHorizontalPartOffset,0.3
;   supportUpperSeparationLayers,1
;   supportLowerSeparationLayers,1
;   supportType,0
;   supportGridSpacing,4
;   maxOverhangAngle,45
;   supportAngles,0
;   temperatureName,Extruder 1 Temperature,Heated Bed
;   temperatureNumber,0,1
;   temperatureSetpointCount,2,1
;   temperatureSetpointLayers,1,1,1
;   temperatureSetpointTemperatures,250,235,110
;   temperatureStabilizeAtStartup,1,1
;   temperatureHeatedBed,0,1
;   temperatureRelayBetweenLayers,0,0
;   temperatureRelayBetweenLoops,0,0
;   fanLayers,224
;   fanSpeeds,20
;   blipFanToFullPower,0
;   adjustSpeedForCooling,1
;   minSpeedLayerTime,10
;   minCoolingSpeedSlowdown,20
;   increaseFanForCooling,0
;   minFanLayerTime,45
;   maxCoolingFanSpeed,100
;   increaseFanForBridging,1
;   bridgingFanSpeed,60
;   use5D,1
;   relativeEdistances,0
;   allowEaxisZeroing,1
;   independentExtruderAxes,0
;   includeM10123,0
;   stickySupport,1
;   applyToolheadOffsets,0
;   gcodeXoffset,0
;   gcodeYoffset,0
;   gcodeZoffset,0
;   overrideMachineDefinition,1
;   machineTypeOverride,0
;   strokeXoverride,200
;   strokeYoverride,200
;   strokeZoverride,200
;   originOffsetXoverride,0
;   originOffsetYoverride,0
;   originOffsetZoverride,0
;   homeXdirOverride,-1
;   homeYdirOverride,-1
;   homeZdirOverride,-1
;   flipXoverride,1
;   flipYoverride,-1
;   flipZoverride,1
;   toolheadOffsets,0,0|0,0|0,0|0,0|0,0|0,0
;   overrideFirmwareConfiguration,1
;   firmwareTypeOverride,RepRap (Marlin/Repetier/Sprinter)
;   GPXconfigOverride,r2
;   baudRateOverride,115200
;   overridePrinterModels,0
;   printerModelsOverride
;   startingGcode,G28 ; home all axes
;   layerChangeGcode,
;   retractionGcode,
;   toolChangeGcode,
;   endingGcode,M104 S0 ; turn off extruder,M140 S0 ; turn off bed,G28 X0;,M84 ; disable motors
;   createX3G,0
;   celebration,0
;   celebrationSong,Star Wars
;   createMB5G,0
;   postProcessing,
;   defaultSpeed,3600
;   outlineUnderspeed,0.5
;   solidInfillUnderspeed,0.8
;   supportUnderspeed,0.8
;   rapidXYspeed,4800
;   rapidZspeed,1002
;   minBridgingArea,50
;   bridgingExtraInflation,0
;   bridgingExtrusionMultiplier,1
;   bridgingSpeedMultiplier,1
;   filamentDiameter,1.75
;   filamentPricePerKg,46
;   filamentDensity,1.25
;   useMinPrintHeight,0
;   minPrintHeight,0
;   useMaxPrintHeight,0
;   maxPrintHeight,0
;   useDiaphragm,0
;   diaphragmLayerInterval,24
;   robustSlicing,1
;   mergeAllIntoSolid,0
;   onlyRetractWhenCrossingOutline,1
;   retractBetweenLayers,1
;   useRetractionMinTravel,1
;   retractionMinTravel,5
;   retractWhileWiping,0
;   onlyWipeOutlines,1
;   avoidCrossingOutline,1
;   maxMovementDetourFactor,3
;   toolChangeRetractionDistance,12
;   toolChangeExtraRestartDistance,-0.5
;   toolChangeRetractionSpeed,600
;   allowThinWallGapFill,1
;   thinWallAllowedOverlapPercentage,5
;   horizontalSizeCompensation,0
G90
M82
M140 S110
M190 S110
M104 S250 T0
M109 S250 T0
G28 ; home all axes
G92 E0
G1 E-4.0000 F2400
G1 Z0.160 F1002
; layer 1, Z = 0.16
T0
; tool H0.200 W0.620
; skirt
G1 X59.140 Y72.520 F4800
G1 E0.0000 F720
G92 E0
G1 X59.594 Y72.168 E0.0299 F900
G1 X59.606 Y72.160 E0.0307
G1 X59.777 Y72.051 E0.0412
G1 X59.790 Y72.044 E0.0420
G1 X60.290 Y71.789 E0.0712
G1 X60.302 Y71.784 E0.0719
G1 X60.458 Y71.719 E0.0807
G1 X60.469 Y71.715 E0.0813
G1 X60.869 Y71.585 E0.1032
G1 X60.881 Y71.581 E0.1039
G1 X61.046 Y71.542 E0.1127
G1 X61.058 Y71.540 E0.1133
G1 X61.596 Y71.454 E0.1417
G1 X61.608 Y71.453 E0.1423
G1 X61.777 Y71.439 E0.1511
G1 X61.789 Y71.439 E0.1518
G1 X66.790 Y71.436 E0.4122
G1 X66.790 Y69.355 E0.5205
G1 X66.837 Y69.241 E0.5270
G1 X68.096 Y67.982 E0.6197
G1 X68.210 Y67.935 E0.6261
G1 X68.990 Y67.935 E0.6667
G1 X68.990 Y65.365 E0.8005
G1 X69.037 Y65.251 E0.8069
G1 X70.296 Y63.992 E0.8996
G1 X70.410 Y63.945 E0.9061
G1 X129.590 Y63.945 E3.9875
G1 X129.704 Y63.992 E3.9939
G1 X130.963 Y65.251 E4.0866
G1 X131.010 Y65.365 E4.0930
G1 X131.010 Y67.935 E4.2268
G1 X131.790 Y67.935 E4.2675
G1 X131.904 Y67.982 E4.2739
G1 X133.163 Y69.241 E4.3666
G1 X133.210 Y69.355 E4.3730
G1 X133.210 Y71.435 E4.4813
G1 X138.051 Y71.435 E4.7334
G1 X138.058 Y71.435 E4.7337
G1 X138.160 Y71.440 E4.7390
G1 X138.167 Y71.440 E4.7394
G1 X138.710 Y71.492 E4.7678
G1 X138.727 Y71.494 E4.7687
G1 X138.959 Y71.542 E4.7811
G1 X138.976 Y71.547 E4.7820
G1 X139.662 Y71.770 E4.8195
G1 X139.676 Y71.775 E4.8203
G1 X139.862 Y71.856 E4.8309
G1 X139.875 Y71.862 E4.8316
G1 X140.259 Y72.073 E4.8544
G1 X140.269 Y72.079 E4.8550
G1 X140.411 Y72.172 E4.8639
G1 X140.421 Y72.179 E4.8645
G1 X140.865 Y72.524 E4.8938
G1 X140.876 Y72.533 E4.8945
G1 X141.024 Y72.672 E4.9051
G1 X141.034 Y72.682 E4.9058
G1 X141.424 Y73.125 E4.9366
G1 X141.435 Y73.138 E4.9374
G1 X141.570 Y73.330 E4.9497
G1 X141.579 Y73.344 E4.9506
G1 X141.936 Y73.990 E4.9890
G1 X141.944 Y74.005 E4.9899
G1 X142.035 Y74.224 E5.0022
G1 X142.041 Y74.240 E5.0031
G1 X142.209 Y74.813 E5.0342
G1 X142.212 Y74.827 E5.0349
G1 X142.251 Y75.027 E5.0455
G1 X142.253 Y75.041 E5.0463
G1 X142.304 Y75.569 E5.0739
G1 X142.305 Y75.576 E5.0743
G1 X142.310 Y75.680 E5.0797
G1 X142.310 Y75.688 E5.0801
G1 X142.310 Y131.795 E8.0015
G1 X142.310 Y131.803 E8.0019
G1 X142.305 Y131.903 E8.0071
G1 X142.305 Y131.910 E8.0075
G1 X142.258 Y132.414 E8.0338
G1 X142.256 Y132.426 E8.0345
G1 X142.227 Y132.591 E8.0432
G1 X142.225 Y132.603 E8.0438
G1 X142.126 Y132.993 E8.0648
G1 X142.123 Y133.002 E8.0653
G1 X142.082 Y133.131 E8.0723
G1 X142.078 Y133.140 E8.0728
G1 X141.931 Y133.515 E8.0939
G1 X141.926 Y133.527 E8.0945
G1 X141.852 Y133.679 E8.1033
G1 X141.846 Y133.690 E8.1040
G1 X141.552 Y134.190 E8.1342
G1 X141.542 Y134.205 E8.1351
G1 X141.399 Y134.395 E8.1475
G1 X141.388 Y134.408 E8.1484
G1 X140.880 Y134.952 E8.1871
G1 X140.867 Y134.964 E8.1880
G1 X140.686 Y135.119 E8.2005
G1 X140.672 Y135.129 E8.2014
G1 X140.164 Y135.475 E8.2333
G1 X140.149 Y135.484 E8.2342
G1 X139.940 Y135.595 E8.2466
G1 X139.924 Y135.602 E8.2475
G1 X139.222 Y135.880 E8.2868
G1 X139.203 Y135.886 E8.2878
G1 X138.940 Y135.953 E8.3020
G1 X138.921 Y135.957 E8.3030
G1 X138.222 Y136.045 E8.3397
G1 X138.212 Y136.046 E8.3402
G1 X138.077 Y136.055 E8.3472
G1 X138.068 Y136.055 E8.3477
G1 X61.949 Y136.055 E12.3111
G1 X61.942 Y136.055 E12.3115
G1 X61.841 Y136.050 E12.3168
G1 X61.833 Y136.050 E12.3172
G1 X61.290 Y135.998 E12.3456
G1 X61.273 Y135.996 E12.3465
G1 X61.041 Y135.948 E12.3588
G1 X61.024 Y135.943 E12.3597
G1 X60.322 Y135.715 E12.3982
G1 X60.306 Y135.709 E12.3990
G1 X60.090 Y135.611 E12.4114
G1 X60.074 Y135.603 E12.4123
G1 X59.575 Y135.308 E12.4425
G1 X59.565 Y135.301 E12.4431
G1 X59.427 Y135.204 E12.4519
G1 X59.417 Y135.197 E12.4526
G1 X59.081 Y134.918 E12.4753
G1 X59.070 Y134.909 E12.4761
G1 X58.927 Y134.766 E12.4866
G1 X58.917 Y134.755 E12.4873
G1 X58.450 Y134.191 E12.5255
G1 X58.438 Y134.176 E12.5265
G1 X58.293 Y133.948 E12.5405
G1 X58.284 Y133.931 E12.5415
G1 X57.968 Y133.265 E12.5799
G1 X57.963 Y133.251 E12.5807
G1 X57.893 Y133.060 E12.5913
G1 X57.889 Y133.046 E12.5920
G1 X57.779 Y132.623 E12.6148
G1 X57.777 Y132.611 E12.6154
G1 X57.747 Y132.444 E12.6243
G1 X57.746 Y132.432 E12.6249
G1 X57.696 Y131.921 E12.6516
G1 X57.695 Y131.914 E12.6520
G1 X57.690 Y131.810 E12.6574
G1 X57.690 Y131.802 E12.6578
G1 X57.690 Y75.678 E15.5801
G1 X57.690 Y75.668 E15.5807
G1 X57.699 Y75.534 E15.5877
G1 X57.700 Y75.524 E15.5882
G1 X57.784 Y74.848 E15.6236
G1 X57.787 Y74.832 E15.6245
G1 X57.842 Y74.603 E15.6368
G1 X57.847 Y74.586 E15.6377
G1 X58.047 Y74.025 E15.6687
G1 X58.053 Y74.012 E15.6694
G1 X58.139 Y73.828 E15.6800
G1 X58.146 Y73.815 E15.6808
G1 X58.440 Y73.314 E15.7110
G1 X58.448 Y73.302 E15.7118
G1 X58.569 Y73.135 E15.7225
G1 X58.578 Y73.123 E15.7233
G1 X58.969 Y72.680 E15.7541
G1 X58.980 Y72.669 E15.7549
G1 X59.129 Y72.529 E15.7655
G1 X59.140 Y72.520 E15.7663
; outer perimeter
G1 X60.854 Y74.503 F4800
G92 E0
G1 X60.919 Y74.446 E0.0045 F450
G1 X61.091 Y74.321 E0.0156
G1 X61.383 Y74.173 E0.0326
G1 X61.575 Y74.110 E0.0431
G1 X61.899 Y74.059 E0.0602
G1 X69.410 Y74.055 E0.4513
G1 X69.410 Y70.555 E0.6335
G1 X71.610 Y70.555 E0.7481
G1 X71.610 Y66.565 E0.9558
G1 X96.490 Y66.565 E2.2513
G1 X96.490 Y68.045 E2.3284
G1 X83.690 Y68.045 E2.9949
G1 X83.690 Y68.945 E3.0417
G1 X72.190 Y68.945 E3.6405
G1 X72.190 Y70.554 E3.7243
G1 X74.990 Y70.564 E3.8701
G1 X74.990 Y71.944 E3.9420
G1 X73.990 Y71.945 E3.9940
G1 X73.990 Y74.438 E4.1238
G1 X81.010 Y74.438 E4.4893
G1 X81.010 Y71.945 E4.6191
G1 X80.010 Y71.944 E4.6712
G1 X80.010 Y70.565 E4.7430
G1 X99.310 Y70.565 E5.7479
G1 X99.310 Y68.045 E5.8791
G1 X98.110 Y68.045 E5.9416
G1 X98.110 Y66.565 E6.0187
G1 X101.890 Y66.565 E6.2155
G1 X101.890 Y68.045 E6.2926
G1 X100.690 Y68.045 E6.3550
G1 X100.690 Y70.565 E6.4863
G1 X119.990 Y70.565 E7.4912
G1 X119.990 Y71.944 E7.5630
G1 X118.990 Y71.945 E7.6151
G1 X118.990 Y74.438 E7.7448
G1 X126.010 Y74.438 E8.1104
G1 X126.010 Y71.945 E8.2401
G1 X125.010 Y71.944 E8.2922
G1 X125.010 Y70.564 E8.3641
G1 X127.810 Y70.554 E8.5099
G1 X127.810 Y68.945 E8.5937
G1 X116.310 Y68.945 E9.1925
G1 X116.310 Y68.045 E9.2393
G1 X103.510 Y68.045 E9.9058
G1 X103.510 Y66.565 E9.9829
G1 X128.390 Y66.565 E11.2783
G1 X128.390 Y70.555 E11.4861
G1 X130.590 Y70.555 E11.6006
G1 X130.590 Y74.055 E11.7829
G1 X137.985 Y74.055 E12.1679
G1 X138.321 Y74.087 E12.1855
G1 X138.522 Y74.138 E12.1963
G1 X138.719 Y74.216 E12.2073
G1 X138.901 Y74.316 E12.2181
G1 X139.156 Y74.514 E12.2350
G1 X139.367 Y74.753 E12.2515
G1 X139.478 Y74.928 E12.2623
G1 X139.567 Y75.115 E12.2731
G1 X139.658 Y75.424 E12.2899
G1 X139.690 Y75.755 E12.3072
G1 X139.690 Y131.731 E15.2218
G1 X139.659 Y132.062 E15.2391
G1 X139.608 Y132.263 E15.2499
G1 X139.532 Y132.456 E15.2607
G1 X139.366 Y132.738 E15.2778
G1 X139.234 Y132.898 E15.2886
G1 X139.080 Y133.043 E15.2996
G1 X138.809 Y133.228 E15.3166
G1 X138.622 Y133.316 E15.3274
G1 X138.420 Y133.381 E15.3385
G1 X138.212 Y133.421 E15.3495
G1 X137.990 Y133.435 E15.3611
G1 X62.015 Y133.435 E19.3170
G1 X61.679 Y133.403 E19.3346
G1 X61.478 Y133.352 E19.3454
G1 X61.285 Y133.275 E19.3562
G1 X61.003 Y133.109 E19.3732
G1 X60.843 Y132.976 E19.3840
G1 X60.701 Y132.825 E19.3948
G1 X60.576 Y132.654 E19.4059
G1 X60.473 Y132.468 E19.4169
G1 X60.395 Y132.271 E19.4280
G1 X60.343 Y132.070 E19.4388
G1 X60.310 Y131.735 E19.4563
G1 X60.310 Y75.755 E22.3712
G1 X60.324 Y75.538 E22.3825
G1 X60.362 Y75.334 E22.3933
G1 X60.470 Y75.030 E22.4101
G1 X60.631 Y74.756 E22.4266
G1 X60.854 Y74.503 E22.4442
; outer perimeter
G1 X63.285 Y76.911 F4800
G92 E0
G1 X63.070 Y77.140 E0.0164 F450
G1 X62.881 Y77.398 E0.0330
G1 X62.667 Y77.815 E0.0574
G1 X62.534 Y78.268 E0.0820
G1 X62.489 Y78.739 E0.1066
G1 X62.532 Y79.209 E0.1312
G1 X62.663 Y79.664 E0.1558
G1 X62.875 Y80.082 E0.1802
G1 X62.971 Y80.224 E0.1892
G1 X63.281 Y80.576 E0.2136
G1 X63.654 Y80.865 E0.2382
G1 X64.076 Y81.080 E0.2628
G1 X64.525 Y81.210 E0.2871
G1 X64.842 Y81.251 E0.3038
G1 X65.163 Y81.251 E0.3205
G1 X65.625 Y81.177 E0.3449
G1 X66.069 Y81.017 E0.3695
G1 X66.476 Y80.777 E0.3941
G1 X66.827 Y80.467 E0.4184
G1 X67.027 Y80.225 E0.4348
G1 X67.200 Y79.956 E0.4514
G1 X67.386 Y79.527 E0.4758
G1 X67.491 Y79.066 E0.5004
G1 X67.507 Y78.594 E0.5250
G1 X67.434 Y78.127 E0.5496
G1 X67.275 Y77.681 E0.5742
G1 X67.035 Y77.274 E0.5989
G1 X66.719 Y76.914 E0.6238
G1 X66.346 Y76.625 E0.6484
G1 X65.924 Y76.410 E0.6730
G1 X65.471 Y76.278 E0.6976
G1 X65.000 Y76.234 E0.7222
G1 X64.529 Y76.278 E0.7468
G1 X64.076 Y76.410 E0.7715
G1 X63.654 Y76.625 E0.7961
G1 X63.285 Y76.911 E0.8204
; outer perimeter
G1 X63.285 Y76.920 F4800
G1 X63.074 Y77.144 F4800
G1 X62.886 Y77.402 F4800
G1 X62.673 Y77.817 F4800
G1 X62.541 Y78.269 F4800
G1 X62.495 Y78.739 F4800
G1 X62.538 Y79.208 F4800
G1 X62.669 Y79.661 F4800
G1 X62.880 Y80.079 F4800
G1 X62.976 Y80.220 F4800
G1 X63.285 Y80.571 F4800
G1 X63.608 Y80.822 F4800
G1 X64.071 Y86.412 F4800
G92 E0
G1 X63.654 Y86.625 E0.0244 F450
G1 X63.285 Y86.912 E0.0488
G1 X63.167 Y87.030 E0.0574
G1 X62.973 Y87.265 E0.0733
G1 X62.800 Y87.534 E0.0899
G1 X62.614 Y87.963 E0.1143
G1 X62.509 Y88.424 E0.1389
G1 X62.493 Y88.896 E0.1635
G1 X62.566 Y89.363 E0.1881
G1 X62.725 Y89.808 E0.2127
G1 X62.965 Y90.216 E0.2373
G1 X63.281 Y90.576 E0.2623
G1 X63.654 Y90.865 E0.2869
G1 X64.076 Y91.080 E0.3115
G1 X64.529 Y91.212 E0.3361
G1 X65.000 Y91.256 E0.3607
G1 X65.471 Y91.212 E0.3853
G1 X65.924 Y91.080 E0.4099
G1 X66.346 Y90.865 E0.4346
G1 X66.715 Y90.579 E0.4589
G1 X66.930 Y90.350 E0.4753
G1 X67.119 Y90.092 E0.4919
G1 X67.333 Y89.675 E0.5163
G1 X67.466 Y89.222 E0.5409
G1 X67.511 Y88.751 E0.5655
G1 X67.468 Y88.281 E0.5901
G1 X67.337 Y87.826 E0.6147
G1 X67.124 Y87.405 E0.6393
G1 X66.835 Y87.030 E0.6640
G1 X66.476 Y86.713 E0.6889
G1 X66.069 Y86.473 E0.7135
G1 X65.625 Y86.313 E0.7381
G1 X65.158 Y86.239 E0.7627
G1 X64.690 Y86.253 E0.7871
G1 X64.376 Y86.313 E0.8038
G1 X64.071 Y86.412 E0.8204
; outer perimeter
G1 X64.072 Y86.419 F4800
G1 X63.657 Y86.630 F4800
G1 X63.289 Y86.917 F4800
G1 X63.171 Y87.034 F4800
G1 X62.978 Y87.268 F4800
G1 X62.806 Y87.537 F4800
G1 X62.620 Y87.965 F4800
G1 X62.516 Y88.425 F4800
G1 X62.500 Y88.896 F4800
G1 X62.572 Y89.362 F4800
G1 X62.731 Y89.806 F4800
G1 X62.970 Y90.212 F4800
G1 X63.285 Y90.571 F4800
G1 X63.658 Y90.860 F4800
G1 X64.078 Y91.074 F4800
G1 X64.367 Y91.158 F4800
G1 X64.685 Y96.253 F4800
G92 E0
G1 X64.224 Y96.357 E0.0246 F450
G1 X63.795 Y96.542 E0.0490
G1 X63.524 Y96.714 E0.0656
G1 X63.278 Y96.918 E0.0823
G1 X62.975 Y97.262 E0.1062
