; G-Code generated by Simplify3D(R) Version 3.0.0
; мар 16, 2016 at 5:16:51 
; Settings Summary
;   processName,Process1
;   applyToModels,frame_fix-pe0.2,frame_fix-pe0.2(2)
;   profileName,prusa 1mm (modified)
;   profileVersion,2016-02-16 12:52:21
;   baseProfile,Default
;   printMaterial,PLA
;   printQuality,Medium
;   printExtruders,
;   extruderName,Extruder 1
;   extruderToolheadNumber,0
;   extruderDiameter,0.5
;   extruderAutoWidth,1
;   extruderWidth,0.6
;   extrusionMultiplier,1.01
;   extruderUseRetract,1
;   extruderRetractionDistance,4
;   extruderExtraRestartDistance,-0.2
;   extruderRetractionZLift,0
;   extruderRetractionSpeed,2400
;   extruderUseCoasting,1
;   extruderCoastingDistance,0.2
;   extruderUseWipe,0
;   extruderWipeDistance,5
;   primaryExtruder,0
;   layerHeight,0.2
;   topSolidLayers,3
;   bottomSolidLayers,3
;   perimeterOutlines,1
;   printPerimetersInsideOut,0
;   startPointOption,1
;   startPointOriginX,150
;   startPointOriginY,0
;   startPointOriginZ,120
;   sequentialIslands,0
;   spiralVaseMode,0
;   firstLayerHeightPercentage,85
;   firstLayerWidthPercentage,100
;   firstLayerUnderspeed,0.22
;   useRaft,0
;   raftExtruder,0
;   raftLayers,3
;   raftOffset,3
;   raftSeparationDistance,0.14
;   raftInfill,85
;   disableRaftBaseLayers,0
;   useSkirt,1
;   skirtExtruder,0
;   skirtLayers,1
;   skirtOutlines,8
;   skirtOffset,0
;   usePrimePillar,0
;   primePillarExtruder,999
;   primePillarWidth,12
;   primePillarLocation,7
;   primePillarSpeedMultiplier,1
;   useOozeShield,0
;   oozeShieldExtruder,999
;   oozeShieldOffset,2
;   oozeShieldOutlines,1
;   oozeShieldSidewallShape,1
;   oozeShieldSidewallAngle,30
;   oozeShieldSpeedMultiplier,1
;   infillExtruder,0
;   internalInfillPattern,Wiggle
;   externalInfillPattern,Rectilinear
;   infillPercentage,23
;   outlineOverlapPercentage,15
;   infillExtrusionWidthPercentage,100
;   minInfillLength,5
;   infillLayerInterval,1
;   infillAngles,0
;   overlapInfillAngles,0
;   generateSupport,1
;   supportExtruder,0
;   supportInfillPercentage,80
;   supportExtraInflation,0
;   denseSupportLayers,0
;   denseSupportInfillPercentage,70
;   supportLayerInterval,1
;   supportHorizontalPartOffset,0.3
;   supportUpperSeparationLayers,1
;   supportLowerSeparationLayers,1
;   supportType,0
;   supportGridSpacing,4
;   maxOverhangAngle,45
;   supportAngles,0
;   temperatureName,Extruder 1 Temperature,Heated Bed
;   temperatureNumber,0,1
;   temperatureSetpointCount,2,1
;   temperatureSetpointLayers,1,2,1
;   temperatureSetpointTemperatures,240,225,115
;   temperatureStabilizeAtStartup,1,1
;   temperatureHeatedBed,0,1
;   temperatureRelayBetweenLayers,0,0
;   temperatureRelayBetweenLoops,0,0
;   fanLayers,1
;   fanSpeeds,0
;   blipFanToFullPower,0
;   adjustSpeedForCooling,1
;   minSpeedLayerTime,10
;   minCoolingSpeedSlowdown,20
;   increaseFanForCooling,0
;   minFanLayerTime,45
;   maxCoolingFanSpeed,100
;   increaseFanForBridging,0
;   bridgingFanSpeed,100
;   use5D,1
;   relativeEdistances,0
;   allowEaxisZeroing,1
;   independentExtruderAxes,0
;   includeM10123,0
;   stickySupport,1
;   applyToolheadOffsets,0
;   gcodeXoffset,0
;   gcodeYoffset,0
;   gcodeZoffset,0
;   overrideMachineDefinition,1
;   machineTypeOverride,0
;   strokeXoverride,200
;   strokeYoverride,200
;   strokeZoverride,200
;   originOffsetXoverride,0
;   originOffsetYoverride,0
;   originOffsetZoverride,0
;   homeXdirOverride,-1
;   homeYdirOverride,-1
;   homeZdirOverride,-1
;   flipXoverride,1
;   flipYoverride,-1
;   flipZoverride,1
;   toolheadOffsets,0,0|0,0|0,0|0,0|0,0|0,0
;   overrideFirmwareConfiguration,1
;   firmwareTypeOverride,RepRap (Marlin/Repetier/Sprinter)
;   GPXconfigOverride,r2
;   baudRateOverride,115200
;   overridePrinterModels,0
;   printerModelsOverride
;   startingGcode,G28 ; home all axes
;   layerChangeGcode,
;   retractionGcode,
;   toolChangeGcode,
;   endingGcode,M104 S0 ; turn off extruder,M140 S0 ; turn off bed,G28 X0;,M84 ; disable motors
;   createX3G,0
;   celebration,0
;   celebrationSong,Random Song
;   createMB5G,0
;   postProcessing,
;   defaultSpeed,3600
;   outlineUnderspeed,0.5
;   solidInfillUnderspeed,0.8
;   supportUnderspeed,0.8
;   rapidXYspeed,4800
;   rapidZspeed,1002
;   minBridgingArea,50
;   bridgingExtraInflation,0
;   bridgingExtrusionMultiplier,1
;   bridgingSpeedMultiplier,1
;   filamentDiameter,1.75
;   filamentPricePerKg,46
;   filamentDensity,1.25
;   useMinPrintHeight,0
;   minPrintHeight,0
;   useMaxPrintHeight,0
;   maxPrintHeight,0
;   useDiaphragm,0
;   diaphragmLayerInterval,20
;   robustSlicing,1
;   mergeAllIntoSolid,0
;   onlyRetractWhenCrossingOutline,1
;   retractBetweenLayers,1
;   useRetractionMinTravel,1
;   retractionMinTravel,5
;   retractWhileWiping,0
;   onlyWipeOutlines,1
;   avoidCrossingOutline,1
;   maxMovementDetourFactor,3
;   toolChangeRetractionDistance,12
;   toolChangeExtraRestartDistance,-0.5
;   toolChangeRetractionSpeed,600
;   allowThinWallGapFill,1
;   thinWallAllowedOverlapPercentage,1
;   horizontalSizeCompensation,0
G90
M82
M106 S0
M140 S115
M190 S115
M104 S240 T0
M109 S240 T0
G28 ; home all axes
G92 E0
G1 E-4.0000 F2400
G1 Z0.170 F1002
; layer 1, Z = 0.17
T0
; tool H0.200 W0.600
; skirt
G1 X84.322 Y86.566 F4800
G1 E-0.2000 F720
G92 E0
G1 X90.050 Y86.566 E0.2886 F792
G1 X92.686 Y89.202 E0.4765
G1 X92.686 Y94.566 E0.7468
G1 X107.686 Y94.566 E1.5026
G1 X107.686 Y89.202 E1.7729
G1 X110.322 Y86.566 E1.9607
G1 X116.050 Y86.566 E2.2493
G1 X118.686 Y89.202 E2.4372
G1 X118.686 Y102.930 E3.1289
G1 X118.500 Y103.117 E3.1422
G1 X118.500 Y114.364 E3.7090
G1 X115.864 Y117.000 E3.8968
G1 X110.136 Y117.000 E4.1854
G1 X107.500 Y114.364 E4.3733
G1 X107.500 Y109.000 E4.6436
G1 X92.500 Y109.000 E5.3994
G1 X92.500 Y114.364 E5.6697
G1 X89.864 Y117.000 E5.8575
G1 X84.136 Y117.000 E6.1462
G1 X81.500 Y114.364 E6.3340
G1 X81.500 Y100.636 E7.0257
G1 X81.686 Y100.450 E7.0390
G1 X81.686 Y89.202 E7.6058
G1 X84.181 Y86.708 E7.7835
G1 X84.322 Y86.566 F792
G1 X84.571 Y87.166 F4800
G92 E0
G1 X89.802 Y87.166 E0.2636 F792
G1 X92.086 Y89.451 E0.4264
G1 X92.086 Y95.166 E0.7144
G1 X108.286 Y95.166 E1.5307
G1 X108.286 Y89.451 E1.8187
G1 X110.571 Y87.166 E1.9815
G1 X115.802 Y87.166 E2.2451
G1 X118.086 Y89.451 E2.4079
G1 X118.086 Y102.682 E3.0745
G1 X117.900 Y102.868 E3.0878
G1 X117.900 Y114.115 E3.6546
G1 X115.615 Y116.400 E3.8174
G1 X110.385 Y116.400 E4.0809
G1 X108.100 Y114.115 E4.2437
G1 X108.100 Y108.400 E4.5317
G1 X91.900 Y108.400 E5.3480
G1 X91.900 Y114.115 E5.6360
G1 X89.615 Y116.400 E5.7988
G1 X84.385 Y116.400 E6.0624
G1 X82.100 Y114.115 E6.2252
G1 X82.100 Y100.885 E6.8919
G1 X82.286 Y100.698 E6.9052
G1 X82.286 Y89.451 E7.4719
G1 X84.429 Y87.308 E7.6247
G1 X84.571 Y87.166 F792
G1 X84.819 Y87.766 F4800
G92 E0
G1 X89.553 Y87.766 E0.2385 F792
G1 X91.486 Y89.699 E0.3763
G1 X91.486 Y95.766 E0.6820
G1 X108.886 Y95.766 E1.5588
G1 X108.886 Y89.699 E1.8645
G1 X110.819 Y87.766 E2.0022
G1 X115.553 Y87.766 E2.2408
G1 X117.486 Y89.699 E2.3785
G1 X117.486 Y102.433 E3.0202
G1 X117.300 Y102.620 E3.0334
G1 X117.300 Y113.867 E3.6002
G1 X115.367 Y115.800 E3.7379
G1 X110.633 Y115.800 E3.9765
G1 X108.700 Y113.867 E4.1142
G1 X108.700 Y107.800 E4.4199
G1 X91.300 Y107.800 E5.2967
G1 X91.300 Y113.867 E5.6024
G1 X89.367 Y115.800 E5.7402
G1 X84.633 Y115.800 E5.9787
G1 X82.700 Y113.867 E6.1164
G1 X82.700 Y101.133 E6.7581
G1 X82.886 Y100.947 E6.7714
G1 X82.886 Y89.699 E7.3381
G1 X84.678 Y87.908 E7.4658
G1 X84.819 Y87.766 F792
G1 X85.068 Y88.366 F4800
G92 E0
G1 X89.305 Y88.366 E0.2135 F792
G1 X90.886 Y89.948 E0.3262
G1 X90.886 Y96.366 E0.6496
G1 X109.486 Y96.366 E1.5868
G1 X109.486 Y89.948 E1.9103
G1 X111.068 Y88.366 E2.0230
G1 X115.305 Y88.366 E2.2365
G1 X116.886 Y89.948 E2.3492
G1 X116.886 Y102.185 E2.9658
G1 X116.700 Y102.371 E2.9790
G1 X116.700 Y113.618 E3.5458
G1 X115.118 Y115.200 E3.6585
G1 X110.882 Y115.200 E3.8720
G1 X109.300 Y113.618 E3.9847
G1 X109.300 Y107.200 E4.3081
G1 X90.700 Y107.200 E5.2453
G1 X90.700 Y113.618 E5.5688
G1 X89.118 Y115.200 E5.6815
G1 X84.882 Y115.200 E5.8950
G1 X83.300 Y113.618 E6.0077
G1 X83.300 Y101.382 E6.6243
G1 X83.486 Y101.195 E6.6375
G1 X83.486 Y89.948 E7.2043
G1 X84.927 Y88.508 E7.3069
G1 X85.068 Y88.366 F792
G1 X85.316 Y88.966 F4800
G92 E0
G1 X89.056 Y88.966 E0.1884 F792
G1 X90.286 Y90.197 E0.2761
G1 X90.286 Y96.966 E0.6172
G1 X110.086 Y96.966 E1.6149
G1 X110.086 Y90.197 E1.9561
G1 X111.316 Y88.966 E2.0437
G1 X115.056 Y88.966 E2.2322
G1 X116.286 Y90.197 E2.3198
G1 X116.286 Y101.936 E2.9114
G1 X116.100 Y102.123 E2.9247
G1 X116.100 Y113.370 E3.4914
G1 X114.870 Y114.600 E3.5791
G1 X111.130 Y114.600 E3.7675
G1 X109.900 Y113.370 E3.8552
G1 X109.900 Y106.600 E4.1963
G1 X90.100 Y106.600 E5.1940
G1 X90.100 Y113.370 E5.5351
G1 X88.870 Y114.600 E5.6228
G1 X85.130 Y114.600 E5.8112
G1 X83.900 Y113.370 E5.8989
G1 X83.900 Y101.630 E6.4904
G1 X84.086 Y101.444 E6.5037
G1 X84.086 Y90.197 E7.0705
G1 X85.175 Y89.108 E7.1480
G1 X85.316 Y88.966 F792
G1 X85.565 Y89.566 F4800
G92 E0
G1 X88.808 Y89.566 E0.1634 F792
G1 X89.686 Y90.445 E0.2260
G1 X89.686 Y97.566 E0.5848
G1 X110.686 Y97.566 E1.6430
G1 X110.686 Y90.445 E2.0019
G1 X111.565 Y89.566 E2.0645
G1 X114.808 Y89.566 E2.2279
G1 X115.686 Y90.445 E2.2905
G1 X115.686 Y101.688 E2.8570
G1 X115.498 Y101.876 E2.8704
G1 X115.500 Y101.879 E2.8706
G1 X115.500 Y113.121 E3.4371
G1 X114.621 Y114.000 E3.4997
G1 X111.379 Y114.000 E3.6631
G1 X110.500 Y113.121 E3.7257
G1 X110.500 Y106.000 E4.0846
G1 X89.500 Y106.000 E5.1427
G1 X89.500 Y113.121 E5.5016
G1 X88.621 Y114.000 E5.5642
G1 X85.379 Y114.000 E5.7276
G1 X84.500 Y113.121 E5.7902
G1 X84.500 Y101.879 E6.3567
G1 X84.689 Y101.690 E6.3701
G1 X84.686 Y101.688 E6.3703
G1 X84.686 Y90.445 E6.9368
G1 X85.424 Y89.708 E6.9894
G1 X85.565 Y89.566 F792
G1 X85.814 Y90.166 F4800
G92 E0
G1 X88.559 Y90.166 E0.1383 F792
G1 X89.086 Y90.694 E0.1759
G1 X89.086 Y98.166 E0.5525
G1 X111.286 Y98.166 E1.6711
G1 X111.286 Y90.694 E2.0476
G1 X111.814 Y90.166 E2.0852
G1 X114.559 Y90.166 E2.2236
G1 X115.086 Y90.694 E2.2611
G1 X115.086 Y101.439 E2.8026
G1 X114.649 Y101.876 E2.8337
G1 X114.900 Y102.127 E2.8516
G1 X114.900 Y112.873 E3.3931
G1 X114.373 Y113.400 E3.4307
G1 X111.627 Y113.400 E3.5690
G1 X111.100 Y112.873 E3.6066
G1 X111.100 Y105.400 E3.9831
G1 X88.900 Y105.400 E5.1018
G1 X88.900 Y112.873 E5.4783
G1 X88.373 Y113.400 E5.5159
G1 X85.627 Y113.400 E5.6542
G1 X85.100 Y112.873 E5.6918
G1 X85.100 Y102.127 E6.2333
G1 X85.537 Y101.690 E6.2644
G1 X85.286 Y101.439 E6.2823
G1 X85.286 Y90.694 E6.8237
G1 X85.672 Y90.308 E6.8512
G1 X85.814 Y90.166 F792
G1 X86.062 Y90.766 F4800
G92 E0
G1 X88.311 Y90.766 E0.1133 F792
G1 X88.486 Y90.942 E0.1258
G1 X88.486 Y98.766 E0.5201
G1 X111.886 Y98.766 E1.6992
G1 X111.886 Y90.942 E2.0934
G1 X112.062 Y90.766 E2.1060
G1 X114.311 Y90.766 E2.2193
G1 X114.486 Y90.942 E2.2318
G1 X114.486 Y101.191 E2.7482
G1 X114.311 Y101.366 E2.7607
G1 X86.062 Y101.366 E4.1841
G1 X85.886 Y101.191 E4.1967
G1 X85.886 Y90.942 E4.7131
G1 X85.921 Y90.908 E4.7155
G1 X86.062 Y90.766 F792
G1 X85.876 Y102.200 F4800
G92 E0
G1 X114.124 Y102.200 E1.4234 F792
G1 X114.300 Y102.376 E1.4359
G1 X114.300 Y112.624 E1.9524
G1 X114.124 Y112.800 E1.9649
G1 X111.876 Y112.800 E2.0782
G1 X111.700 Y112.624 E2.0907
G1 X111.700 Y104.800 E2.4850
G1 X88.300 Y104.800 E3.6641
G1 X88.300 Y112.624 E4.0583
G1 X88.124 Y112.800 E4.0708
G1 X85.876 Y112.800 E4.1841
G1 X85.700 Y112.624 E4.1967
G1 X85.700 Y102.376 E4.7131
G1 X85.734 Y102.341 E4.7155
G1 X85.876 Y102.200 F792
; outer perimeter
G1 X87.700 Y104.200 F4800
G92 E0
G1 X87.700 Y112.200 E0.4031 F396
G1 X86.300 Y112.200 E0.4737
G1 X86.300 Y102.800 E0.9473
G1 X113.700 Y102.800 E2.3280
G1 X113.700 Y112.200 E2.8016
G1 X112.300 Y112.200 E2.8722
G1 X112.300 Y104.200 E3.2753
G1 X87.900 Y104.200 E4.5048
G1 X87.700 Y104.200 F396
; solid layer
G1 X86.810 Y104.035 F4800
G92 E0
G1 X87.535 Y103.310 E0.0517 F634
G1 X88.384 Y103.310 E0.0945
G1 X88.004 Y103.690 E0.1215
G1 X87.190 Y103.690 E0.1626
G1 X87.190 Y104.504 E0.2036
G1 X86.810 Y104.884 E0.2307
G1 X86.810 Y105.733 E0.2734
G1 X87.190 Y105.353 E0.3005
G1 X87.190 Y106.201 E0.3432
G1 X86.810 Y106.581 E0.3703
G1 X86.810 Y107.430 E0.4131
G1 X87.190 Y107.050 E0.4402
G1 X87.190 Y107.898 E0.4829
G1 X86.810 Y108.278 E0.5100
G1 X86.810 Y109.127 E0.5528
G1 X87.190 Y108.747 E0.5798
G1 X87.190 Y109.595 E0.6226
G1 X86.810 Y109.975 E0.6497
G1 X86.810 Y110.824 E0.6924
G1 X87.190 Y110.444 E0.7195
G1 X87.190 Y111.292 E0.7623
G1 X86.951 Y111.531 E0.7793
G1 X86.810 Y111.672 F634
G92 E0
G1 E-4.0000 F2400
G1 X88.853 Y103.690 F4800
G1 E-0.2000 F2400
G92 E0
G1 X89.233 Y103.310 E0.0271 F634
G1 X90.081 Y103.310 E0.0698
G1 X89.701 Y103.690 E0.0969
G1 X90.550 Y103.690 E0.1397
G1 X90.930 Y103.310 E0.1668
G1 X91.778 Y103.310 E0.2095
G1 X91.398 Y103.690 E0.2366
G1 X92.247 Y103.690 E0.2793
G1 X92.627 Y103.310 E0.3064
G1 X93.475 Y103.310 E0.3492
G1 X93.095 Y103.690 E0.3763
G1 X93.944 Y103.690 E0.4190
G1 X94.324 Y103.310 E0.4461
G1 X95.172 Y103.310 E0.4889
G1 X94.792 Y103.690 E0.5159
G1 X95.641 Y103.690 E0.5587
G1 X96.021 Y103.310 E0.5858
G1 X96.869 Y103.310 E0.6285
G1 X96.489 Y103.690 E0.6556
G1 X97.338 Y103.690 E0.6984
G1 X97.718 Y103.310 E0.7254
G1 X98.566 Y103.310 E0.7682
G1 X98.186 Y103.690 E0.7953
G1 X99.035 Y103.690 E0.8380
G1 X99.415 Y103.310 E0.8651
G1 X100.263 Y103.310 E0.9079
G1 X99.883 Y103.690 E0.9349
G1 X100.732 Y103.690 E0.9777
G1 X101.112 Y103.310 E1.0048
G1 X101.960 Y103.310 E1.0475
G1 X101.580 Y103.690 E1.0746
G1 X102.429 Y103.690 E1.1174
G1 X102.809 Y103.310 E1.1445
G1 X103.658 Y103.310 E1.1872
G1 X103.278 Y103.690 E1.2143
G1 X104.126 Y103.690 E1.2570
G1 X104.506 Y103.310 E1.2841
G1 X105.355 Y103.310 E1.3269
G1 X104.975 Y103.690 E1.3540
G1 X105.823 Y103.690 E1.3967
G1 X106.203 Y103.310 E1.4238
G1 X107.052 Y103.310 E1.4666
G1 X106.672 Y103.690 E1.4936
G1 X107.520 Y103.690 E1.5364
G1 X107.900 Y103.310 E1.5635
G1 X108.749 Y103.310 E1.6062
G1 X108.369 Y103.690 E1.6333
G1 X109.217 Y103.690 E1.6761
G1 X109.597 Y103.310 E1.7031
G1 X110.446 Y103.310 E1.7459
G1 X110.066 Y103.690 E1.7730
G1 X110.914 Y103.690 E1.8157
G1 X111.294 Y103.310 E1.8428
G1 X112.143 Y103.310 E1.8856
G1 X111.763 Y103.690 E1.9126
G1 X112.611 Y103.690 E1.9554
G1 X112.991 Y103.310 E1.9825
G1 X113.190 Y103.310 E1.9925
G1 X113.190 Y103.960 E2.0252
G1 X112.810 Y104.340 E2.0523
G1 X112.810 Y105.188 E2.0951
G1 X113.190 Y104.808 E2.1222
G1 X113.190 Y105.657 E2.1649
G1 X112.810 Y106.037 E2.1920
G1 X112.810 Y106.885 E2.2347
G1 X113.190 Y106.505 E2.2618
G1 X113.190 Y107.354 E2.3046
G1 X112.810 Y107.734 E2.3317
G1 X112.810 Y108.583 E2.3744
G1 X113.190 Y108.203 E2.4015
G1 X113.190 Y109.051 E2.4443
G1 X112.810 Y109.431 E2.4713
G1 X112.810 Y110.280 E2.5141
G1 X113.190 Y109.900 E2.5412
G1 X113.190 Y110.748 E2.5839
G1 X112.810 Y111.128 E2.6110
G1 X112.810 Y111.690 E2.6393
G1 X113.029 Y111.690 E2.6503
G1 X113.097 Y111.690 F634
G1 X113.190 Y111.597 F634
G92 E0
G1 E-4.0000 F2400
; outer perimeter
G1 X112.294 Y111.164 F4800
G1 X112.294 Y112.206 F4800
G1 X113.706 Y112.206 F4800
G1 X113.706 Y102.794 F4800
G1 X94.978 Y102.794 F4800
G1 X94.978 Y102.794 F4800
G1 X86.294 Y102.794 F4800
G1 X87.886 Y99.366 F4800
G1 E-0.2000 F2400
G92 E0
G1 X112.486 Y99.366 E1.2396 F396
G1 X112.486 Y91.366 E1.6427
G1 X113.886 Y91.366 E1.7132
G1 X113.886 Y100.766 E2.1869
G1 X86.486 Y100.766 E3.5675
G1 X86.486 Y91.366 E4.0412
G1 X87.886 Y91.366 E4.1118
G1 X87.886 Y99.166 E4.5048
G1 X87.886 Y99.366 F396
; solid layer
G1 X86.996 Y91.970 F4800
G92 E0
G1 X87.090 Y91.876 E0.0067 F634
G1 X87.376 Y91.876 E0.0211
