; G-Code generated by Simplify3D(R) Version 3.0.2
; апр 12, 2016 at 8:37:23 
; Settings Summary
;   processName,Process1
;   applyToModels,frame_fix-pe0.2,frame_fix-pe0.2(2),frame_fix-pe0.2(3),frame_fix-pe0.2(2)(2)
;   profileName,builder (modified)
;   profileVersion,2016-04-10 20:08:25
;   baseProfile,Default
;   printMaterial,ABS
;   printQuality,Medium
;   printExtruders,
;   extruderName,Extruder 1
;   extruderToolheadNumber,0
;   extruderDiameter,0.5
;   extruderAutoWidth,0
;   extruderWidth,0.5
;   extrusionMultiplier,1.01
;   extruderUseRetract,1
;   extruderRetractionDistance,4
;   extruderExtraRestartDistance,0
;   extruderRetractionZLift,0
;   extruderRetractionSpeed,2400
;   extruderUseCoasting,0
;   extruderCoastingDistance,0.25
;   extruderUseWipe,0
;   extruderWipeDistance,5
;   primaryExtruder,0
;   layerHeight,0.2
;   topSolidLayers,3
;   bottomSolidLayers,2
;   perimeterOutlines,2
;   printPerimetersInsideOut,0
;   startPointOption,2
;   startPointOriginX,0
;   startPointOriginY,0
;   startPointOriginZ,300
;   sequentialIslands,0
;   spiralVaseMode,0
;   firstLayerHeightPercentage,80
;   firstLayerWidthPercentage,100
;   firstLayerUnderspeed,0.25
;   useRaft,0
;   raftExtruder,0
;   raftLayers,3
;   raftOffset,3
;   raftSeparationDistance,0.14
;   raftInfill,85
;   disableRaftBaseLayers,0
;   useSkirt,1
;   skirtExtruder,0
;   skirtLayers,1
;   skirtOutlines,3
;   skirtOffset,0
;   usePrimePillar,0
;   primePillarExtruder,999
;   primePillarWidth,12
;   primePillarLocation,7
;   primePillarSpeedMultiplier,1
;   useOozeShield,0
;   oozeShieldExtruder,999
;   oozeShieldOffset,2
;   oozeShieldOutlines,1
;   oozeShieldSidewallShape,1
;   oozeShieldSidewallAngle,30
;   oozeShieldSpeedMultiplier,1
;   infillExtruder,0
;   internalInfillPattern,Fast Honeycomb
;   externalInfillPattern,Concentric
;   infillPercentage,16
;   outlineOverlapPercentage,15
;   infillExtrusionWidthPercentage,100
;   minInfillLength,5
;   infillLayerInterval,1
;   infillAngles,0
;   overlapInfillAngles,0
;   generateSupport,0
;   supportExtruder,0
;   supportInfillPercentage,50
;   supportExtraInflation,0
;   denseSupportLayers,0
;   denseSupportInfillPercentage,70
;   supportLayerInterval,1
;   supportHorizontalPartOffset,0.3
;   supportUpperSeparationLayers,1
;   supportLowerSeparationLayers,1
;   supportType,0
;   supportGridSpacing,4
;   maxOverhangAngle,45
;   supportAngles,0
;   temperatureName,Extruder 1 Temperature,Heated Bed
;   temperatureNumber,0,1
;   temperatureSetpointCount,2,1
;   temperatureSetpointLayers,1,2,1
;   temperatureSetpointTemperatures,240,230,110
;   temperatureStabilizeAtStartup,1,1
;   temperatureHeatedBed,0,1
;   temperatureRelayBetweenLayers,0,0
;   temperatureRelayBetweenLoops,0,0
;   fanLayers,1
;   fanSpeeds,0
;   blipFanToFullPower,0
;   adjustSpeedForCooling,1
;   minSpeedLayerTime,10
;   minCoolingSpeedSlowdown,20
;   increaseFanForCooling,0
;   minFanLayerTime,45
;   maxCoolingFanSpeed,100
;   increaseFanForBridging,1
;   bridgingFanSpeed,60
;   use5D,1
;   relativeEdistances,0
;   allowEaxisZeroing,1
;   independentExtruderAxes,0
;   includeM10123,0
;   stickySupport,1
;   applyToolheadOffsets,0
;   gcodeXoffset,0
;   gcodeYoffset,0
;   gcodeZoffset,0
;   overrideMachineDefinition,1
;   machineTypeOverride,0
;   strokeXoverride,200
;   strokeYoverride,200
;   strokeZoverride,200
;   originOffsetXoverride,0
;   originOffsetYoverride,0
;   originOffsetZoverride,0
;   homeXdirOverride,-1
;   homeYdirOverride,-1
;   homeZdirOverride,-1
;   flipXoverride,1
;   flipYoverride,-1
;   flipZoverride,1
;   toolheadOffsets,0,0|0,0|0,0|0,0|0,0|0,0
;   overrideFirmwareConfiguration,1
;   firmwareTypeOverride,RepRap (Marlin/Repetier/Sprinter)
;   GPXconfigOverride,r2
;   baudRateOverride,115200
;   overridePrinterModels,0
;   printerModelsOverride
;   startingGcode,G28 ; home all axes
;   layerChangeGcode,
;   retractionGcode,
;   toolChangeGcode,
;   endingGcode,M104 S0 ; turn off extruder,M140 S0 ; turn off bed,G28 X0;,M84 ; disable motors
;   createX3G,0
;   celebration,0
;   celebrationSong,Star Wars
;   createMB5G,0
;   postProcessing,
;   defaultSpeed,3600
;   outlineUnderspeed,0.5
;   solidInfillUnderspeed,0.8
;   supportUnderspeed,0.8
;   rapidXYspeed,4800
;   rapidZspeed,1002
;   minBridgingArea,50
;   bridgingExtraInflation,0
;   bridgingExtrusionMultiplier,1
;   bridgingSpeedMultiplier,1
;   filamentDiameter,1.75
;   filamentPricePerKg,46
;   filamentDensity,1.25
;   useMinPrintHeight,0
;   minPrintHeight,0
;   useMaxPrintHeight,0
;   maxPrintHeight,0
;   useDiaphragm,0
;   diaphragmLayerInterval,24
;   robustSlicing,1
;   mergeAllIntoSolid,0
;   onlyRetractWhenCrossingOutline,1
;   retractBetweenLayers,1
;   useRetractionMinTravel,1
;   retractionMinTravel,5
;   retractWhileWiping,0
;   onlyWipeOutlines,1
;   avoidCrossingOutline,1
;   maxMovementDetourFactor,3
;   toolChangeRetractionDistance,12
;   toolChangeExtraRestartDistance,-0.5
;   toolChangeRetractionSpeed,600
;   allowThinWallGapFill,1
;   thinWallAllowedOverlapPercentage,5
;   horizontalSizeCompensation,0
G90
M82
M106 S0
M140 S110
M190 S110
M104 S240 T0
M109 S240 T0
G28 ; home all axes
G92 E0
G1 E-4.0000 F2400
G1 Z0.160 F1002
; layer 1, Z = 0.16
T0
; tool H0.200 W0.500
; skirt
G1 X92.983 Y76.924 F4800
G1 E0.0000 F720
G92 E0
G1 X94.019 Y76.924 E0.0435 F900
G1 X101.822 Y84.727 E0.5069
G1 X101.822 Y84.909 E0.5145
G1 X109.237 Y77.494 E0.9549
G1 X110.273 Y77.494 E0.9984
G1 X130.804 Y98.025 E2.2176
G1 X130.804 Y99.060 E2.2611
G1 X123.001 Y106.864 E2.7245
G1 X122.973 Y106.864 E2.7256
G1 X130.080 Y113.971 E3.1477
G1 X130.080 Y115.006 E3.1912
G1 X109.549 Y135.537 E4.4104
G1 X108.514 Y135.537 E4.4539
G1 X100.799 Y127.823 E4.9120
G1 X93.549 Y135.073 E5.3426
G1 X92.513 Y135.073 E5.3860
G1 X71.982 Y114.541 E6.6053
G1 X71.982 Y113.506 E6.6488
G1 X79.725 Y105.763 E7.1085
G1 X72.452 Y98.491 E7.5404
G1 X72.452 Y97.455 E7.5839
G1 X92.983 Y76.924 E8.8031
G92 E0
G1 E-4.0000 F2400
G1 X93.501 Y82.770 F4800
G1 E0.0000 F2400
G92 E0
G1 X78.298 Y97.973 E0.9028 F900
G1 X83.437 Y103.112 E1.2080
G1 X83.437 Y104.147 E1.2515
G1 X81.351 Y106.233 E1.3753
G1 X82.967 Y107.849 E1.4713
G1 X82.967 Y108.885 E1.5148
G1 X77.828 Y114.024 E1.8199
G1 X93.031 Y129.226 E2.7228
G1 X98.170 Y124.087 E3.0279
G1 X99.205 Y124.087 E3.0714
G1 X101.264 Y126.145 E3.1936
G1 X102.857 Y124.552 E3.2882
G1 X103.892 Y124.552 E3.3317
G1 X109.031 Y129.691 E3.6369
G1 X124.234 Y114.489 E4.5397
G1 X119.095 Y109.349 E4.8449
G1 X119.095 Y108.314 E4.8884
G1 X121.241 Y106.167 E5.0158
G1 X121.269 Y106.167 E5.0170
G1 X119.819 Y104.717 E5.1031
G1 X119.819 Y103.682 E5.1466
G1 X124.958 Y98.543 E5.4518
G1 X109.755 Y83.340 E6.3546
G1 X104.616 Y88.479 E6.6598
G1 X103.581 Y88.479 E6.7033
G1 X101.434 Y86.332 E6.8307
G1 X101.434 Y86.150 E6.8384
G1 X99.676 Y87.909 E6.9428
G1 X98.640 Y87.909 E6.9863
G1 X93.501 Y82.770 E7.2915
G1 X93.501 Y82.063 F4800
G92 E0
G1 X77.591 Y97.973 E0.9448 F900
G1 X82.937 Y103.319 E1.2623
G1 X82.937 Y103.940 E1.2884
G1 X81.084 Y105.794 E1.3984
G1 X80.462 Y105.794 E1.4245
G1 X72.952 Y98.283 E1.8705
G1 X72.952 Y97.662 E1.8966
G1 X93.190 Y77.424 E3.0985
G1 X93.812 Y77.424 E3.1245
G1 X101.322 Y84.934 E3.5705
G1 X101.322 Y85.555 E3.5966
G1 X99.468 Y87.409 E3.7067
G1 X98.847 Y87.409 E3.7328
G1 X93.501 Y82.063 E4.0503
G1 X95.878 Y83.033 F4800
G1 X99.158 Y86.313 F4800
G1 X100.226 Y85.245 F4800
G1 X99.486 Y84.505 F4800
G1 X101.934 Y85.504 F4800
G92 E0
G1 X109.445 Y77.994 E0.4460 F900
G1 X110.066 Y77.994 E0.4721
G1 X130.304 Y98.232 E1.6739
G1 X130.304 Y98.853 E1.7000
G1 X122.794 Y106.364 E2.1460
G1 X122.173 Y106.364 E2.1721
G1 X120.319 Y104.510 E2.2822
G1 X120.319 Y103.889 E2.3083
G1 X125.665 Y98.543 E2.6257
G1 X109.755 Y82.633 E3.5705
G1 X104.409 Y87.979 E3.8880
G1 X103.788 Y87.979 E3.9141
G1 X101.934 Y86.125 E4.0242
G1 X101.934 Y85.504 E4.0503
G1 X121.449 Y106.667 F4800
G92 E0
G1 X122.070 Y106.667 E0.0261 F900
G1 X129.580 Y114.178 E0.4721
G1 X129.580 Y114.799 E0.4982
G1 X109.342 Y135.037 E1.7000
G1 X108.721 Y135.037 E1.7261
G1 X101.210 Y127.527 E2.1721
G1 X101.210 Y126.906 E2.1982
G1 X103.064 Y125.052 E2.3083
G1 X103.685 Y125.052 E2.3344
G1 X109.031 Y130.398 E2.6518
G1 X124.941 Y114.489 E3.5966
G1 X119.595 Y109.142 E3.9141
G1 X119.595 Y108.521 E3.9402
G1 X121.449 Y106.667 E4.0503
G1 X100.852 Y126.441 F4800
G92 E0
G1 X100.852 Y127.062 E0.0261 F900
G1 X93.342 Y134.573 E0.4721
G1 X92.720 Y134.573 E0.4982
G1 X72.482 Y114.334 E1.7000
G1 X72.482 Y113.713 E1.7261
G1 X79.992 Y106.203 E2.1721
G1 X80.614 Y106.203 E2.1982
G1 X82.467 Y108.056 E2.3083
G1 X82.467 Y108.677 E2.3344
G1 X77.121 Y114.024 E2.6518
G1 X93.031 Y129.933 E3.5966
G1 X98.377 Y124.587 E3.9141
G1 X98.998 Y124.587 E3.9402
G1 X100.852 Y126.441 E4.0503
G1 X100.352 Y126.648 F4800
G92 E0
G1 X100.352 Y126.855 E0.0087 F900
G1 X93.134 Y134.073 E0.4373
G1 X92.927 Y134.073 E0.4460
G1 X72.982 Y114.127 E1.6304
G1 X72.982 Y113.920 E1.6391
G1 X80.199 Y106.703 E2.0677
G1 X80.406 Y106.703 E2.0764
G1 X81.967 Y108.263 E2.1691
G1 X81.967 Y108.470 E2.1778
G1 X76.414 Y114.024 E2.5076
G1 X93.031 Y130.641 E3.4944
G1 X98.584 Y125.087 E3.8242
G1 X98.791 Y125.087 E3.8329
G1 X100.352 Y126.648 E3.9255
G1 X101.710 Y127.113 F4800
G92 E0
G1 X103.271 Y125.552 E0.0927 F900
G1 X103.478 Y125.552 E0.1014
G1 X109.031 Y131.106 E0.4312
G1 X125.648 Y114.489 E1.4179
G1 X120.095 Y108.935 E1.7477
G1 X120.095 Y108.728 E1.7564
G1 X121.656 Y107.167 E1.8491
G1 X121.863 Y107.167 E1.8578
G1 X129.080 Y114.385 E2.2864
G1 X129.080 Y114.592 E2.2951
G1 X109.135 Y134.537 E3.4795
G1 X108.928 Y134.537 E3.4882
G1 X101.710 Y127.320 E3.9168
G1 X101.710 Y127.113 E3.9255
G1 X122.380 Y105.864 F4800
G92 E0
G1 X120.819 Y104.303 E0.0927 F900
G1 X120.819 Y104.096 E0.1014
G1 X126.372 Y98.543 E0.4312
G1 X109.755 Y81.926 E1.4179
G1 X104.202 Y87.479 E1.7477
G1 X103.995 Y87.479 E1.7564
G1 X102.434 Y85.918 E1.8491
G1 X102.434 Y85.711 E1.8578
G1 X109.652 Y78.494 E2.2864
G1 X109.859 Y78.494 E2.2951
G1 X129.804 Y98.439 E3.4795
G1 X129.804 Y98.646 E3.4882
G1 X122.587 Y105.864 E3.9168
G1 X122.380 Y105.864 E3.9255
G1 X100.822 Y85.348 F4800
G92 E0
G1 X99.261 Y86.909 E0.0927 F900
G1 X99.054 Y86.909 E0.1014
G1 X93.501 Y81.356 E0.4312
G1 X76.884 Y97.973 E1.4179
G1 X82.437 Y103.526 E1.7477
G1 X82.437 Y103.733 E1.7564
G1 X80.877 Y105.294 E1.8491
G1 X80.669 Y105.294 E1.8578
G1 X73.452 Y98.076 E2.2864
G1 X73.452 Y97.869 E2.2951
G1 X93.397 Y77.924 E3.4795
G1 X93.604 Y77.924 E3.4882
G1 X100.822 Y85.141 E3.9168
G1 X100.822 Y85.348 E3.9255
; outer perimeter
G1 X100.218 Y85.245 F4800
G92 E0
G1 X99.158 Y86.305 E0.0630 F450
G1 X93.501 Y80.649 E0.3989
G1 X76.177 Y97.973 E1.4277
G1 X81.834 Y103.630 E1.7636
G1 X80.773 Y104.690 E1.8266
G1 X74.055 Y97.973 E2.2255
G1 X93.501 Y78.527 E3.3803
G1 X100.218 Y85.245 E3.7792
; inner perimeter
G1 X99.511 Y85.245 F4800
G92 E0
G1 X99.158 Y85.598 E0.0210 F675
G1 X93.501 Y79.942 E0.3569
G1 X75.470 Y97.973 E1.4277
G1 X81.127 Y103.630 E1.7636
G1 X80.773 Y103.983 E1.7846
G1 X74.763 Y97.973 E2.1415
G1 X93.501 Y79.234 E3.2543
G1 X99.511 Y85.245 E3.6112
; outer perimeter
G1 X100.126 Y85.344 F4800
G1 X100.226 Y85.245 F4800
G1 X103.038 Y85.815 F4800
G92 E0
G1 X109.755 Y79.097 E0.3989 F450
G1 X129.201 Y98.543 E1.5537
G1 X122.483 Y105.260 E1.9526
G1 X121.423 Y104.199 E2.0156
G1 X127.079 Y98.543 E2.3515
G1 X109.755 Y81.218 E3.3803
G1 X104.098 Y86.875 E3.7162
G1 X103.038 Y85.815 E3.7792
; inner perimeter
G1 X103.745 Y85.815 F4800
G92 E0
G1 X109.755 Y79.804 E0.3569 F675
G1 X128.494 Y98.543 E1.4697
G1 X122.483 Y104.553 E1.8266
G1 X122.130 Y104.199 E1.8476
G1 X127.786 Y98.543 E2.1835
G1 X109.755 Y80.511 E3.2543
G1 X104.098 Y86.168 E3.5902
G1 X103.745 Y85.815 E3.6112
G92 E0
G1 E-4.0000 F2400
; outer perimeter
G1 X104.385 Y86.595 F4800
G1 X109.755 Y81.226 F4800
G1 X127.072 Y98.543 F4800
G1 X121.415 Y104.199 F4800
G1 X122.483 Y105.267 F4800
G1 X121.759 Y107.771 F4800
G1 E0.0000 F2400
G92 E0
G1 X128.477 Y114.489 E0.3989 F450
G1 X109.031 Y133.934 E1.5537
G1 X102.314 Y127.216 E1.9526
G1 X103.374 Y126.156 E2.0156
G1 X109.031 Y131.813 E2.3515
G1 X126.355 Y114.489 E3.3803
G1 X120.699 Y108.832 E3.7162
G1 X121.759 Y107.771 E3.7792
; inner perimeter
G1 X121.759 Y108.478 F4800
G92 E0
G1 X127.770 Y114.489 E0.3569 F675
G1 X109.031 Y133.227 E1.4697
G1 X103.021 Y127.216 E1.8266
G1 X103.374 Y126.863 E1.8476
G1 X109.031 Y132.520 E2.1835
G1 X127.063 Y114.489 E3.2543
G1 X121.406 Y108.832 E3.5902
G1 X121.759 Y108.478 E3.6112
G92 E0
G1 E-4.0000 F2400
; outer perimeter
G1 X120.983 Y109.123 F4800
G1 X126.348 Y114.489 F4800
G1 X109.031 Y131.806 F4800
G1 X103.374 Y126.149 F4800
G1 X102.307 Y127.216 F4800
G1 X99.748 Y126.752 F4800
G1 E0.0000 F2400
G92 E0
G1 X93.031 Y133.469 E0.3989 F450
G1 X73.585 Y114.024 E1.5537
G1 X80.303 Y107.306 E1.9526
G1 X81.364 Y108.367 E2.0156
G1 X75.707 Y114.024 E2.3515
G1 X93.031 Y131.348 E3.3803
G1 X98.688 Y125.691 E3.7162
G1 X99.748 Y126.752 E3.7792
; inner perimeter
G1 X99.041 Y126.752 F4800
G92 E0
G1 X93.031 Y132.762 E0.3569 F675
G1 X74.292 Y114.024 E1.4697
G1 X80.303 Y108.013 E1.8266
G1 X80.656 Y108.367 E1.8476
G1 X75.000 Y114.024 E2.1835
G1 X93.031 Y132.055 E3.2543
G1 X98.688 Y126.398 E3.5902
G1 X99.041 Y126.752 E3.6112
G92 E0
G1 E-4.0000 F2400
; layer 2, Z = 0.36
M104 S230 T0
; outer perimeter
G1 X99.748 Y126.752 F4800
G1 Z0.360 F1002
G1 E0.0000 F2400
G92 E0
G1 X93.031 Y133.469 E0.3989 F1800
G1 X73.585 Y114.024 E1.5537
G1 X80.303 Y107.306 E1.9526
G1 X81.364 Y108.367 E2.0156
G1 X75.707 Y114.024 E2.3515
G1 X93.031 Y131.348 E3.3803
G1 X98.688 Y125.691 E3.7162
G1 X99.748 Y126.752 E3.7792
; inner perimeter
G1 X99.041 Y126.752 F4800
G92 E0
G1 X93.031 Y132.762 E0.3569 F2700
G1 X74.292 Y114.024 E1.4697
G1 X80.303 Y108.013 E1.8266
G1 X80.656 Y108.367 E1.8476
G1 X75.000 Y114.024 E2.1835
G1 X93.031 Y132.055 E3.2543
G1 X98.688 Y126.398 E3.5902
G1 X99.041 Y126.752 E3.6112
; outer perimeter
G1 X99.667 Y126.840 F4800
G1 X99.755 Y126.752 F4800
G1 X102.314 Y127.216 F4800
G92 E0
G1 X103.374 Y126.156 E0.0630 F1800
G1 X109.031 Y131.813 E0.3989
G1 X126.355 Y114.489 E1.4277
G1 X120.699 Y108.832 E1.7636
G1 X121.759 Y107.771 E1.8266
G1 X128.477 Y114.489 E2.2255
G1 X109.031 Y133.934 E3.3803
G1 X102.314 Y127.216 E3.7792
; inner perimeter
G1 X103.021 Y127.216 F4800
G92 E0
G1 X103.374 Y126.863 E0.0210 F2700
G1 X109.031 Y132.520 E0.3569
G1 X127.063 Y114.489 E1.4277
G1 X121.406 Y108.832 E1.7636
G1 X121.759 Y108.478 E1.7846
G1 X127.770 Y114.489 E2.1415
G1 X109.031 Y133.227 E3.2543
G1 X103.021 Y127.216 E3.6112
G92 E0
G1 E-4.0000 F2400
; outer perimeter
G1 X103.689 Y126.463 F4800
G1 X109.031 Y131.806 F4800
G1 X126.348 Y114.489 F4800
G1 X120.691 Y108.832 F4800
G1 X121.759 Y107.764 F4800
G1 X122.483 Y105.260 F4800
G1 E0.0000 F2400
G92 E0
G1 X121.423 Y104.199 E0.0630 F1800
G1 X127.079 Y98.543 E0.3989
G1 X109.755 Y81.218 E1.4277
G1 X104.098 Y86.875 E1.7636
G1 X103.038 Y85.815 E1.8266
G1 X109.755 Y79.097 E2.2255
G1 X129.201 Y98.543 E3.3803
G1 X122.483 Y105.260 E3.7792
; inner perimeter
G1 X122.483 Y104.553 F4800
G92 E0
G1 X122.130 Y104.199 E0.0210 F2700
G1 X127.786 Y98.543 E0.3569
G1 X109.755 Y80.511 E1.4277
G1 X104.098 Y86.168 E1.7636
G1 X103.745 Y85.815 E1.7846
G1 X109.755 Y79.804 E2.1415
G1 X128.494 Y98.543 E3.2543
G1 X122.483 Y104.553 E3.6112
G92 E0
G1 E-4.0000 F2400
; outer perimeter
G1 X121.722 Y103.893 F4800
G1 X127.072 Y98.543 F4800
G1 X109.755 Y81.226 F4800
G1 X104.098 Y86.882 F4800
G1 X103.031 Y85.815 F4800
G1 X100.218 Y85.245 F4800
G1 E0.0000 F2400
G92 E0
G1 X99.158 Y86.305 E0.0630 F1800
G1 X93.501 Y80.649 E0.3989
