; G-Code generated by Simplify3D(R) Version 3.0.0
; мар 16, 2016 at 5:06:30 
; Settings Summary
;   processName,Process1
;   applyToModels,motor_fix-pe0.2
;   profileName,prusa 1mm (modified)
;   profileVersion,2016-02-16 12:52:21
;   baseProfile,Default
;   printMaterial,PLA
;   printQuality,Medium
;   printExtruders,
;   extruderName,Extruder 1
;   extruderToolheadNumber,0
;   extruderDiameter,0.5
;   extruderAutoWidth,0
;   extruderWidth,0.62
;   extrusionMultiplier,1.01
;   extruderUseRetract,1
;   extruderRetractionDistance,4
;   extruderExtraRestartDistance,-0.2
;   extruderRetractionZLift,0
;   extruderRetractionSpeed,2400
;   extruderUseCoasting,1
;   extruderCoastingDistance,0.2
;   extruderUseWipe,0
;   extruderWipeDistance,5
;   primaryExtruder,0
;   layerHeight,0.2
;   topSolidLayers,3
;   bottomSolidLayers,3
;   perimeterOutlines,1
;   printPerimetersInsideOut,0
;   startPointOption,1
;   startPointOriginX,150
;   startPointOriginY,0
;   startPointOriginZ,120
;   sequentialIslands,0
;   spiralVaseMode,0
;   firstLayerHeightPercentage,85
;   firstLayerWidthPercentage,100
;   firstLayerUnderspeed,0.22
;   useRaft,0
;   raftExtruder,0
;   raftLayers,3
;   raftOffset,3
;   raftSeparationDistance,0.14
;   raftInfill,85
;   disableRaftBaseLayers,0
;   useSkirt,1
;   skirtExtruder,0
;   skirtLayers,1
;   skirtOutlines,8
;   skirtOffset,0
;   usePrimePillar,0
;   primePillarExtruder,999
;   primePillarWidth,12
;   primePillarLocation,7
;   primePillarSpeedMultiplier,1
;   useOozeShield,0
;   oozeShieldExtruder,999
;   oozeShieldOffset,2
;   oozeShieldOutlines,1
;   oozeShieldSidewallShape,1
;   oozeShieldSidewallAngle,30
;   oozeShieldSpeedMultiplier,1
;   infillExtruder,0
;   internalInfillPattern,Wiggle
;   externalInfillPattern,Rectilinear
;   infillPercentage,23
;   outlineOverlapPercentage,15
;   infillExtrusionWidthPercentage,100
;   minInfillLength,5
;   infillLayerInterval,1
;   infillAngles,0
;   overlapInfillAngles,0
;   generateSupport,1
;   supportExtruder,0
;   supportInfillPercentage,80
;   supportExtraInflation,0
;   denseSupportLayers,0
;   denseSupportInfillPercentage,70
;   supportLayerInterval,1
;   supportHorizontalPartOffset,0.3
;   supportUpperSeparationLayers,1
;   supportLowerSeparationLayers,1
;   supportType,0
;   supportGridSpacing,4
;   maxOverhangAngle,45
;   supportAngles,0
;   temperatureName,Extruder 1 Temperature,Heated Bed
;   temperatureNumber,0,1
;   temperatureSetpointCount,2,1
;   temperatureSetpointLayers,1,2,1
;   temperatureSetpointTemperatures,240,225,115
;   temperatureStabilizeAtStartup,1,1
;   temperatureHeatedBed,0,1
;   temperatureRelayBetweenLayers,0,0
;   temperatureRelayBetweenLoops,0,0
;   fanLayers,1
;   fanSpeeds,0
;   blipFanToFullPower,0
;   adjustSpeedForCooling,1
;   minSpeedLayerTime,10
;   minCoolingSpeedSlowdown,20
;   increaseFanForCooling,0
;   minFanLayerTime,45
;   maxCoolingFanSpeed,100
;   increaseFanForBridging,0
;   bridgingFanSpeed,100
;   use5D,1
;   relativeEdistances,0
;   allowEaxisZeroing,1
;   independentExtruderAxes,0
;   includeM10123,0
;   stickySupport,1
;   applyToolheadOffsets,0
;   gcodeXoffset,0
;   gcodeYoffset,0
;   gcodeZoffset,0
;   overrideMachineDefinition,1
;   machineTypeOverride,0
;   strokeXoverride,200
;   strokeYoverride,200
;   strokeZoverride,200
;   originOffsetXoverride,0
;   originOffsetYoverride,0
;   originOffsetZoverride,0
;   homeXdirOverride,-1
;   homeYdirOverride,-1
;   homeZdirOverride,-1
;   flipXoverride,1
;   flipYoverride,-1
;   flipZoverride,1
;   toolheadOffsets,0,0|0,0|0,0|0,0|0,0|0,0
;   overrideFirmwareConfiguration,1
;   firmwareTypeOverride,RepRap (Marlin/Repetier/Sprinter)
;   GPXconfigOverride,r2
;   baudRateOverride,115200
;   overridePrinterModels,0
;   printerModelsOverride
;   startingGcode,G28 ; home all axes
;   layerChangeGcode,
;   retractionGcode,
;   toolChangeGcode,
;   endingGcode,M104 S0 ; turn off extruder,M140 S0 ; turn off bed,G28 X0;,M84 ; disable motors
;   createX3G,0
;   celebration,0
;   celebrationSong,Random Song
;   createMB5G,0
;   postProcessing,
;   defaultSpeed,3600
;   outlineUnderspeed,0.5
;   solidInfillUnderspeed,0.8
;   supportUnderspeed,0.8
;   rapidXYspeed,4800
;   rapidZspeed,1002
;   minBridgingArea,50
;   bridgingExtraInflation,0
;   bridgingExtrusionMultiplier,1
;   bridgingSpeedMultiplier,1
;   filamentDiameter,1.75
;   filamentPricePerKg,46
;   filamentDensity,1.25
;   useMinPrintHeight,0
;   minPrintHeight,0
;   useMaxPrintHeight,0
;   maxPrintHeight,0
;   useDiaphragm,0
;   diaphragmLayerInterval,20
;   robustSlicing,1
;   mergeAllIntoSolid,0
;   onlyRetractWhenCrossingOutline,1
;   retractBetweenLayers,1
;   useRetractionMinTravel,1
;   retractionMinTravel,5
;   retractWhileWiping,0
;   onlyWipeOutlines,1
;   avoidCrossingOutline,1
;   maxMovementDetourFactor,3
;   toolChangeRetractionDistance,12
;   toolChangeExtraRestartDistance,-0.5
;   toolChangeRetractionSpeed,600
;   allowThinWallGapFill,1
;   thinWallAllowedOverlapPercentage,1
;   horizontalSizeCompensation,0
G90
M82
M106 S0
M140 S115
M190 S115
M104 S240 T0
M109 S240 T0
G28 ; home all axes
G92 E0
G1 E-4.0000 F2400
G1 Z0.170 F1002
; layer 1, Z = 0.17
T0
; tool H0.200 W0.620
; skirt
G1 X72.680 Y141.152 F4800
G1 E-0.2000 F720
G92 E0
G1 X73.104 Y140.974 E0.0239 F792
G1 X74.485 Y140.548 E0.0992
G1 X74.939 Y140.456 E0.1233
G1 X76.294 Y140.319 E0.1943
G1 X76.527 Y140.308 E0.2064
G1 X126.761 Y140.308 E2.8220
G1 X126.994 Y140.319 E2.8341
G1 X128.350 Y140.456 E2.9051
G1 X128.803 Y140.548 E2.9292
G1 X130.184 Y140.974 E3.0044
G1 X130.608 Y141.152 E3.0284
G1 X131.855 Y141.828 E3.1022
G1 X132.225 Y142.077 E3.1255
G1 X133.312 Y142.971 E3.1987
G1 X133.630 Y143.290 E3.2222
G1 X134.525 Y144.376 E3.2955
G1 X134.774 Y144.747 E3.3187
G1 X135.450 Y145.994 E3.3926
G1 X135.628 Y146.418 E3.4165
G1 X136.054 Y147.799 E3.4918
G1 X136.146 Y148.252 E3.5159
G1 X136.282 Y149.608 E3.5868
G1 X136.294 Y149.841 E3.5990
G1 X136.294 Y170.074 E4.6525
G1 X136.282 Y170.307 E4.6646
G1 X136.146 Y171.663 E4.7356
G1 X136.054 Y172.117 E4.7597
G1 X135.628 Y173.497 E4.8349
G1 X135.451 Y173.920 E4.8588
G1 X134.775 Y175.169 E4.9327
G1 X134.524 Y175.542 E4.9561
G1 X133.629 Y176.627 E5.0294
G1 X133.312 Y176.944 E5.0527
G1 X132.226 Y177.838 E5.1260
G1 X131.855 Y178.088 E5.1492
G1 X130.608 Y178.764 E5.2231
G1 X130.184 Y178.942 E5.2470
G1 X128.803 Y179.368 E5.3223
G1 X128.349 Y179.460 E5.3464
G1 X126.993 Y179.596 E5.4173
G1 X126.761 Y179.608 E5.4295
G1 X112.418 Y179.608 E6.1763
G1 X109.694 Y176.884 E6.3769
G1 X109.694 Y165.408 E6.9744
G1 X102.718 Y165.408 E7.3376
G1 X101.718 Y164.408 E7.4113
G1 X101.570 Y164.408 E7.4190
G1 X100.570 Y165.408 E7.4926
G1 X93.594 Y165.408 E7.8559
G1 X93.594 Y176.884 E8.4534
G1 X90.870 Y179.608 E8.6540
G1 X76.528 Y179.608 E9.4008
G1 X76.295 Y179.596 E9.4129
G1 X74.939 Y179.460 E9.4839
G1 X74.485 Y179.368 E9.5080
G1 X73.104 Y178.942 E9.5832
G1 X72.682 Y178.765 E9.6071
G1 X71.433 Y178.088 E9.6810
G1 X71.060 Y177.837 E9.7044
G1 X69.975 Y176.943 E9.7777
G1 X69.659 Y176.627 E9.8009
G1 X68.764 Y175.542 E9.8741
G1 X68.514 Y175.169 E9.8975
G1 X67.837 Y173.920 E9.9715
G1 X67.660 Y173.497 E9.9954
G1 X67.234 Y172.117 E10.0706
G1 X67.142 Y171.663 E10.0947
G1 X67.006 Y170.307 E10.1656
G1 X66.994 Y170.074 E10.1778
G1 X66.994 Y149.841 E11.2313
G1 X67.006 Y149.608 E11.2434
G1 X67.142 Y148.252 E11.3144
G1 X67.234 Y147.799 E11.3385
G1 X67.660 Y146.418 E11.4138
G1 X67.838 Y145.994 E11.4377
G1 X68.514 Y144.747 E11.5116
G1 X68.763 Y144.376 E11.5348
G1 X69.658 Y143.290 E11.6081
G1 X69.976 Y142.971 E11.6315
G1 X71.063 Y142.077 E11.7048
G1 X71.433 Y141.828 E11.7280
G1 X72.504 Y141.247 E11.7915
G1 X72.680 Y141.152 F792
G1 X72.949 Y141.711 F4800
G92 E0
G1 X73.316 Y141.557 E0.0208 F792
G1 X74.638 Y141.149 E0.0928
G1 X75.031 Y141.070 E0.1137
G1 X76.341 Y140.938 E0.1822
G1 X76.543 Y140.928 E0.1928
G1 X126.745 Y140.928 E2.8067
G1 X126.947 Y140.938 E2.8172
G1 X128.257 Y141.070 E2.8858
G1 X128.650 Y141.149 E2.9067
G1 X129.972 Y141.557 E2.9787
G1 X130.340 Y141.711 E2.9995
G1 X131.534 Y142.359 E3.0702
G1 X131.854 Y142.575 E3.0903
G1 X132.895 Y143.431 E3.1605
G1 X133.171 Y143.707 E3.1808
G1 X134.027 Y144.747 E3.2510
G1 X134.243 Y145.068 E3.2711
G1 X134.890 Y146.262 E3.3418
G1 X135.045 Y146.630 E3.3626
G1 X135.453 Y147.952 E3.4346
G1 X135.532 Y148.345 E3.4555
G1 X135.664 Y149.655 E3.5241
G1 X135.674 Y149.857 E3.5346
G1 X135.674 Y170.059 E4.5865
G1 X135.664 Y170.261 E4.5970
G1 X135.532 Y171.570 E4.6655
G1 X135.453 Y171.964 E4.6864
G1 X135.045 Y173.286 E4.7585
G1 X134.891 Y173.652 E4.7792
G1 X134.244 Y174.848 E4.8499
G1 X134.026 Y175.171 E4.8702
G1 X133.169 Y176.210 E4.9404
G1 X132.894 Y176.485 E4.9606
G1 X131.855 Y177.341 E5.0307
G1 X131.533 Y177.557 E5.0509
G1 X130.340 Y178.204 E5.1216
G1 X129.972 Y178.358 E5.1423
G1 X128.650 Y178.766 E5.2144
G1 X128.257 Y178.846 E5.2353
G1 X126.947 Y178.978 E5.3038
G1 X126.745 Y178.988 E5.3143
G1 X112.675 Y178.988 E6.0470
G1 X110.314 Y176.627 E6.2208
G1 X110.314 Y164.788 E6.8373
G1 X102.975 Y164.788 E7.2194
G1 X101.975 Y163.788 E7.2930
G1 X101.313 Y163.788 E7.3275
G1 X100.313 Y164.788 E7.4011
G1 X92.974 Y164.788 E7.7833
G1 X92.974 Y176.627 E8.3997
G1 X90.613 Y178.988 E8.5736
G1 X76.543 Y178.988 E9.3062
G1 X76.341 Y178.978 E9.3167
G1 X75.031 Y178.846 E9.3852
G1 X74.638 Y178.766 E9.4061
G1 X73.316 Y178.359 E9.4782
G1 X72.950 Y178.205 E9.4989
G1 X71.754 Y177.557 E9.5696
G1 X71.431 Y177.340 E9.5899
G1 X70.392 Y176.483 E9.6600
G1 X70.118 Y176.209 E9.6802
G1 X69.262 Y175.171 E9.7503
G1 X69.044 Y174.848 E9.7706
G1 X68.397 Y173.652 E9.8414
G1 X68.243 Y173.285 E9.8621
G1 X67.836 Y171.963 E9.9341
G1 X67.756 Y171.570 E9.9550
G1 X67.624 Y170.261 E10.0235
G1 X67.614 Y170.059 E10.0341
G1 X67.614 Y149.857 E11.0860
G1 X67.624 Y149.655 E11.0965
G1 X67.756 Y148.345 E11.1650
G1 X67.836 Y147.952 E11.1859
G1 X68.243 Y146.630 E11.2580
G1 X68.398 Y146.262 E11.2787
G1 X69.045 Y145.068 E11.3494
G1 X69.261 Y144.747 E11.3696
G1 X70.117 Y143.707 E11.4397
G1 X70.393 Y143.431 E11.4601
G1 X71.434 Y142.575 E11.5302
G1 X71.755 Y142.359 E11.5504
G1 X72.773 Y141.807 E11.6107
G1 X72.949 Y141.711 F792
G1 X73.217 Y142.271 F4800
G92 E0
G1 X73.528 Y142.140 E0.0176 F792
G1 X74.792 Y141.751 E0.0864
G1 X75.124 Y141.684 E0.1041
G1 X76.388 Y141.556 E0.1702
G1 X76.559 Y141.548 E0.1791
G1 X126.730 Y141.548 E2.7915
G1 X126.900 Y141.556 E2.8004
G1 X128.164 Y141.684 E2.8665
G1 X128.497 Y141.751 E2.8842
G1 X129.760 Y142.140 E2.9530
G1 X130.071 Y142.271 E2.9706
G1 X131.212 Y142.890 E3.0381
G1 X131.483 Y143.072 E3.0552
G1 X132.478 Y143.891 E3.1222
G1 X132.711 Y144.124 E3.1394
G1 X133.529 Y145.118 E3.2065
G1 X133.712 Y145.390 E3.2235
G1 X134.331 Y146.531 E3.2911
G1 X134.461 Y146.842 E3.3086
G1 X134.851 Y148.105 E3.3775
G1 X134.918 Y148.438 E3.3952
G1 X135.046 Y149.702 E3.4613
G1 X135.054 Y149.872 E3.4702
G1 X135.054 Y170.043 E4.5205
G1 X135.046 Y170.214 E4.5294
G1 X134.918 Y171.478 E4.5955
G1 X134.851 Y171.810 E4.6132
G1 X134.461 Y173.074 E4.6820
G1 X134.331 Y173.384 E4.6995
G1 X133.713 Y174.526 E4.7672
G1 X133.529 Y174.799 E4.7843
G1 X132.710 Y175.793 E4.8513
G1 X132.477 Y176.025 E4.8685
G1 X131.484 Y176.843 E4.9355
G1 X131.212 Y177.026 E4.9525
G1 X130.071 Y177.644 E5.0201
G1 X129.760 Y177.775 E5.0377
G1 X128.497 Y178.165 E5.1065
G1 X128.164 Y178.232 E5.1242
G1 X126.900 Y178.359 E5.1903
G1 X126.730 Y178.368 E5.1992
G1 X112.932 Y178.368 E5.9177
G1 X110.934 Y176.370 E6.0647
G1 X110.934 Y164.168 E6.7001
G1 X103.232 Y164.168 E7.1012
G1 X102.232 Y163.168 E7.1748
G1 X101.057 Y163.168 E7.2360
G1 X100.057 Y164.168 E7.3096
G1 X92.354 Y164.168 E7.7107
G1 X92.354 Y176.370 E8.3461
G1 X90.357 Y178.368 E8.4931
G1 X76.559 Y178.368 E9.2116
G1 X76.388 Y178.359 E9.2205
G1 X75.124 Y178.232 E9.2866
G1 X74.791 Y178.165 E9.3043
G1 X73.528 Y177.775 E9.3731
G1 X73.218 Y177.645 E9.3906
G1 X72.076 Y177.027 E9.4583
G1 X71.803 Y176.842 E9.4754
G1 X70.810 Y176.024 E9.5424
G1 X70.578 Y175.792 E9.5595
G1 X69.759 Y174.799 E9.6265
G1 X69.575 Y174.526 E9.6436
G1 X68.957 Y173.384 E9.7113
G1 X68.827 Y173.074 E9.7288
G1 X68.437 Y171.810 E9.7976
G1 X68.370 Y171.478 E9.8153
G1 X68.243 Y170.214 E9.8814
G1 X68.234 Y170.043 E9.8903
G1 X68.234 Y149.872 E10.9406
G1 X68.243 Y149.701 E10.9495
G1 X68.370 Y148.438 E11.0156
G1 X68.437 Y148.105 E11.0333
G1 X68.827 Y146.842 E11.1022
G1 X68.957 Y146.531 E11.1197
G1 X69.576 Y145.390 E11.1873
G1 X69.759 Y145.118 E11.2043
G1 X70.577 Y144.124 E11.2714
G1 X70.811 Y143.891 E11.2886
G1 X71.805 Y143.072 E11.3556
G1 X72.076 Y142.890 E11.3727
G1 X73.041 Y142.366 E11.4298
G1 X73.217 Y142.271 F792
G1 X73.486 Y142.831 F4800
G92 E0
G1 X73.740 Y142.724 E0.0144 F792
G1 X74.945 Y142.352 E0.0800
G1 X75.217 Y142.297 E0.0945
G1 X76.434 Y142.175 E0.1582
G1 X76.574 Y142.168 E0.1655
G1 X126.714 Y142.168 E2.7762
G1 X126.854 Y142.175 E2.7835
G1 X128.071 Y142.297 E2.8472
G1 X128.343 Y142.352 E2.8616
G1 X129.548 Y142.724 E2.9273
G1 X129.803 Y142.831 E2.9417
G1 X130.890 Y143.420 E3.0061
G1 X131.112 Y143.570 E3.0200
G1 X132.060 Y144.350 E3.0840
G1 X132.251 Y144.541 E3.0980
G1 X133.032 Y145.489 E3.1620
G1 X133.181 Y145.712 E3.1759
G1 X133.771 Y146.799 E3.2403
G1 X133.878 Y147.054 E3.2547
G1 X134.249 Y148.258 E3.3203
G1 X134.305 Y148.531 E3.3348
G1 X134.427 Y149.748 E3.3985
G1 X134.434 Y149.888 E3.4058
G1 X134.434 Y170.028 E4.4545
G1 X134.427 Y170.167 E4.4617
G1 X134.305 Y171.385 E4.5255
G1 X134.249 Y171.657 E4.5399
G1 X133.878 Y172.862 E4.6056
G1 X133.771 Y173.115 E4.6199
G1 X133.182 Y174.204 E4.6844
G1 X133.031 Y174.428 E4.6984
G1 X132.251 Y175.375 E4.7623
G1 X132.060 Y175.565 E4.7763
G1 X131.113 Y176.345 E4.8402
G1 X130.890 Y176.495 E4.8542
G1 X129.803 Y177.085 E4.9186
G1 X129.548 Y177.192 E4.9330
G1 X128.343 Y177.563 E4.9986
G1 X128.071 Y177.618 E5.0131
G1 X126.854 Y177.741 E5.0768
G1 X126.714 Y177.748 E5.0841
G1 X113.188 Y177.748 E5.7883
G1 X111.554 Y176.113 E5.9087
G1 X111.554 Y163.548 E6.5630
G1 X103.488 Y163.548 E6.9829
G1 X102.488 Y162.548 E7.0566
G1 X100.800 Y162.548 E7.1445
G1 X99.800 Y163.548 E7.2181
G1 X91.734 Y163.548 E7.6381
G1 X91.734 Y176.113 E8.2924
G1 X90.100 Y177.748 E8.4127
G1 X76.574 Y177.748 E9.1170
G1 X76.434 Y177.741 E9.1243
G1 X75.217 Y177.618 E9.1880
G1 X74.945 Y177.563 E9.2024
G1 X73.740 Y177.192 E9.2681
G1 X73.487 Y177.085 E9.2824
G1 X72.397 Y176.496 E9.3469
G1 X72.174 Y176.345 E9.3609
G1 X71.227 Y175.564 E9.4248
G1 X71.037 Y175.375 E9.4388
G1 X70.257 Y174.428 E9.5027
G1 X70.106 Y174.204 E9.5167
G1 X69.517 Y173.115 E9.5812
G1 X69.410 Y172.862 E9.5955
G1 X69.039 Y171.657 E9.6612
G1 X68.984 Y171.385 E9.6756
G1 X68.861 Y170.167 E9.7393
G1 X68.854 Y170.028 E9.7466
G1 X68.854 Y149.888 E10.7953
G1 X68.861 Y149.748 E10.8026
G1 X68.984 Y148.531 E10.8663
G1 X69.039 Y148.258 E10.8807
G1 X69.410 Y147.054 E10.9464
G1 X69.517 Y146.799 E10.9607
G1 X70.107 Y145.712 E11.0252
G1 X70.256 Y145.489 E11.0391
G1 X71.037 Y144.541 E11.1030
G1 X71.228 Y144.350 E11.1171
G1 X72.176 Y143.570 E11.1810
G1 X72.398 Y143.420 E11.1950
G1 X73.310 Y142.926 E11.2490
G1 X73.486 Y142.831 F792
G1 X73.754 Y143.391 F4800
G92 E0
G1 X73.952 Y143.307 E0.0112 F792
G1 X75.098 Y142.954 E0.0736
G1 X75.310 Y142.911 E0.0849
G1 X76.481 Y142.793 E0.1462
G1 X76.590 Y142.788 E0.1518
G1 X126.698 Y142.788 E2.7609
G1 X126.807 Y142.793 E2.7666
G1 X127.979 Y142.911 E2.8279
G1 X128.190 Y142.954 E2.8391
G1 X129.336 Y143.307 E2.9016
G1 X129.534 Y143.391 E2.9128
G1 X130.569 Y143.951 E2.9740
G1 X130.741 Y144.068 E2.9849
G1 X131.643 Y144.810 E3.0457
G1 X131.792 Y144.959 E3.0566
G1 X132.534 Y145.860 E3.1175
G1 X132.651 Y146.033 E3.1283
G1 X133.211 Y147.068 E3.1896
