; generated by Slic3r 1.2.9 on 2016-04-20 at 18:22:01

; H1_0.30
; H11_0.25
; H12_0.45
; H13_0.25
; H14_0.45
; H15_False
; H5_True
; H51_True
; H52_0
; H53_0
; H54_1.50
; H6_False
; H4_5
; H3_45
; H2_QUJTLUZEUGxhc3QtMjQw
; H31_False
; H32_1.00
; H33_True
; H34_70
; H35_1.50
; H36_False
; H37_True
; H23_240
; H22_240
; H25_110
; H24_110
; H21_0.97
; H26_1400.00
; H27_1
; H7_0

; external perimeters extrusion width = 0.45mm
; perimeters extrusion width = 0.45mm
; infill extrusion width = 0.45mm
; solid infill extrusion width = 0.45mm
; top infill extrusion width = 0.30mm
; support material extrusion width = 0.45mm

M107
M85 S600
M104 S200
M190 S110
M109 S240
G28
G90
G1 X20 Y0 F10000
G21 ; set units to millimeters
G90 ; use absolute coordinates
M82 ; use absolute distances for extrusion
G92 E0
G1 Z0.250 F9600.000
G1 E-1.00000 F1200.00000
G92 E0
G1 X62.071 Y62.071 F9600.000
G1 E1.00000 F1200.00000
G1 X62.303 Y61.839 E1.01311 F1350.000
G1 X63.043 Y61.229 E1.05143
G1 X63.583 Y60.866 E1.07743
G1 X64.431 Y60.406 E1.11600
G1 X65.049 Y60.146 E1.14278
G1 X65.989 Y59.856 E1.18210
G1 X66.650 Y59.722 E1.20904
G1 X67.660 Y59.621 E1.24960
G1 X68.000 Y59.604 E1.26320
G1 X118.000 Y59.604 E3.26120
G1 X118.340 Y59.621 E3.27480
G1 X119.350 Y59.722 E3.31536 F1350.000
G1 X120.011 Y59.856 E3.34230
G1 X120.951 Y60.146 E3.38162
G1 X121.569 Y60.406 E3.40840
G1 X122.417 Y60.866 E3.44697
G1 X122.957 Y61.229 E3.47297
G1 X123.697 Y61.839 E3.51129
G1 X124.161 Y62.303 E3.53751
G1 X124.771 Y63.043 E3.57583
G1 X125.134 Y63.583 E3.60183
G1 X125.594 Y64.431 E3.64040
G1 X125.854 Y65.049 E3.66718
G1 X126.144 Y65.989 E3.70650
G1 X126.278 Y66.650 E3.73344
G1 X126.379 Y67.660 E3.77400
G1 X126.396 Y68.000 E3.78760
G1 X126.396 Y124.000 E6.02536
G1 X126.379 Y124.340 E6.03896
G1 X126.278 Y125.350 E6.07952
G1 X126.144 Y126.011 E6.10646
G1 X125.854 Y126.951 E6.14578
G1 X125.594 Y127.569 E6.17256
G1 X125.134 Y128.417 E6.21113
G1 X124.771 Y128.957 E6.23713
G1 X124.161 Y129.697 E6.27545
G1 X123.697 Y130.161 E6.30167
G1 X122.957 Y130.771 E6.33998
G1 X122.417 Y131.134 E6.36598
G1 X121.569 Y131.594 E6.40456
G1 X120.951 Y131.854 E6.43133
G1 X120.011 Y132.144 E6.47066
G1 X119.350 Y132.278 E6.49760
G1 X118.340 Y132.379 E6.53816
G1 X118.000 Y132.396 E6.55176
G1 X68.000 Y132.396 E8.54975
G1 X67.660 Y132.379 E8.56336
G1 X66.650 Y132.278 E8.60391
G1 X65.989 Y132.144 E8.63086
G1 X65.049 Y131.854 E8.67018
G1 X64.431 Y131.594 E8.69696
G1 X63.583 Y131.134 E8.73553
G1 X63.043 Y130.771 E8.76153
G1 X62.303 Y130.161 E8.79985
G1 X61.839 Y129.697 E8.82607
G1 X61.229 Y128.957 E8.86438
G1 X60.866 Y128.417 E8.89039
G1 X60.406 Y127.569 E8.92896
G1 X60.146 Y126.951 E8.95573
G1 X59.856 Y126.011 E8.99506
G1 X59.722 Y125.350 E9.02200
G1 X59.621 Y124.340 E9.06256
G1 X59.604 Y124.000 E9.07616
G1 X59.604 Y68.000 E11.31391
G1 X59.621 Y67.660 E11.32752
G1 X59.722 Y66.650 E11.36807
G1 X59.856 Y65.989 E11.39501
G1 X60.146 Y65.049 E11.43434
G1 X60.406 Y64.431 E11.46111
G1 X60.866 Y63.583 E11.49969
G1 X61.229 Y63.043 E11.52569
G1 X61.839 Y62.303 E11.56400
G1 X62.039 Y62.102 E11.57532
G1 E10.57532 F1200.00000
G92 E0
G1 X120.774 Y124.529 F9600.000
G1 E1.00000 F1200.00000
G1 X120.626 Y125.040 E1.02124 F1350.000
G1 X120.389 Y125.504 E1.04209
G1 X120.175 Y125.799 E1.05665
G1 X119.925 Y126.065 E1.07120
G1 X119.513 Y126.384 E1.09205
G1 X119.040 Y126.626 E1.11329
G1 X118.529 Y126.774 E1.13453
G1 X118.000 Y126.824 E1.15577
G1 X117.471 Y126.774 E1.17701
G1 X116.960 Y126.626 E1.19825
G1 X116.487 Y126.384 E1.21949
G1 X116.075 Y126.065 E1.24034
G1 X115.825 Y125.799 E1.25490
G1 X115.611 Y125.504 E1.26945
G1 X115.374 Y125.040 E1.29030
G1 X115.226 Y124.529 E1.31154
G1 X115.176 Y124.000 E1.33278
G1 X115.226 Y123.471 E1.35402
G1 X115.374 Y122.960 E1.37526
G1 X115.616 Y122.487 E1.39650
G1 X115.941 Y122.067 E1.41774
G1 X116.340 Y121.715 E1.43898
G1 X116.798 Y121.445 E1.46022
G1 X117.288 Y121.268 E1.48107
G1 X117.646 Y121.200 E1.49561
G1 X118.000 Y121.177 E1.50980 F1350.000
G1 X118.528 Y121.226 E1.53099
G1 X119.040 Y121.374 E1.55227
G1 X119.513 Y121.616 E1.57351
G1 X119.925 Y121.935 E1.59436
G1 X120.175 Y122.201 E1.60891
G1 X120.389 Y122.496 E1.62347
G1 X120.626 Y122.960 E1.64431
G1 X120.774 Y123.471 E1.66556
G1 X120.824 Y124.000 E1.68680
G1 X120.778 Y124.484 E1.70624
G1 X120.383 Y124.455 F9600.000
G1 X120.256 Y124.893 E1.72448 F1350.000
G1 X120.050 Y125.297 E1.74259
G1 X119.869 Y125.546 E1.75490
G1 X119.658 Y125.771 E1.76721
G1 X119.300 Y126.048 E1.78532
G1 X118.893 Y126.256 E1.80356
G1 X118.455 Y126.383 E1.82181
G1 X118.000 Y126.426 E1.84006
G1 X117.545 Y126.383 E1.85830
G1 X117.107 Y126.256 E1.87655
G1 X116.700 Y126.048 E1.89479
G1 X116.342 Y125.771 E1.91290
G1 X116.131 Y125.546 E1.92521
G1 X115.950 Y125.297 E1.93752
G1 X115.744 Y124.893 E1.95563
G1 X115.617 Y124.455 E1.97388
G1 X115.574 Y124.000 E1.99212
G1 X115.617 Y123.545 E2.01036
G1 X115.744 Y123.107 E2.02861
G1 X115.952 Y122.700 E2.04686
G1 X116.232 Y122.339 E2.06511
G1 X116.574 Y122.037 E2.08335
G1 X116.967 Y121.805 E2.10160
G1 X117.393 Y121.651 E2.11970
G1 X117.696 Y121.594 E2.13201
G1 X117.995 Y121.575 E2.14397 F1350.000
G1 X118.454 Y121.617 E2.16242
G1 X118.893 Y121.744 E2.18068
G1 X119.300 Y121.952 E2.19892
G1 X119.658 Y122.229 E2.21703
G1 X119.869 Y122.454 E2.22934
G1 X120.050 Y122.703 E2.24165
G1 X120.256 Y123.107 E2.25975
G1 X120.383 Y123.545 E2.27800
G1 X120.426 Y124.000 E2.29625
G1 X120.387 Y124.410 E2.31269
G1 X120.604 Y124.658 F9600.000
G1 E1.31269 F1200.00000
G92 E0
G1 X118.529 Y116.774 F9600.000
G1 E1.00000 F1200.00000
G1 X118.000 Y116.824 E1.02124 F1350.000
G1 X117.471 Y116.774 E1.04248
G1 X116.960 Y116.626 E1.06372
G1 X116.486 Y116.384 E1.08499
G1 X116.068 Y116.058 E1.10620
G1 X115.825 Y115.799 E1.12037
G1 X115.611 Y115.504 E1.13492
G1 X115.374 Y115.040 E1.15577
G1 X115.226 Y114.529 E1.17701
G1 X115.176 Y114.000 E1.19825
G1 X115.226 Y113.471 E1.21949
G1 X115.374 Y112.960 E1.24073
G1 X115.616 Y112.487 E1.26197
G1 X115.941 Y112.067 E1.28321
G1 X116.340 Y111.715 E1.30445
G1 X116.798 Y111.445 E1.32569
G1 X117.288 Y111.268 E1.34654
G1 X117.646 Y111.200 E1.36108
G1 X118.000 Y111.177 E1.37526 F1350.000
G1 X118.528 Y111.226 E1.39646
G1 X119.040 Y111.374 E1.41774
G1 X119.513 Y111.616 E1.43897
G1 X119.925 Y111.935 E1.45982
G1 X120.175 Y112.201 E1.47438
G1 X120.389 Y112.496 E1.48893
G1 X120.626 Y112.960 E1.50978
G1 X120.774 Y113.471 E1.53102
G1 X120.824 Y114.000 E1.55226
G1 X120.774 Y114.530 E1.57354
G1 X120.625 Y115.039 E1.59474
G1 X120.473 Y115.360 E1.60892
G1 X120.278 Y115.667 E1.62346
G1 X119.933 Y116.059 E1.64431
G1 X119.513 Y116.384 E1.66555
G1 X119.040 Y116.626 E1.68679
G1 X118.572 Y116.762 E1.70623
G1 X118.455 Y116.383 F9600.000
G1 X118.000 Y116.426 E1.72448 F1350.000
G1 X117.545 Y116.383 E1.74272
G1 X117.107 Y116.256 E1.76097
G1 X116.700 Y116.048 E1.77923
G1 X116.336 Y115.764 E1.79768
G1 X116.131 Y115.546 E1.80963
G1 X115.950 Y115.297 E1.82194
G1 X115.744 Y114.893 E1.84005
G1 X115.617 Y114.455 E1.85829
G1 X115.574 Y114.000 E1.87654
G1 X115.617 Y113.545 E1.89479
G1 X115.744 Y113.107 E1.91303
G1 X115.952 Y112.700 E1.93128
G1 X116.232 Y112.339 E1.94953
G1 X116.574 Y112.037 E1.96777
G1 X116.967 Y111.805 E1.98602
G1 X117.393 Y111.651 E2.00412
G1 X117.696 Y111.594 E2.01643
G1 X117.995 Y111.575 E2.02839 F1350.000
G1 X118.454 Y111.617 E2.04684
G1 X118.893 Y111.744 E2.06510
G1 X119.300 Y111.952 E2.08334
G1 X119.658 Y112.229 E2.10145
G1 X119.869 Y112.454 E2.11376
G1 X120.050 Y112.703 E2.12607
G1 X120.256 Y113.107 E2.14418
G1 X120.383 Y113.545 E2.16242
G1 X120.426 Y114.000 E2.18067
G1 X120.383 Y114.455 E2.19893
G1 X120.253 Y114.898 E2.21738
G1 X120.125 Y115.169 E2.22933
G1 X119.960 Y115.429 E2.24164
G1 X119.661 Y115.768 E2.25975
G1 X119.300 Y116.048 E2.27799
G1 X118.893 Y116.256 E2.29624
G1 X118.498 Y116.370 E2.31269
G1 X118.347 Y116.663 F9600.000
G1 E1.31269 F1200.00000
G92 E0
G1 X118.000 Y106.824 F9600.000
G1 E1.00000 F1200.00000
G1 X117.471 Y106.774 E1.02124 F1350.000
G1 X116.960 Y106.626 E1.04248
G1 X116.486 Y106.384 E1.06375
G1 X116.068 Y106.058 E1.08496
G1 X115.825 Y105.799 E1.09913
G1 X115.611 Y105.504 E1.11368
G1 X115.374 Y105.040 E1.13453
G1 X115.226 Y104.529 E1.15577
G1 X115.176 Y104.000 E1.17701
G1 X115.226 Y103.471 E1.19825
G1 X115.374 Y102.960 E1.21949
G1 X115.616 Y102.487 E1.24073
G1 X115.941 Y102.067 E1.26197
G1 X116.340 Y101.715 E1.28321
G1 X116.798 Y101.445 E1.30445
G1 X117.288 Y101.268 E1.32530
G1 X117.646 Y101.200 E1.33984
G1 X118.000 Y101.177 E1.35402 F1350.000
G1 X118.528 Y101.226 E1.37522
G1 X119.040 Y101.374 E1.39650
G1 X119.513 Y101.616 E1.41774
G1 X119.925 Y101.935 E1.43858
G1 X120.175 Y102.201 E1.45314
G1 X120.389 Y102.496 E1.46769
G1 X120.626 Y102.960 E1.48854
G1 X120.774 Y103.471 E1.50978
G1 X120.824 Y104.000 E1.53102
G1 X120.774 Y104.529 E1.55226
G1 X120.626 Y105.040 E1.57350
G1 X120.389 Y105.504 E1.59435
G1 X120.175 Y105.799 E1.60891
G1 X119.925 Y106.065 E1.62346
G1 X119.513 Y106.384 E1.64431
G1 X119.040 Y106.626 E1.66555
G1 X118.529 Y106.774 E1.68679
G1 X118.045 Y106.820 E1.70624
G1 X118.000 Y106.426 F9600.000
G1 X117.545 Y106.383 E1.72448 F1350.000
G1 X117.107 Y106.256 E1.74273
G1 X116.700 Y106.048 E1.76099
G1 X116.336 Y105.764 E1.77944
G1 X116.131 Y105.546 E1.79139
G1 X115.950 Y105.297 E1.80370
G1 X115.744 Y104.893 E1.82181
G1 X115.617 Y104.455 E1.84005
G1 X115.574 Y104.000 E1.85830
G1 X115.617 Y103.545 E1.87654
G1 X115.744 Y103.107 E1.89479
G1 X115.952 Y102.700 E1.91304
G1 X116.232 Y102.339 E1.93128
G1 X116.574 Y102.037 E1.94953
G1 X116.967 Y101.805 E1.96778
G1 X117.393 Y101.651 E1.98588
G1 X117.696 Y101.594 E1.99819
G1 X117.995 Y101.575 E2.01014 F1350.000
G1 X118.454 Y101.617 E2.02859
G1 X118.893 Y101.744 E2.04685
G1 X119.300 Y101.952 E2.06510
G1 X119.658 Y102.229 E2.08320
G1 X119.869 Y102.454 E2.09552
G1 X120.050 Y102.703 E2.10783
G1 X120.256 Y103.107 E2.12593
G1 X120.383 Y103.545 E2.14418
G1 X120.426 Y104.000 E2.16243
G1 X120.383 Y104.455 E2.18067
G1 X120.256 Y104.893 E2.19892
G1 X120.050 Y105.297 E2.21702
G1 X119.869 Y105.546 E2.22934
G1 X119.658 Y105.771 E2.24165
G1 X119.300 Y106.048 E2.25975
G1 X118.893 Y106.256 E2.27800
G1 X118.455 Y106.383 E2.29625
G1 X118.045 Y106.422 E2.31269
G1 X117.842 Y106.681 F9600.000
G1 E1.31269 F1200.00000
G92 E0
G1 X109.513 Y121.616 F9600.000
G1 E1.00000 F1200.00000
G1 X109.925 Y121.935 E1.02085 F1350.000
G1 X110.175 Y122.201 E1.03540
G1 X110.389 Y122.495 E1.04996
G1 X110.626 Y122.960 E1.07081
G1 X110.774 Y123.471 E1.09205
G1 X110.824 Y124.000 E1.11329
G1 X110.774 Y124.529 E1.13453
G1 X110.626 Y125.040 E1.15577
G1 X110.384 Y125.514 E1.17704
G1 X110.058 Y125.932 E1.19824
G1 X109.799 Y126.175 E1.21242
G1 X109.504 Y126.389 E1.22696
G1 X109.040 Y126.626 E1.24781
G1 X108.529 Y126.774 E1.26905
G1 X108.000 Y126.824 E1.29029
G1 X107.471 Y126.774 E1.31153
G1 X106.960 Y126.626 E1.33278
G1 X106.495 Y126.389 E1.35362
G1 X106.201 Y126.175 E1.36818
G1 X105.935 Y125.925 E1.38273
G1 X105.616 Y125.513 E1.40358
G1 X105.374 Y125.040 E1.42482
G1 X105.226 Y124.529 E1.44606
G1 X105.176 Y124.000 E1.46730
G1 X105.226 Y123.471 E1.48854
G1 X105.374 Y122.960 E1.50978
G1 X105.616 Y122.487 E1.53102
G1 X105.941 Y122.067 E1.55227
G1 X106.340 Y121.715 E1.57350
G1 X106.798 Y121.445 E1.59474
G1 X107.288 Y121.268 E1.61559
G1 X107.646 Y121.200 E1.63014
G1 X108.000 Y121.177 E1.64432 F1350.000
G1 X108.528 Y121.226 E1.66552
G1 X109.040 Y121.374 E1.68679
G1 X109.473 Y121.595 E1.70623
G1 X109.300 Y121.952 F9600.000
G1 X109.658 Y122.229 E1.72434 F1350.000
G1 X109.869 Y122.454 E1.73665
G1 X110.050 Y122.703 E1.74896
G1 X110.256 Y123.107 E1.76707
G1 X110.383 Y123.545 E1.78531
G1 X110.426 Y124.000 E1.80356
G1 X110.383 Y124.455 E1.82180
G1 X110.256 Y124.893 E1.84005
G1 X110.048 Y125.300 E1.85831
G1 X109.764 Y125.664 E1.87676
G1 X109.546 Y125.869 E1.88872
G1 X109.297 Y126.050 E1.90102
G1 X108.893 Y126.256 E1.91913
G1 X108.455 Y126.383 E1.93738
G1 X108.000 Y126.426 E1.95562
G1 X107.545 Y126.383 E1.97387
G1 X107.107 Y126.256 E1.99211
G1 X106.703 Y126.050 E2.01022
G1 X106.454 Y125.869 E2.02253
G1 X106.229 Y125.658 E2.03484
G1 X105.952 Y125.300 E2.05295
G1 X105.744 Y124.893 E2.07119
G1 X105.617 Y124.455 E2.08944
G1 X105.574 Y124.000 E2.10769
G1 X105.617 Y123.545 E2.12593
G1 X105.744 Y123.107 E2.14418
G1 X105.952 Y122.700 E2.16242
G1 X106.232 Y122.339 E2.18067
G1 X106.574 Y122.037 E2.19892
G1 X106.967 Y121.805 E2.21716
G1 X107.393 Y121.651 E2.23527
G1 X107.696 Y121.594 E2.24758
G1 X107.995 Y121.575 E2.25953 F1350.000
G1 X108.454 Y121.617 E2.27798
G1 X108.893 Y121.744 E2.29624
G1 X109.260 Y121.931 E2.31269
G1 X109.570 Y121.821 F9600.000
G1 E1.31269 F1200.00000
G92 E0
G1 X100.774 Y123.471 F9600.000
G1 E1.00000 F1200.00000
G1 X100.824 Y124.000 E1.02124 F1350.000
G1 X100.774 Y124.529 E1.04248
G1 X100.626 Y125.040 E1.06372
G1 X100.384 Y125.513 E1.08496
G1 X100.065 Y125.925 E1.10581
G1 X99.799 Y126.175 E1.12036
G1 X99.504 Y126.389 E1.13492
G1 X99.040 Y126.626 E1.15577
G1 X98.529 Y126.774 E1.17701
G1 X98.000 Y126.824 E1.19825
G1 X97.471 Y126.774 E1.21949
G1 X96.960 Y126.626 E1.24073
G1 X96.496 Y126.389 E1.26158
G1 X96.201 Y126.175 E1.27613
G1 X95.935 Y125.925 E1.29069
G1 X95.616 Y125.513 E1.31154
G1 X95.374 Y125.040 E1.33278
G1 X95.226 Y124.529 E1.35402
G1 X95.176 Y124.000 E1.37526
G1 X95.226 Y123.471 E1.39650
G1 X95.374 Y122.960 E1.41774
G1 X95.616 Y122.487 E1.43898
G1 X95.941 Y122.067 E1.46022
G1 X96.340 Y121.715 E1.48146
G1 X96.798 Y121.445 E1.50270
G1 X97.288 Y121.268 E1.52355
G1 X97.646 Y121.200 E1.53809
G1 X98.000 Y121.177 E1.55227 F1350.000
G1 X98.528 Y121.226 E1.57347
G1 X99.040 Y121.374 E1.59475
G1 X99.513 Y121.616 E1.61599
G1 X99.934 Y121.942 E1.63726
G1 X100.284 Y122.341 E1.65846
G1 X100.474 Y122.640 E1.67264
G1 X100.629 Y122.970 E1.68718
G1 X100.762 Y123.428 E1.70624
G1 X100.383 Y123.545 F9600.000
G1 X100.426 Y124.000 E1.72448 F1350.000
G1 X100.383 Y124.455 E1.74273
G1 X100.256 Y124.893 E1.76097
G1 X100.048 Y125.300 E1.77922
G1 X99.771 Y125.658 E1.79732
G1 X99.546 Y125.869 E1.80964
G1 X99.297 Y126.050 E1.82195
G1 X98.893 Y126.256 E1.84005
G1 X98.455 Y126.383 E1.85830
G1 X98.000 Y126.426 E1.87655
G1 X97.545 Y126.383 E1.89479
G1 X97.107 Y126.256 E1.91304
G1 X96.703 Y126.050 E1.93114
G1 X96.454 Y125.869 E1.94346
G1 X96.229 Y125.658 E1.95577
G1 X95.952 Y125.300 E1.97387
G1 X95.744 Y124.893 E1.99212
G1 X95.617 Y124.455 E2.01037
G1 X95.574 Y124.000 E2.02861
G1 X95.617 Y123.545 E2.04686
G1 X95.744 Y123.107 E2.06510
G1 X95.952 Y122.700 E2.08335
G1 X96.232 Y122.339 E2.10160
G1 X96.574 Y122.037 E2.11984
G1 X96.967 Y121.805 E2.13809
G1 X97.393 Y121.651 E2.15619
G1 X97.696 Y121.594 E2.16850
G1 X97.995 Y121.575 E2.18046 F1350.000
G1 X98.454 Y121.617 E2.19891
G1 X98.893 Y121.744 E2.21717
G1 X99.300 Y121.952 E2.23541
G1 X99.661 Y122.232 E2.25367
G1 X99.965 Y122.579 E2.27212
G1 X100.125 Y122.832 E2.28408
G1 X100.257 Y123.110 E2.29639
G1 X100.370 Y123.502 E2.31269
G1 X100.663 Y123.653 F9600.000
G1 E1.31269 F1200.00000
G92 E0
G1 X90.824 Y124.000 F9600.000
G1 E1.00000 F1200.00000
G1 X90.774 Y124.529 E1.02124 F1350.000
G1 X90.626 Y125.040 E1.04248
G1 X90.384 Y125.513 E1.06372
G1 X90.065 Y125.925 E1.08457
G1 X89.799 Y126.175 E1.09913
G1 X89.504 Y126.389 E1.11368
G1 X89.040 Y126.626 E1.13453
G1 X88.529 Y126.774 E1.15577
G1 X88.000 Y126.824 E1.17701
G1 X87.471 Y126.774 E1.19825
G1 X86.960 Y126.626 E1.21949
G1 X86.495 Y126.389 E1.24034
G1 X86.201 Y126.175 E1.25489
G1 X85.935 Y125.925 E1.26945
G1 X85.616 Y125.513 E1.29030
G1 X85.374 Y125.040 E1.31154
G1 X85.226 Y124.529 E1.33278
G1 X85.176 Y124.000 E1.35402
G1 X85.226 Y123.471 E1.37526
G1 X85.374 Y122.960 E1.39650
G1 X85.616 Y122.487 E1.41774
G1 X85.941 Y122.067 E1.43898
G1 X86.340 Y121.715 E1.46022
G1 X86.798 Y121.445 E1.48146
G1 X87.288 Y121.268 E1.50231
G1 X87.646 Y121.200 E1.51685
G1 X88.000 Y121.177 E1.53104 F1350.000
G1 X88.528 Y121.226 E1.55224
G1 X89.040 Y121.374 E1.57351
G1 X89.513 Y121.616 E1.59475
G1 X89.925 Y121.935 E1.61560
G1 X90.175 Y122.201 E1.63015
G1 X90.389 Y122.496 E1.64471
G1 X90.626 Y122.960 E1.66555
G1 X90.774 Y123.471 E1.68680
G1 X90.820 Y123.955 E1.70624
G1 X90.426 Y124.000 F9600.000
G1 X90.383 Y124.455 E1.72448 F1350.000
G1 X90.256 Y124.893 E1.74273
