; generated by Slic3r 1.2.9 on 2016-04-05 at 18:18:01

; H1_0.30
; H11_0.25
; H12_0.45
; H13_0.25
; H14_0.45
; H15_False
; H5_True
; H51_True
; H52_0
; H53_0
; H54_1.50
; H6_False
; H4_5
; H3_60
; H2_QUJTLUZEUGxhc3QtMjQw
; H31_False
; H32_1.00
; H33_True
; H34_70
; H35_1.50
; H36_False
; H37_True
; H23_240
; H22_240
; H25_110
; H24_115
; H21_0.97
; H26_1400.00
; H27_1
; H7_0

; external perimeters extrusion width = 0.45mm
; perimeters extrusion width = 0.45mm
; infill extrusion width = 0.45mm
; solid infill extrusion width = 0.45mm
; top infill extrusion width = 0.30mm
; support material extrusion width = 0.45mm

M107
M85 S600
M104 S200
M190 S115
M109 S240
G28
G90
G1 X20 Y0 F10000
G21 ; set units to millimeters
G90 ; use absolute coordinates
M82 ; use absolute distances for extrusion
G92 E0
G1 Z0.250 F9600.000
G1 E-1.00000 F1200.00000
G92 E0
G1 X62.071 Y62.071 F9600.000
G1 E1.00000 F1200.00000
G1 X62.303 Y61.839 E1.01311 F1800.000
G1 X63.043 Y61.229 E1.05143
G1 X63.583 Y60.866 E1.07743
G1 X64.431 Y60.406 E1.11600
G1 X65.049 Y60.146 E1.14278
G1 X65.989 Y59.856 E1.18210
G1 X66.650 Y59.722 E1.20904
G1 X67.660 Y59.621 E1.24960
G1 X68.000 Y59.604 E1.26320
G1 X118.000 Y59.604 E3.26120
G1 X118.340 Y59.621 E3.27480
G1 X119.350 Y59.722 E3.31536 F1800.000
G1 X120.011 Y59.856 E3.34230
G1 X120.951 Y60.146 E3.38162
G1 X121.569 Y60.406 E3.40840
G1 X122.417 Y60.866 E3.44697
G1 X122.957 Y61.229 E3.47297
G1 X123.697 Y61.839 E3.51129
G1 X124.161 Y62.303 E3.53751
G1 X124.771 Y63.043 E3.57583
G1 X125.134 Y63.583 E3.60183
G1 X125.594 Y64.431 E3.64040
G1 X125.854 Y65.049 E3.66718
G1 X126.144 Y65.989 E3.70650
G1 X126.278 Y66.650 E3.73344
G1 X126.379 Y67.660 E3.77400
G1 X126.396 Y68.000 E3.78760
G1 X126.396 Y88.000 E4.58680
G1 X126.379 Y88.340 E4.60040
G1 X126.278 Y89.350 E4.64096
G1 X126.144 Y90.011 E4.66790
G1 X125.854 Y90.951 E4.70723
G1 X125.595 Y91.567 E4.73393
G1 X125.135 Y92.417 E4.77255
G1 X124.769 Y92.960 E4.79871
G1 X124.160 Y93.699 E4.83699
G1 X123.698 Y94.161 E4.86311
G1 X122.957 Y94.771 E4.90142
G1 X122.417 Y95.134 E4.92744
G1 X121.569 Y95.594 E4.96601
G1 X120.951 Y95.854 E4.99278
G1 X120.011 Y96.144 E5.03210
G1 X119.420 Y96.270 E5.05622
G1 X107.083 Y97.773 E5.55285
G1 X106.673 Y97.798 E5.56930
G1 X79.185 Y97.798 E6.66769
G1 X78.770 Y97.772 E6.68432
G1 X66.575 Y96.269 E7.17532
G1 X65.989 Y96.144 E7.19925
G1 X65.049 Y95.854 E7.23858
G1 X64.433 Y95.595 E7.26527
G1 X63.583 Y95.135 E7.30388
G1 X63.040 Y94.769 E7.33006
G1 X62.301 Y94.160 E7.36834
G1 X61.840 Y93.699 E7.39437
G1 X61.231 Y92.960 E7.43265
G1 X60.865 Y92.417 E7.45882
G1 X60.405 Y91.567 E7.49742
G1 X60.146 Y90.951 E7.52413
G1 X59.856 Y90.011 E7.56346
G1 X59.722 Y89.350 E7.59040
G1 X59.621 Y88.340 E7.63096
G1 X59.604 Y88.000 E7.64456
G1 X59.604 Y68.000 E8.44376
G1 X59.621 Y67.660 E8.45736
G1 X59.722 Y66.650 E8.49792
G1 X59.856 Y65.989 E8.52486
G1 X60.146 Y65.049 E8.56418
G1 X60.406 Y64.431 E8.59096
G1 X60.866 Y63.583 E8.62953
G1 X61.229 Y63.043 E8.65553
G1 X61.839 Y62.303 E8.69385
G1 X62.039 Y62.102 E8.70516
G1 E7.70516 F1200.00000
G92 E0
G1 X118.529 Y90.774 F9600.000
G1 E1.00000 F1200.00000
G1 X118.000 Y90.824 E1.02124 F1800.000
G1 X117.471 Y90.774 E1.04248
G1 X116.960 Y90.626 E1.06372
G1 X116.486 Y90.384 E1.08499
G1 X116.068 Y90.058 E1.10620
G1 X115.825 Y89.799 E1.12037
G1 X115.611 Y89.504 E1.13492
G1 X115.374 Y89.040 E1.15577
G1 X115.226 Y88.529 E1.17700
G1 X115.176 Y88.000 E1.19825
G1 X115.226 Y87.471 E1.21949
G1 X115.374 Y86.960 E1.24073
G1 X115.616 Y86.487 E1.26197
G1 X115.941 Y86.067 E1.28321
G1 X116.340 Y85.715 E1.30445
G1 X116.798 Y85.445 E1.32569
G1 X117.288 Y85.268 E1.34654
G1 X117.646 Y85.200 E1.36108
G1 X118.000 Y85.177 E1.37526 F1800.000
G1 X118.528 Y85.226 E1.39646
G1 X119.040 Y85.374 E1.41773
G1 X119.513 Y85.616 E1.43897
G1 X119.925 Y85.935 E1.45982
G1 X120.175 Y86.201 E1.47438
G1 X120.389 Y86.496 E1.48893
G1 X120.626 Y86.960 E1.50978
G1 X120.774 Y87.471 E1.53102
G1 X120.824 Y88.000 E1.55226
G1 X120.774 Y88.529 E1.57350
G1 X120.626 Y89.040 E1.59474
G1 X120.389 Y89.504 E1.61559
G1 X120.175 Y89.799 E1.63015
G1 X119.925 Y90.065 E1.64470
G1 X119.513 Y90.384 E1.66555
G1 X119.040 Y90.626 E1.68679
G1 X118.572 Y90.762 E1.70624
G1 X118.455 Y90.383 F9600.000
G1 X118.000 Y90.426 E1.72448 F1800.000
G1 X117.545 Y90.383 E1.74272
G1 X117.107 Y90.256 E1.76097
G1 X116.700 Y90.048 E1.77923
G1 X116.336 Y89.764 E1.79768
G1 X116.131 Y89.546 E1.80964
G1 X115.950 Y89.297 E1.82195
G1 X115.744 Y88.893 E1.84005
G1 X115.617 Y88.455 E1.85830
G1 X115.574 Y88.000 E1.87654
G1 X115.617 Y87.545 E1.89479
G1 X115.744 Y87.107 E1.91303
G1 X115.952 Y86.700 E1.93128
G1 X116.232 Y86.339 E1.94953
G1 X116.574 Y86.037 E1.96777
G1 X116.967 Y85.805 E1.98602
G1 X117.393 Y85.651 E2.00412
G1 X117.696 Y85.594 E2.01643
G1 X117.995 Y85.575 E2.02839 F1800.000
G1 X118.454 Y85.617 E2.04684
G1 X118.893 Y85.744 E2.06510
G1 X119.300 Y85.952 E2.08334
G1 X119.658 Y86.229 E2.10145
G1 X119.869 Y86.454 E2.11376
G1 X120.050 Y86.703 E2.12607
G1 X120.256 Y87.107 E2.14418
G1 X120.383 Y87.545 E2.16242
G1 X120.426 Y88.000 E2.18067
G1 X120.383 Y88.455 E2.19892
G1 X120.256 Y88.893 E2.21716
G1 X120.050 Y89.297 E2.23527
G1 X119.869 Y89.546 E2.24758
G1 X119.658 Y89.771 E2.25989
G1 X119.300 Y90.048 E2.27800
G1 X118.893 Y90.256 E2.29624
G1 X118.498 Y90.370 E2.31269
G1 X118.347 Y90.663 F9600.000
G1 E1.31269 F1200.00000
G92 E0
G1 X118.000 Y80.824 F9600.000
G1 E1.00000 F1200.00000
G1 X117.471 Y80.774 E1.02124 F1800.000
G1 X116.960 Y80.626 E1.04248
G1 X116.486 Y80.384 E1.06375
G1 X116.068 Y80.058 E1.08496
G1 X115.825 Y79.799 E1.09914
G1 X115.611 Y79.504 E1.11368
G1 X115.374 Y79.040 E1.13453
G1 X115.226 Y78.529 E1.15577
G1 X115.176 Y78.000 E1.17701
G1 X115.226 Y77.471 E1.19825
G1 X115.374 Y76.960 E1.21949
G1 X115.616 Y76.487 E1.24073
G1 X115.941 Y76.067 E1.26197
G1 X116.340 Y75.715 E1.28321
G1 X116.798 Y75.445 E1.30445
G1 X117.288 Y75.268 E1.32530
G1 X117.646 Y75.200 E1.33984
G1 X118.000 Y75.177 E1.35402 F1800.000
G1 X118.528 Y75.226 E1.37522
G1 X119.040 Y75.374 E1.39650
G1 X119.513 Y75.616 E1.41774
G1 X119.925 Y75.935 E1.43858
G1 X120.175 Y76.201 E1.45314
G1 X120.389 Y76.496 E1.46769
G1 X120.626 Y76.960 E1.48854
G1 X120.774 Y77.471 E1.50978
G1 X120.824 Y78.000 E1.53102
G1 X120.774 Y78.529 E1.55226
G1 X120.626 Y79.040 E1.57350
G1 X120.389 Y79.504 E1.59435
G1 X120.175 Y79.799 E1.60891
G1 X119.925 Y80.065 E1.62346
G1 X119.513 Y80.384 E1.64431
G1 X119.040 Y80.626 E1.66555
G1 X118.529 Y80.774 E1.68679
G1 X118.045 Y80.820 E1.70624
G1 X118.000 Y80.426 F9600.000
G1 X117.545 Y80.383 E1.72448 F1800.000
G1 X117.107 Y80.256 E1.74273
G1 X116.700 Y80.048 E1.76099
G1 X116.336 Y79.764 E1.77944
G1 X116.131 Y79.546 E1.79139
G1 X115.950 Y79.297 E1.80370
G1 X115.744 Y78.893 E1.82181
G1 X115.617 Y78.455 E1.84005
G1 X115.574 Y78.000 E1.85830
G1 X115.617 Y77.545 E1.87654
G1 X115.744 Y77.107 E1.89479
G1 X115.952 Y76.700 E1.91304
G1 X116.232 Y76.339 E1.93128
G1 X116.574 Y76.037 E1.94953
G1 X116.967 Y75.805 E1.96777
G1 X117.393 Y75.651 E1.98588
G1 X117.696 Y75.594 E1.99819
G1 X117.995 Y75.575 E2.01015 F1800.000
G1 X118.454 Y75.617 E2.02859
G1 X118.893 Y75.744 E2.04685
G1 X119.300 Y75.952 E2.06510
G1 X119.658 Y76.229 E2.08320
G1 X119.869 Y76.454 E2.09552
G1 X120.050 Y76.703 E2.10783
G1 X120.256 Y77.107 E2.12593
G1 X120.383 Y77.545 E2.14418
G1 X120.426 Y78.000 E2.16243
G1 X120.383 Y78.455 E2.18067
G1 X120.256 Y78.893 E2.19892
G1 X120.050 Y79.297 E2.21702
G1 X119.869 Y79.546 E2.22933
G1 X119.658 Y79.771 E2.24165
G1 X119.300 Y80.048 E2.25975
G1 X118.893 Y80.256 E2.27800
G1 X118.455 Y80.383 E2.29625
G1 X118.045 Y80.422 E2.31269
G1 X117.842 Y80.681 F9600.000
G1 E1.31269 F1200.00000
G92 E0
G1 X118.000 Y70.824 F9600.000
G1 E1.00000 F1200.00000
G1 X117.471 Y70.774 E1.02124 F1800.000
G1 X116.960 Y70.626 E1.04248
G1 X116.495 Y70.389 E1.06333
G1 X116.201 Y70.175 E1.07788
G1 X115.935 Y69.925 E1.09244
G1 X115.616 Y69.513 E1.11329
G1 X115.374 Y69.040 E1.13453
G1 X115.226 Y68.529 E1.15577
G1 X115.176 Y68.000 E1.17701
G1 X115.226 Y67.471 E1.19825
G1 X115.374 Y66.960 E1.21949
G1 X115.616 Y66.487 E1.24073
G1 X115.941 Y66.067 E1.26197
G1 X116.340 Y65.715 E1.28321
G1 X116.798 Y65.445 E1.30445
G1 X117.288 Y65.268 E1.32530
G1 X117.646 Y65.200 E1.33984
G1 X118.000 Y65.177 E1.35402 F1800.000
G1 X118.528 Y65.226 E1.37522
G1 X119.040 Y65.374 E1.39650
G1 X119.513 Y65.616 E1.41774
G1 X119.925 Y65.935 E1.43859
G1 X120.175 Y66.201 E1.45314
G1 X120.389 Y66.496 E1.46769
G1 X120.626 Y66.960 E1.48854
G1 X120.774 Y67.471 E1.50979
G1 X120.824 Y68.000 E1.53102
G1 X120.774 Y68.529 E1.55226
G1 X120.626 Y69.040 E1.57351
G1 X120.389 Y69.504 E1.59435
G1 X120.175 Y69.799 E1.60891
G1 X119.925 Y70.065 E1.62346
G1 X119.513 Y70.384 E1.64431
G1 X119.040 Y70.626 E1.66555
G1 X118.529 Y70.774 E1.68679
G1 X118.045 Y70.820 E1.70624
G1 X118.000 Y70.426 F9600.000
G1 X117.545 Y70.383 E1.72448 F1800.000
G1 X117.107 Y70.256 E1.74273
G1 X116.703 Y70.050 E1.76083
G1 X116.454 Y69.869 E1.77314
G1 X116.229 Y69.658 E1.78546
G1 X115.952 Y69.300 E1.80356
G1 X115.744 Y68.893 E1.82181
G1 X115.617 Y68.455 E1.84006
G1 X115.574 Y68.000 E1.85830
G1 X115.617 Y67.545 E1.87654
G1 X115.744 Y67.107 E1.89479
G1 X115.952 Y66.700 E1.91304
G1 X116.232 Y66.339 E1.93128
G1 X116.574 Y66.037 E1.94953
G1 X116.967 Y65.805 E1.96778
G1 X117.393 Y65.651 E1.98588
G1 X117.696 Y65.594 E1.99819
G1 X117.995 Y65.575 E2.01015 F1800.000
G1 X118.454 Y65.617 E2.02860
G1 X118.893 Y65.744 E2.04686
G1 X119.300 Y65.952 E2.06510
G1 X119.658 Y66.229 E2.08321
G1 X119.869 Y66.454 E2.09552
G1 X120.050 Y66.703 E2.10783
G1 X120.256 Y67.107 E2.12593
G1 X120.383 Y67.545 E2.14418
G1 X120.426 Y68.000 E2.16243
G1 X120.383 Y68.455 E2.18067
G1 X120.256 Y68.893 E2.19892
G1 X120.050 Y69.297 E2.21702
G1 X119.869 Y69.546 E2.22934
G1 X119.658 Y69.771 E2.24165
G1 X119.300 Y70.048 E2.25975
G1 X118.893 Y70.256 E2.27800
G1 X118.455 Y70.383 E2.29625
G1 X118.045 Y70.422 E2.31269
G1 X117.842 Y70.681 F9600.000
G1 E1.31269 F1200.00000
G92 E0
G1 X110.774 Y68.529 F9600.000
G1 E1.00000 F1200.00000
G1 X110.626 Y69.040 E1.02124 F1800.000
G1 X110.384 Y69.514 E1.04252
G1 X110.058 Y69.932 E1.06372
G1 X109.799 Y70.175 E1.07790
G1 X109.504 Y70.389 E1.09244
G1 X109.040 Y70.626 E1.11329
G1 X108.529 Y70.774 E1.13453
G1 X108.000 Y70.824 E1.15577
G1 X107.471 Y70.774 E1.17701
G1 X106.960 Y70.626 E1.19825
G1 X106.495 Y70.389 E1.21910
G1 X106.201 Y70.175 E1.23365
G1 X105.935 Y69.925 E1.24821
G1 X105.616 Y69.513 E1.26905
G1 X105.374 Y69.040 E1.29030
G1 X105.226 Y68.529 E1.31154
G1 X105.176 Y68.000 E1.33278
G1 X105.226 Y67.471 E1.35402
G1 X105.374 Y66.960 E1.37526
G1 X105.616 Y66.487 E1.39650
G1 X105.941 Y66.067 E1.41774
G1 X106.340 Y65.715 E1.43898
G1 X106.798 Y65.445 E1.46022
G1 X107.288 Y65.268 E1.48106
G1 X107.646 Y65.200 E1.49561
G1 X108.000 Y65.177 E1.50979 F1800.000
G1 X108.528 Y65.226 E1.53099
G1 X109.040 Y65.374 E1.55227
G1 X109.513 Y65.616 E1.57351
G1 X109.925 Y65.935 E1.59435
G1 X110.175 Y66.201 E1.60891
G1 X110.389 Y66.496 E1.62346
G1 X110.626 Y66.960 E1.64431
G1 X110.774 Y67.471 E1.66555
G1 X110.824 Y68.000 E1.68679
G1 X110.778 Y68.484 E1.70623
G1 X110.383 Y68.455 F9600.000
G1 X110.256 Y68.893 E1.72448 F1800.000
G1 X110.048 Y69.300 E1.74274
G1 X109.764 Y69.664 E1.76119
G1 X109.546 Y69.869 E1.77315
G1 X109.297 Y70.050 E1.78545
G1 X108.893 Y70.256 E1.80356
G1 X108.455 Y70.383 E1.82181
G1 X108.000 Y70.426 E1.84005
G1 X107.545 Y70.383 E1.85830
G1 X107.107 Y70.256 E1.87654
G1 X106.703 Y70.050 E1.89465
G1 X106.454 Y69.869 E1.90696
G1 X106.229 Y69.658 E1.91927
G1 X105.952 Y69.300 E1.93738
G1 X105.744 Y68.893 E1.95562
G1 X105.617 Y68.455 E1.97387
G1 X105.574 Y68.000 E1.99211
G1 X105.617 Y67.545 E2.01036
G1 X105.744 Y67.107 E2.02861
G1 X105.952 Y66.700 E2.04685
G1 X106.232 Y66.339 E2.06510
G1 X106.574 Y66.037 E2.08335
G1 X106.967 Y65.805 E2.10159
G1 X107.393 Y65.651 E2.11969
G1 X107.696 Y65.594 E2.13201
G1 X107.995 Y65.575 E2.14396 F1800.000
G1 X108.454 Y65.617 E2.16241
G1 X108.893 Y65.744 E2.18067
G1 X109.300 Y65.952 E2.19892
G1 X109.658 Y66.229 E2.21702
G1 X109.869 Y66.454 E2.22933
G1 X110.050 Y66.703 E2.24164
G1 X110.256 Y67.107 E2.25975
G1 X110.383 Y67.545 E2.27800
G1 X110.426 Y68.000 E2.29624
G1 X110.387 Y68.410 E2.31269
G1 X110.604 Y68.658 F9600.000
G1 E1.31269 F1200.00000
G92 E0
G1 X100.824 Y68.000 F9600.000
G1 E1.00000 F1200.00000
G1 X100.774 Y68.529 E1.02124 F1800.000
G1 X100.626 Y69.040 E1.04248
G1 X100.384 Y69.513 E1.06372
G1 X100.065 Y69.925 E1.08457
G1 X99.799 Y70.175 E1.09913
G1 X99.504 Y70.389 E1.11368
G1 X99.040 Y70.626 E1.13453
G1 X98.529 Y70.774 E1.15577
G1 X98.000 Y70.824 E1.17701
G1 X97.471 Y70.774 E1.19825
G1 X96.960 Y70.626 E1.21949
G1 X96.496 Y70.389 E1.24034
G1 X96.201 Y70.175 E1.25489
G1 X95.935 Y69.925 E1.26945
G1 X95.616 Y69.513 E1.29030
G1 X95.374 Y69.040 E1.31154
G1 X95.226 Y68.529 E1.33278
G1 X95.176 Y68.000 E1.35402
G1 X95.226 Y67.471 E1.37526
G1 X95.374 Y66.960 E1.39650
G1 X95.616 Y66.487 E1.41774
G1 X95.941 Y66.067 E1.43898
G1 X96.340 Y65.715 E1.46022
G1 X96.798 Y65.445 E1.48146
G1 X97.288 Y65.268 E1.50231
G1 X97.646 Y65.200 E1.51685
G1 X98.000 Y65.177 E1.53104 F1800.000
G1 X98.528 Y65.226 E1.55224
G1 X99.040 Y65.374 E1.57351
G1 X99.513 Y65.616 E1.59475
G1 X99.934 Y65.942 E1.61602
G1 X100.284 Y66.341 E1.63722
G1 X100.474 Y66.640 E1.65140
G1 X100.629 Y66.970 E1.66595
G1 X100.774 Y67.471 E1.68680
G1 X100.820 Y67.955 E1.70624
G1 X100.426 Y68.000 F9600.000
G1 X100.383 Y68.455 E1.72448 F1800.000
G1 X100.256 Y68.893 E1.74273
G1 X100.048 Y69.300 E1.76097
G1 X99.771 Y69.658 E1.77908
G1 X99.546 Y69.869 E1.79139
G1 X99.297 Y70.050 E1.80370
G1 X98.893 Y70.256 E1.82181
G1 X98.455 Y70.383 E1.84005
G1 X98.000 Y70.426 E1.85830
G1 X97.545 Y70.383 E1.87655
G1 X97.107 Y70.256 E1.89479
G1 X96.703 Y70.050 E1.91290
G1 X96.454 Y69.869 E1.92521
G1 X96.229 Y69.658 E1.93752
G1 X95.952 Y69.300 E1.95563
G1 X95.744 Y68.893 E1.97387
G1 X95.617 Y68.455 E1.99212
G1 X95.574 Y68.000 E2.01037
G1 X95.617 Y67.545 E2.02861
G1 X95.744 Y67.107 E2.04686
G1 X95.952 Y66.700 E2.06510
G1 X96.232 Y66.339 E2.08335
G1 X96.574 Y66.037 E2.10160
G1 X96.967 Y65.805 E2.11984
G1 X97.393 Y65.651 E2.13795
G1 X97.696 Y65.594 E2.15026
G1 X97.995 Y65.575 E2.16221 F1800.000
G1 X98.454 Y65.617 E2.18066
G1 X98.893 Y65.744 E2.19892
G1 X99.300 Y65.952 E2.21717
G1 X99.661 Y66.232 E2.23543
G1 X99.965 Y66.579 E2.25388
G1 X100.125 Y66.832 E2.26583
G1 X100.257 Y67.110 E2.27814
G1 X100.383 Y67.545 E2.29625
G1 X100.422 Y67.955 E2.31269
G1 X100.681 Y68.158 F9600.000
G1 E1.31269 F1200.00000
G92 E0
G1 X90.824 Y68.000 F9600.000
G1 E1.00000 F1200.00000
G1 X90.774 Y68.529 E1.02124 F1800.000
G1 X90.626 Y69.040 E1.04248
G1 X90.384 Y69.513 E1.06372
G1 X90.065 Y69.925 E1.08457
G1 X89.799 Y70.175 E1.09913
G1 X89.504 Y70.389 E1.11368
G1 X89.040 Y70.626 E1.13453
G1 X88.529 Y70.774 E1.15577
G1 X88.000 Y70.824 E1.17701
G1 X87.471 Y70.774 E1.19825
G1 X86.960 Y70.626 E1.21949
G1 X86.496 Y70.389 E1.24034
G1 X86.201 Y70.175 E1.25489
G1 X85.935 Y69.925 E1.26945
G1 X85.616 Y69.513 E1.29030
G1 X85.374 Y69.040 E1.31154
G1 X85.226 Y68.529 E1.33278
G1 X85.176 Y68.000 E1.35402
G1 X85.226 Y67.471 E1.37526
G1 X85.374 Y66.960 E1.39650
G1 X85.616 Y66.487 E1.41774
G1 X85.941 Y66.067 E1.43898
G1 X86.340 Y65.715 E1.46022
G1 X86.798 Y65.445 E1.48146
G1 X87.288 Y65.268 E1.50231
G1 X87.646 Y65.200 E1.51685
G1 X88.000 Y65.177 E1.53104 F1800.000
G1 X88.528 Y65.226 E1.55224
G1 X89.040 Y65.374 E1.57351
G1 X89.513 Y65.616 E1.59475
G1 X89.925 Y65.935 E1.61560
G1 X90.175 Y66.201 E1.63015
G1 X90.389 Y66.496 E1.64471
G1 X90.626 Y66.960 E1.66555
G1 X90.774 Y67.471 E1.68680
G1 X90.820 Y67.955 E1.70624
G1 X90.426 Y68.000 F9600.000
G1 X90.383 Y68.455 E1.72448 F1800.000
G1 X90.256 Y68.893 E1.74273
G1 X90.048 Y69.300 E1.76098
G1 X89.771 Y69.658 E1.77908
G1 X89.546 Y69.869 E1.79139
G1 X89.297 Y70.050 E1.80371
G1 X88.893 Y70.256 E1.82181
G1 X88.455 Y70.383 E1.84006
G1 X88.000 Y70.426 E1.85830
G1 X87.545 Y70.383 E1.87655
G1 X87.107 Y70.256 E1.89480
G1 X86.703 Y70.050 E1.91290
G1 X86.454 Y69.869 E1.92521
G1 X86.229 Y69.658 E1.93753
G1 X85.952 Y69.300 E1.95563
G1 X85.744 Y68.893 E1.97387
G1 X85.617 Y68.455 E1.99212
G1 X85.574 Y68.000 E2.01037
G1 X85.617 Y67.545 E2.02861
