; generated by Slic3r 1.2.9 on 2016-04-05 at 18:11:02

; H1_0.30
; H11_0.25
; H12_0.45
; H13_0.25
; H14_0.45
; H15_False
; H5_True
; H51_True
; H52_0
; H53_0
; H54_1.50
; H6_False
; H4_5
; H3_45
; H2_QUJTLUZEUGxhc3QtMjQw
; H31_False
; H32_1.00
; H33_True
; H34_70
; H35_1.50
; H36_False
; H37_True
; H23_240
; H22_240
; H25_110
; H24_115
; H21_0.97
; H26_1400.00
; H27_1
; H7_0

; external perimeters extrusion width = 0.45mm
; perimeters extrusion width = 0.45mm
; infill extrusion width = 0.45mm
; solid infill extrusion width = 0.45mm
; top infill extrusion width = 0.30mm
; support material extrusion width = 0.45mm

M107
M85 S600
M104 S200
M190 S115
M109 S240
G28
G90
G1 X20 Y0 F10000
G21 ; set units to millimeters
G90 ; use absolute coordinates
M82 ; use absolute distances for extrusion
G92 E0
G1 Z0.250 F9600.000
G1 E-1.00000 F1200.00000
G92 E0
G1 X69.303 Y83.839 F9600.000
G1 E1.00000 F1200.00000
G1 X70.043 Y83.229 E1.03831 F1350.000
G1 X70.583 Y82.866 E1.06432
G1 X71.431 Y82.406 E1.10289
G1 X72.049 Y82.146 E1.12966
G1 X72.989 Y81.856 E1.16899
G1 X73.650 Y81.722 E1.19593
G1 X74.660 Y81.621 E1.23649
G1 X75.000 Y81.604 E1.25009
G1 X125.000 Y81.604 E3.24808
G1 X125.340 Y81.621 E3.26169
G1 X126.350 Y81.722 E3.30224 F1350.000
G1 X127.011 Y81.856 E3.32919
G1 X127.951 Y82.146 E3.36851
G1 X128.569 Y82.406 E3.39529
G1 X129.417 Y82.866 E3.43386
G1 X129.957 Y83.229 E3.45986
G1 X130.697 Y83.839 E3.49818
G1 X131.161 Y84.303 E3.52440
G1 X131.771 Y85.043 E3.56271
G1 X132.134 Y85.583 E3.58872
G1 X132.594 Y86.431 E3.62729
G1 X132.854 Y87.049 E3.65406
G1 X133.144 Y87.989 E3.69339
G1 X133.278 Y88.650 E3.72033
G1 X133.379 Y89.660 E3.76089
G1 X133.396 Y90.000 E3.77449
G1 X133.396 Y110.000 E4.57369
G1 X133.379 Y110.340 E4.58729
G1 X133.278 Y111.350 E4.62785
G1 X133.144 Y112.011 E4.65479
G1 X132.854 Y112.951 E4.69411
G1 X132.595 Y113.567 E4.72082
G1 X132.135 Y114.417 E4.75943
G1 X131.769 Y114.960 E4.78560
G1 X131.160 Y115.699 E4.82388
G1 X130.698 Y116.161 E4.85000
G1 X129.957 Y116.771 E4.88831
G1 X129.417 Y117.134 E4.91433
G1 X128.569 Y117.594 E4.95290
G1 X127.951 Y117.854 E4.97967
G1 X127.011 Y118.144 E5.01899
G1 X126.420 Y118.270 E5.04311
G1 X114.083 Y119.773 E5.53974
G1 X113.673 Y119.798 E5.55618
G1 X86.185 Y119.798 E6.65458
G1 X85.770 Y119.772 E6.67121
G1 X73.575 Y118.269 E7.16221
G1 X72.989 Y118.144 E7.18614
G1 X72.049 Y117.854 E7.22546
G1 X71.433 Y117.595 E7.25216
G1 X70.583 Y117.135 E7.29077
G1 X70.040 Y116.769 E7.31694
G1 X69.301 Y116.160 E7.35523
G1 X68.840 Y115.699 E7.38126
G1 X68.231 Y114.960 E7.41954
G1 X67.865 Y114.417 E7.44571
G1 X67.405 Y113.567 E7.48431
G1 X67.146 Y112.951 E7.51102
G1 X66.856 Y112.011 E7.55035
G1 X66.722 Y111.350 E7.57729
G1 X66.621 Y110.340 E7.61785
G1 X66.604 Y110.000 E7.63145
G1 X66.604 Y90.000 E8.43064
G1 X66.621 Y89.660 E8.44425
G1 X66.722 Y88.650 E8.48480
G1 X66.856 Y87.989 E8.51175
G1 X67.146 Y87.049 E8.55107
G1 X67.406 Y86.431 E8.57785
G1 X67.866 Y85.583 E8.61642
G1 X68.229 Y85.043 E8.64242
G1 X68.839 Y84.303 E8.68074
G1 X69.271 Y83.870 E8.70516
G1 E7.70516 F1200.00000
G92 E0
G1 X125.529 Y112.774 F9600.000
G1 E1.00000 F1200.00000
G1 X125.000 Y112.824 E1.02124 F1350.000
G1 X124.471 Y112.774 E1.04248
G1 X123.960 Y112.626 E1.06372
G1 X123.486 Y112.384 E1.08499
G1 X123.068 Y112.058 E1.10620
G1 X122.825 Y111.799 E1.12037
G1 X122.611 Y111.504 E1.13492
G1 X122.374 Y111.040 E1.15577
G1 X122.226 Y110.529 E1.17700
G1 X122.176 Y110.000 E1.19825
G1 X122.226 Y109.471 E1.21949
G1 X122.374 Y108.960 E1.24073
G1 X122.616 Y108.487 E1.26197
G1 X122.941 Y108.067 E1.28321
G1 X123.340 Y107.715 E1.30445
G1 X123.798 Y107.445 E1.32569
G1 X124.288 Y107.268 E1.34654
G1 X124.646 Y107.200 E1.36108
G1 X125.000 Y107.177 E1.37526 F1350.000
G1 X125.528 Y107.226 E1.39646
G1 X126.040 Y107.374 E1.41773
G1 X126.513 Y107.616 E1.43897
G1 X126.925 Y107.935 E1.45982
G1 X127.175 Y108.201 E1.47438
G1 X127.389 Y108.496 E1.48893
G1 X127.626 Y108.960 E1.50978
G1 X127.774 Y109.471 E1.53102
G1 X127.824 Y110.000 E1.55226
G1 X127.774 Y110.529 E1.57350
G1 X127.626 Y111.040 E1.59474
G1 X127.389 Y111.504 E1.61559
G1 X127.175 Y111.799 E1.63015
G1 X126.925 Y112.065 E1.64470
G1 X126.513 Y112.384 E1.66555
G1 X126.040 Y112.626 E1.68679
G1 X125.572 Y112.762 E1.70624
G1 X125.455 Y112.383 F9600.000
G1 X125.000 Y112.426 E1.72448 F1350.000
G1 X124.545 Y112.383 E1.74272
G1 X124.107 Y112.256 E1.76097
G1 X123.700 Y112.048 E1.77923
G1 X123.336 Y111.764 E1.79768
G1 X123.131 Y111.546 E1.80964
G1 X122.950 Y111.297 E1.82195
G1 X122.744 Y110.893 E1.84005
G1 X122.617 Y110.455 E1.85830
G1 X122.574 Y110.000 E1.87654
G1 X122.617 Y109.545 E1.89479
G1 X122.744 Y109.107 E1.91303
G1 X122.952 Y108.700 E1.93128
G1 X123.232 Y108.339 E1.94953
G1 X123.574 Y108.037 E1.96777
G1 X123.967 Y107.805 E1.98602
G1 X124.393 Y107.651 E2.00412
G1 X124.696 Y107.594 E2.01643
G1 X124.995 Y107.575 E2.02839 F1350.000
G1 X125.454 Y107.617 E2.04684
G1 X125.893 Y107.744 E2.06510
G1 X126.300 Y107.952 E2.08334
G1 X126.658 Y108.229 E2.10145
G1 X126.869 Y108.454 E2.11376
G1 X127.050 Y108.703 E2.12607
G1 X127.256 Y109.107 E2.14418
G1 X127.383 Y109.545 E2.16242
G1 X127.426 Y110.000 E2.18067
G1 X127.383 Y110.455 E2.19892
G1 X127.256 Y110.893 E2.21716
G1 X127.050 Y111.297 E2.23527
G1 X126.869 Y111.546 E2.24758
G1 X126.658 Y111.771 E2.25989
G1 X126.300 Y112.048 E2.27800
G1 X125.893 Y112.256 E2.29624
G1 X125.498 Y112.370 E2.31269
G1 X125.347 Y112.663 F9600.000
G1 E1.31269 F1200.00000
G92 E0
G1 X125.000 Y102.824 F9600.000
G1 E1.00000 F1200.00000
G1 X124.471 Y102.774 E1.02124 F1350.000
G1 X123.960 Y102.626 E1.04248
G1 X123.486 Y102.384 E1.06375
G1 X123.068 Y102.058 E1.08496
G1 X122.825 Y101.799 E1.09914
G1 X122.611 Y101.504 E1.11368
G1 X122.374 Y101.040 E1.13453
G1 X122.226 Y100.529 E1.15577
G1 X122.176 Y100.000 E1.17701
G1 X122.226 Y99.471 E1.19825
G1 X122.374 Y98.960 E1.21949
G1 X122.616 Y98.487 E1.24073
G1 X122.941 Y98.067 E1.26197
G1 X123.340 Y97.715 E1.28321
G1 X123.798 Y97.445 E1.30445
G1 X124.288 Y97.268 E1.32530
G1 X124.646 Y97.200 E1.33984
G1 X125.000 Y97.177 E1.35402 F1350.000
G1 X125.528 Y97.226 E1.37522
G1 X126.040 Y97.374 E1.39650
G1 X126.513 Y97.616 E1.41774
G1 X126.925 Y97.935 E1.43858
G1 X127.175 Y98.201 E1.45314
G1 X127.389 Y98.496 E1.46769
G1 X127.626 Y98.960 E1.48854
G1 X127.774 Y99.471 E1.50978
G1 X127.824 Y100.000 E1.53102
G1 X127.774 Y100.529 E1.55226
G1 X127.626 Y101.040 E1.57350
G1 X127.389 Y101.504 E1.59435
G1 X127.175 Y101.799 E1.60891
G1 X126.925 Y102.065 E1.62346
G1 X126.513 Y102.384 E1.64431
G1 X126.040 Y102.626 E1.66555
G1 X125.529 Y102.774 E1.68680
G1 X125.045 Y102.820 E1.70624
G1 X125.000 Y102.426 F9600.000
G1 X124.545 Y102.383 E1.72448 F1350.000
G1 X124.107 Y102.256 E1.74273
G1 X123.700 Y102.048 E1.76099
G1 X123.336 Y101.764 E1.77944
G1 X123.131 Y101.546 E1.79139
G1 X122.950 Y101.297 E1.80370
G1 X122.744 Y100.893 E1.82181
G1 X122.617 Y100.455 E1.84005
G1 X122.574 Y100.000 E1.85830
G1 X122.617 Y99.545 E1.87654
G1 X122.744 Y99.107 E1.89479
G1 X122.952 Y98.700 E1.91304
G1 X123.232 Y98.339 E1.93128
G1 X123.574 Y98.037 E1.94953
G1 X123.967 Y97.805 E1.96777
G1 X124.393 Y97.651 E1.98588
G1 X124.696 Y97.594 E1.99819
G1 X124.995 Y97.575 E2.01015 F1350.000
G1 X125.454 Y97.617 E2.02859
G1 X125.893 Y97.744 E2.04685
G1 X126.300 Y97.952 E2.06510
G1 X126.658 Y98.229 E2.08320
G1 X126.869 Y98.454 E2.09552
G1 X127.050 Y98.703 E2.10783
G1 X127.256 Y99.107 E2.12593
G1 X127.383 Y99.545 E2.14418
G1 X127.426 Y100.000 E2.16243
G1 X127.383 Y100.455 E2.18067
G1 X127.256 Y100.893 E2.19892
G1 X127.050 Y101.297 E2.21702
G1 X126.869 Y101.546 E2.22933
G1 X126.658 Y101.771 E2.24165
G1 X126.300 Y102.048 E2.25975
G1 X125.893 Y102.256 E2.27800
G1 X125.455 Y102.383 E2.29625
G1 X125.045 Y102.422 E2.31269
G1 X124.842 Y102.681 F9600.000
G1 E1.31269 F1200.00000
G92 E0
G1 X125.000 Y92.824 F9600.000
G1 E1.00000 F1200.00000
G1 X124.471 Y92.774 E1.02124 F1350.000
G1 X123.960 Y92.626 E1.04248
G1 X123.486 Y92.384 E1.06375
G1 X123.068 Y92.058 E1.08496
G1 X122.825 Y91.799 E1.09914
G1 X122.611 Y91.504 E1.11368
G1 X122.374 Y91.040 E1.13453
G1 X122.226 Y90.529 E1.15577
G1 X122.176 Y90.000 E1.17701
G1 X122.226 Y89.471 E1.19825
G1 X122.374 Y88.960 E1.21949
G1 X122.616 Y88.487 E1.24073
G1 X122.941 Y88.067 E1.26197
G1 X123.340 Y87.715 E1.28321
G1 X123.798 Y87.445 E1.30445
G1 X124.288 Y87.268 E1.32529
G1 X124.646 Y87.200 E1.33984
G1 X125.000 Y87.177 E1.35402 F1350.000
G1 X125.528 Y87.226 E1.37522
G1 X126.040 Y87.374 E1.39649
G1 X126.513 Y87.616 E1.41774
G1 X126.925 Y87.935 E1.43858
G1 X127.175 Y88.201 E1.45314
G1 X127.389 Y88.496 E1.46769
G1 X127.626 Y88.960 E1.48854
G1 X127.774 Y89.471 E1.50978
G1 X127.824 Y90.000 E1.53102
G1 X127.774 Y90.529 E1.55226
G1 X127.626 Y91.040 E1.57350
G1 X127.384 Y91.514 E1.59478
G1 X127.058 Y91.932 E1.61598
G1 X126.799 Y92.175 E1.63016
G1 X126.504 Y92.389 E1.64470
G1 X126.040 Y92.626 E1.66555
G1 X125.529 Y92.774 E1.68679
G1 X125.045 Y92.820 E1.70623
G1 X125.000 Y92.426 F9600.000
G1 X124.545 Y92.383 E1.72448 F1350.000
G1 X124.107 Y92.256 E1.74272
G1 X123.700 Y92.048 E1.76098
G1 X123.336 Y91.764 E1.77943
G1 X123.131 Y91.546 E1.79139
G1 X122.950 Y91.297 E1.80370
G1 X122.744 Y90.893 E1.82180
G1 X122.617 Y90.455 E1.84005
G1 X122.574 Y90.000 E1.85829
G1 X122.617 Y89.545 E1.87654
G1 X122.744 Y89.107 E1.89479
G1 X122.952 Y88.700 E1.91303
G1 X123.232 Y88.339 E1.93128
G1 X123.574 Y88.037 E1.94952
G1 X123.967 Y87.805 E1.96777
G1 X124.393 Y87.651 E1.98587
G1 X124.696 Y87.594 E1.99818
G1 X124.995 Y87.575 E2.01014 F1350.000
G1 X125.454 Y87.617 E2.02859
G1 X125.893 Y87.744 E2.04685
G1 X126.300 Y87.952 E2.06509
G1 X126.658 Y88.229 E2.08320
G1 X126.869 Y88.454 E2.09551
G1 X127.050 Y88.703 E2.10782
G1 X127.256 Y89.107 E2.12593
G1 X127.383 Y89.545 E2.14417
G1 X127.426 Y90.000 E2.16242
G1 X127.383 Y90.455 E2.18066
G1 X127.256 Y90.893 E2.19891
G1 X127.048 Y91.300 E2.21717
G1 X126.764 Y91.664 E2.23562
G1 X126.546 Y91.869 E2.24758
G1 X126.297 Y92.050 E2.25988
G1 X125.893 Y92.256 E2.27799
G1 X125.455 Y92.383 E2.29624
G1 X125.045 Y92.422 E2.31268
G1 X124.842 Y92.681 F9600.000
G1 E1.31268 F1200.00000
G92 E0
G1 X117.774 Y90.529 F9600.000
G1 E1.00000 F1200.00000
G1 X117.626 Y91.040 E1.02124 F1350.000
G1 X117.384 Y91.514 E1.04252
G1 X117.058 Y91.932 E1.06372
G1 X116.799 Y92.175 E1.07790
G1 X116.504 Y92.389 E1.09244
G1 X116.040 Y92.626 E1.11329
G1 X115.529 Y92.774 E1.13453
G1 X115.000 Y92.824 E1.15577
G1 X114.471 Y92.774 E1.17701
G1 X113.960 Y92.626 E1.19825
G1 X113.495 Y92.389 E1.21910
G1 X113.201 Y92.175 E1.23365
G1 X112.935 Y91.925 E1.24821
G1 X112.616 Y91.513 E1.26905
G1 X112.374 Y91.040 E1.29030
G1 X112.226 Y90.529 E1.31154
G1 X112.176 Y90.000 E1.33278
G1 X112.226 Y89.471 E1.35402
G1 X112.374 Y88.960 E1.37526
G1 X112.616 Y88.487 E1.39650
G1 X112.941 Y88.067 E1.41774
G1 X113.340 Y87.715 E1.43898
G1 X113.798 Y87.445 E1.46022
G1 X114.288 Y87.268 E1.48106
G1 X114.646 Y87.200 E1.49561
G1 X115.000 Y87.177 E1.50979 F1350.000
G1 X115.528 Y87.226 E1.53099
G1 X116.040 Y87.374 E1.55227
G1 X116.513 Y87.616 E1.57351
G1 X116.925 Y87.935 E1.59435
G1 X117.175 Y88.201 E1.60891
G1 X117.389 Y88.496 E1.62346
G1 X117.626 Y88.960 E1.64431
G1 X117.774 Y89.471 E1.66555
G1 X117.824 Y90.000 E1.68679
G1 X117.778 Y90.484 E1.70623
G1 X117.383 Y90.455 F9600.000
G1 X117.256 Y90.893 E1.72448 F1350.000
G1 X117.048 Y91.300 E1.74274
G1 X116.764 Y91.664 E1.76119
G1 X116.546 Y91.869 E1.77315
G1 X116.297 Y92.050 E1.78545
G1 X115.893 Y92.256 E1.80356
G1 X115.455 Y92.383 E1.82181
G1 X115.000 Y92.426 E1.84005
G1 X114.545 Y92.383 E1.85830
G1 X114.107 Y92.256 E1.87654
G1 X113.703 Y92.050 E1.89465
G1 X113.454 Y91.869 E1.90696
G1 X113.229 Y91.658 E1.91927
G1 X112.952 Y91.300 E1.93738
G1 X112.744 Y90.893 E1.95562
G1 X112.617 Y90.455 E1.97387
G1 X112.574 Y90.000 E1.99211
G1 X112.617 Y89.545 E2.01036
G1 X112.744 Y89.107 E2.02861
G1 X112.952 Y88.700 E2.04685
G1 X113.232 Y88.339 E2.06510
G1 X113.574 Y88.037 E2.08335
G1 X113.967 Y87.805 E2.10159
G1 X114.393 Y87.651 E2.11969
G1 X114.696 Y87.594 E2.13201
G1 X114.995 Y87.575 E2.14396 F1350.000
G1 X115.454 Y87.617 E2.16241
G1 X115.893 Y87.744 E2.18067
G1 X116.300 Y87.952 E2.19892
G1 X116.658 Y88.229 E2.21702
G1 X116.869 Y88.454 E2.22933
G1 X117.050 Y88.703 E2.24164
G1 X117.256 Y89.107 E2.25975
G1 X117.383 Y89.545 E2.27800
G1 X117.426 Y90.000 E2.29624
G1 X117.387 Y90.410 E2.31269
G1 X117.604 Y90.658 F9600.000
G1 E1.31269 F1200.00000
G92 E0
G1 X107.824 Y90.000 F9600.000
G1 E1.00000 F1200.00000
G1 X107.774 Y90.529 E1.02124 F1350.000
G1 X107.626 Y91.040 E1.04248
G1 X107.384 Y91.513 E1.06372
G1 X107.065 Y91.925 E1.08457
G1 X106.799 Y92.175 E1.09913
G1 X106.504 Y92.389 E1.11368
G1 X106.040 Y92.626 E1.13453
G1 X105.529 Y92.774 E1.15577
G1 X105.000 Y92.824 E1.17701
G1 X104.471 Y92.774 E1.19825
G1 X103.960 Y92.626 E1.21949
G1 X103.496 Y92.389 E1.24034
G1 X103.201 Y92.175 E1.25489
G1 X102.935 Y91.925 E1.26945
G1 X102.616 Y91.513 E1.29030
G1 X102.374 Y91.040 E1.31154
G1 X102.226 Y90.529 E1.33278
G1 X102.176 Y90.000 E1.35402
G1 X102.226 Y89.471 E1.37526
G1 X102.374 Y88.960 E1.39650
G1 X102.616 Y88.487 E1.41774
G1 X102.941 Y88.067 E1.43898
G1 X103.340 Y87.715 E1.46022
G1 X103.798 Y87.445 E1.48146
G1 X104.288 Y87.268 E1.50231
G1 X104.646 Y87.200 E1.51685
G1 X105.000 Y87.177 E1.53104 F1350.000
G1 X105.528 Y87.226 E1.55224
G1 X106.040 Y87.374 E1.57351
G1 X106.513 Y87.616 E1.59475
G1 X106.934 Y87.942 E1.61602
G1 X107.284 Y88.341 E1.63722
G1 X107.474 Y88.640 E1.65140
G1 X107.629 Y88.970 E1.66595
G1 X107.774 Y89.471 E1.68680
G1 X107.820 Y89.955 E1.70624
G1 X107.426 Y90.000 F9600.000
G1 X107.383 Y90.455 E1.72448 F1350.000
G1 X107.256 Y90.893 E1.74273
G1 X107.048 Y91.300 E1.76097
G1 X106.771 Y91.658 E1.77908
G1 X106.546 Y91.869 E1.79139
G1 X106.297 Y92.050 E1.80370
G1 X105.893 Y92.256 E1.82181
G1 X105.455 Y92.383 E1.84005
G1 X105.000 Y92.426 E1.85830
G1 X104.545 Y92.383 E1.87655
G1 X104.107 Y92.256 E1.89479
G1 X103.703 Y92.050 E1.91290
G1 X103.454 Y91.869 E1.92521
G1 X103.229 Y91.658 E1.93752
G1 X102.952 Y91.300 E1.95563
G1 X102.744 Y90.893 E1.97387
G1 X102.617 Y90.455 E1.99212
G1 X102.574 Y90.000 E2.01037
G1 X102.617 Y89.545 E2.02861
G1 X102.744 Y89.107 E2.04686
G1 X102.952 Y88.700 E2.06510
G1 X103.232 Y88.339 E2.08335
G1 X103.574 Y88.037 E2.10160
G1 X103.967 Y87.805 E2.11984
G1 X104.393 Y87.651 E2.13795
G1 X104.696 Y87.594 E2.15026
G1 X104.995 Y87.575 E2.16221 F1350.000
G1 X105.454 Y87.617 E2.18066
G1 X105.893 Y87.744 E2.19892
G1 X106.300 Y87.952 E2.21717
G1 X106.661 Y88.232 E2.23543
G1 X106.965 Y88.579 E2.25388
G1 X107.125 Y88.832 E2.26583
G1 X107.257 Y89.110 E2.27814
G1 X107.383 Y89.545 E2.29625
G1 X107.422 Y89.955 E2.31269
G1 X107.681 Y90.158 F9600.000
G1 E1.31269 F1200.00000
G92 E0
G1 X97.824 Y90.000 F9600.000
G1 E1.00000 F1200.00000
G1 X97.774 Y90.529 E1.02124 F1350.000
G1 X97.626 Y91.040 E1.04248
G1 X97.384 Y91.513 E1.06372
G1 X97.065 Y91.925 E1.08457
G1 X96.799 Y92.175 E1.09913
G1 X96.504 Y92.389 E1.11368
G1 X96.040 Y92.626 E1.13453
G1 X95.529 Y92.774 E1.15577
G1 X95.000 Y92.824 E1.17701
G1 X94.471 Y92.774 E1.19825
G1 X93.960 Y92.626 E1.21949
G1 X93.496 Y92.389 E1.24034
G1 X93.201 Y92.175 E1.25489
G1 X92.935 Y91.925 E1.26945
G1 X92.616 Y91.513 E1.29030
G1 X92.374 Y91.040 E1.31154
G1 X92.226 Y90.529 E1.33278
G1 X92.176 Y90.000 E1.35402
G1 X92.226 Y89.471 E1.37526
G1 X92.374 Y88.960 E1.39650
G1 X92.616 Y88.487 E1.41774
G1 X92.941 Y88.067 E1.43898
G1 X93.340 Y87.715 E1.46022
G1 X93.798 Y87.445 E1.48146
G1 X94.288 Y87.268 E1.50231
G1 X94.646 Y87.200 E1.51685
G1 X95.000 Y87.177 E1.53104 F1350.000
G1 X95.528 Y87.226 E1.55224
G1 X96.040 Y87.374 E1.57351
G1 X96.513 Y87.616 E1.59475
G1 X96.925 Y87.935 E1.61560
G1 X97.175 Y88.201 E1.63015
G1 X97.389 Y88.496 E1.64471
G1 X97.626 Y88.960 E1.66555
G1 X97.774 Y89.471 E1.68680
G1 X97.820 Y89.955 E1.70624
G1 X97.426 Y90.000 F9600.000
G1 X97.383 Y90.455 E1.72448 F1350.000
G1 X97.256 Y90.893 E1.74273
G1 X97.048 Y91.300 E1.76098
G1 X96.771 Y91.658 E1.77908
G1 X96.546 Y91.869 E1.79139
G1 X96.297 Y92.050 E1.80371
G1 X95.893 Y92.256 E1.82181
G1 X95.455 Y92.383 E1.84006
G1 X95.000 Y92.426 E1.85830
G1 X94.545 Y92.383 E1.87655
G1 X94.107 Y92.256 E1.89480
G1 X93.703 Y92.050 E1.91290
