; G-Code generated by Simplify3D(R) Version 3.0.0
; мар 16, 2016 at 8:19:57 
; Settings Summary
;   processName,Process1
;   applyToModels,rod_fix-pe0.2,rod_fix-pe0.2(2),rod_fix-pe0.2(3),rod_fix-pe0.2(2)(2),rod_fix-pe0.2(4),rod_fix-pe0.2(2)(3),rod_fix-pe0.2(3)(2),rod_fix-pe0.2(2)(2)(2),rod_fix-pe0.2(5),rod_fix-pe0.2(2)(4),rod_fix-pe0.2(3)(3),rod_fix-pe0.2(2)(2)(3),rod_fix-pe0.2(4)(2),rod_fix-pe0.2(2)(3)(2),rod_fix-pe0.2(3)(2)(2),rod_fix-pe0.2(2)(2)(2)(2)
;   profileName,prusa 1mm (modified)
;   profileVersion,2016-02-16 12:52:21
;   baseProfile,Default
;   printMaterial,PLA
;   printQuality,Medium
;   printExtruders,
;   extruderName,Extruder 1
;   extruderToolheadNumber,0
;   extruderDiameter,0.5
;   extruderAutoWidth,1
;   extruderWidth,0.6
;   extrusionMultiplier,1.01
;   extruderUseRetract,1
;   extruderRetractionDistance,4
;   extruderExtraRestartDistance,-0.2
;   extruderRetractionZLift,0
;   extruderRetractionSpeed,2400
;   extruderUseCoasting,1
;   extruderCoastingDistance,0.2
;   extruderUseWipe,0
;   extruderWipeDistance,5
;   primaryExtruder,0
;   layerHeight,0.2
;   topSolidLayers,3
;   bottomSolidLayers,3
;   perimeterOutlines,1
;   printPerimetersInsideOut,0
;   startPointOption,1
;   startPointOriginX,150
;   startPointOriginY,0
;   startPointOriginZ,120
;   sequentialIslands,0
;   spiralVaseMode,0
;   firstLayerHeightPercentage,85
;   firstLayerWidthPercentage,100
;   firstLayerUnderspeed,0.22
;   useRaft,0
;   raftExtruder,0
;   raftLayers,3
;   raftOffset,3
;   raftSeparationDistance,0.14
;   raftInfill,85
;   disableRaftBaseLayers,0
;   useSkirt,1
;   skirtExtruder,0
;   skirtLayers,1
;   skirtOutlines,8
;   skirtOffset,0
;   usePrimePillar,0
;   primePillarExtruder,999
;   primePillarWidth,12
;   primePillarLocation,7
;   primePillarSpeedMultiplier,1
;   useOozeShield,0
;   oozeShieldExtruder,999
;   oozeShieldOffset,2
;   oozeShieldOutlines,1
;   oozeShieldSidewallShape,1
;   oozeShieldSidewallAngle,30
;   oozeShieldSpeedMultiplier,1
;   infillExtruder,0
;   internalInfillPattern,Wiggle
;   externalInfillPattern,Rectilinear
;   infillPercentage,23
;   outlineOverlapPercentage,15
;   infillExtrusionWidthPercentage,100
;   minInfillLength,5
;   infillLayerInterval,1
;   infillAngles,0
;   overlapInfillAngles,0
;   generateSupport,0
;   supportExtruder,0
;   supportInfillPercentage,80
;   supportExtraInflation,0
;   denseSupportLayers,0
;   denseSupportInfillPercentage,70
;   supportLayerInterval,1
;   supportHorizontalPartOffset,0.3
;   supportUpperSeparationLayers,1
;   supportLowerSeparationLayers,1
;   supportType,0
;   supportGridSpacing,4
;   maxOverhangAngle,45
;   supportAngles,0
;   temperatureName,Extruder 1 Temperature,Heated Bed
;   temperatureNumber,0,1
;   temperatureSetpointCount,2,1
;   temperatureSetpointLayers,1,2,1
;   temperatureSetpointTemperatures,240,225,115
;   temperatureStabilizeAtStartup,1,1
;   temperatureHeatedBed,0,1
;   temperatureRelayBetweenLayers,0,0
;   temperatureRelayBetweenLoops,0,0
;   fanLayers,1
;   fanSpeeds,0
;   blipFanToFullPower,0
;   adjustSpeedForCooling,1
;   minSpeedLayerTime,10
;   minCoolingSpeedSlowdown,20
;   increaseFanForCooling,0
;   minFanLayerTime,45
;   maxCoolingFanSpeed,100
;   increaseFanForBridging,0
;   bridgingFanSpeed,100
;   use5D,1
;   relativeEdistances,0
;   allowEaxisZeroing,1
;   independentExtruderAxes,0
;   includeM10123,0
;   stickySupport,1
;   applyToolheadOffsets,0
;   gcodeXoffset,0
;   gcodeYoffset,0
;   gcodeZoffset,0
;   overrideMachineDefinition,1
;   machineTypeOverride,0
;   strokeXoverride,200
;   strokeYoverride,200
;   strokeZoverride,200
;   originOffsetXoverride,0
;   originOffsetYoverride,0
;   originOffsetZoverride,0
;   homeXdirOverride,-1
;   homeYdirOverride,-1
;   homeZdirOverride,-1
;   flipXoverride,1
;   flipYoverride,-1
;   flipZoverride,1
;   toolheadOffsets,0,0|0,0|0,0|0,0|0,0|0,0
;   overrideFirmwareConfiguration,1
;   firmwareTypeOverride,RepRap (Marlin/Repetier/Sprinter)
;   GPXconfigOverride,r2
;   baudRateOverride,115200
;   overridePrinterModels,0
;   printerModelsOverride
;   startingGcode,G28 ; home all axes
;   layerChangeGcode,
;   retractionGcode,
;   toolChangeGcode,
;   endingGcode,M104 S0 ; turn off extruder,M140 S0 ; turn off bed,G28 X0;,M84 ; disable motors
;   createX3G,0
;   celebration,0
;   celebrationSong,Random Song
;   createMB5G,0
;   postProcessing,
;   defaultSpeed,3600
;   outlineUnderspeed,0.5
;   solidInfillUnderspeed,0.8
;   supportUnderspeed,0.8
;   rapidXYspeed,4800
;   rapidZspeed,1002
;   minBridgingArea,50
;   bridgingExtraInflation,0
;   bridgingExtrusionMultiplier,1
;   bridgingSpeedMultiplier,1
;   filamentDiameter,1.75
;   filamentPricePerKg,46
;   filamentDensity,1.25
;   useMinPrintHeight,0
;   minPrintHeight,0
;   useMaxPrintHeight,0
;   maxPrintHeight,0
;   useDiaphragm,0
;   diaphragmLayerInterval,20
;   robustSlicing,1
;   mergeAllIntoSolid,0
;   onlyRetractWhenCrossingOutline,1
;   retractBetweenLayers,1
;   useRetractionMinTravel,1
;   retractionMinTravel,5
;   retractWhileWiping,0
;   onlyWipeOutlines,1
;   avoidCrossingOutline,1
;   maxMovementDetourFactor,3
;   toolChangeRetractionDistance,12
;   toolChangeExtraRestartDistance,-0.5
;   toolChangeRetractionSpeed,600
;   allowThinWallGapFill,1
;   thinWallAllowedOverlapPercentage,1
;   horizontalSizeCompensation,0
G90
M82
M106 S0
M140 S115
M190 S115
M104 S240 T0
M109 S240 T0
G28 ; home all axes
G92 E0
G1 E-4.0000 F2400
G1 Z0.170 F1002
; layer 1, Z = 0.17
T0
; tool H0.200 W0.600
; skirt
G1 X54.375 Y53.521 F4800
G1 E-0.2000 F720
G92 E0
G1 X54.682 Y53.214 E0.0219 F792
G1 X55.757 Y52.328 E0.0920
G1 X56.117 Y52.085 E0.1140
G1 X57.353 Y51.416 E0.1848
G1 X57.762 Y51.244 E0.2071
G1 X59.129 Y50.823 E0.2792
G1 X59.568 Y50.734 E0.3018
G1 X60.913 Y50.599 E0.3699
G1 X61.138 Y50.588 E0.3812
G1 X71.364 Y50.588 E0.8965
G1 X71.589 Y50.599 E0.9079
G1 X72.934 Y50.734 E0.9760
G1 X73.373 Y50.823 E0.9985
G1 X74.739 Y51.244 E1.0706
G1 X75.148 Y51.416 E1.0930
G1 X76.384 Y52.085 E1.1638
G1 X76.745 Y52.328 E1.1857
G1 X77.265 Y52.757 E1.2196
G1 X78.053 Y52.107 E1.2711
G1 X78.414 Y51.864 E1.2930
G1 X79.650 Y51.195 E1.3638
G1 X80.059 Y51.023 E1.3862
G1 X81.425 Y50.602 E1.4582
G1 X81.864 Y50.513 E1.4808
G1 X83.209 Y50.378 E1.5489
G1 X83.434 Y50.367 E1.5603
G1 X93.660 Y50.367 E2.0755
G1 X93.885 Y50.378 E2.0869
G1 X95.230 Y50.513 E2.1550
G1 X95.669 Y50.602 E2.1776
G1 X97.035 Y51.023 E2.2496
G1 X97.444 Y51.195 E2.2720
G1 X98.680 Y51.864 E2.3428
G1 X99.041 Y52.107 E2.3647
G1 X99.292 Y52.314 E2.3811
G1 X99.893 Y51.820 E2.4203
G1 X100.253 Y51.577 E2.4423
G1 X101.489 Y50.907 E2.5131
G1 X101.898 Y50.736 E2.5354
G1 X103.265 Y50.314 E2.6075
G1 X103.704 Y50.225 E2.6301
G1 X105.049 Y50.090 E2.6982
G1 X105.274 Y50.079 E2.7095
G1 X115.500 Y50.079 E3.2248
G1 X115.725 Y50.090 E3.2362
G1 X117.070 Y50.225 E3.3043
G1 X117.509 Y50.314 E3.3268
G1 X118.875 Y50.736 E3.3989
G1 X119.284 Y50.907 E3.4212
G1 X120.520 Y51.577 E3.4921
G1 X120.881 Y51.820 E3.5140
G1 X121.206 Y52.087 E3.5352
G1 X121.791 Y51.605 E3.5734
G1 X122.152 Y51.362 E3.5953
G1 X123.388 Y50.693 E3.6661
G1 X123.797 Y50.521 E3.6885
G1 X125.163 Y50.100 E3.7606
G1 X125.602 Y50.011 E3.7831
G1 X126.947 Y49.876 E3.8512
G1 X127.172 Y49.864 E3.8626
G1 X137.398 Y49.864 E4.3779
G1 X137.623 Y49.876 E4.3892
G1 X138.968 Y50.011 E4.4573
G1 X139.407 Y50.100 E4.4799
G1 X140.774 Y50.521 E4.5520
G1 X141.183 Y50.693 E4.5743
G1 X142.419 Y51.362 E4.6451
G1 X142.780 Y51.605 E4.6671
G1 X143.854 Y52.491 E4.7372
G1 X144.161 Y52.798 E4.7591
G1 X145.045 Y53.872 E4.8292
G1 X145.287 Y54.231 E4.8510
G1 X145.956 Y55.465 E4.9218
G1 X146.128 Y55.875 E4.9442
G1 X146.550 Y57.242 E5.0163
G1 X146.639 Y57.681 E5.0388
G1 X146.774 Y59.026 E5.1069
G1 X146.785 Y59.252 E5.1183
G1 X146.785 Y69.477 E5.6336
G1 X146.774 Y69.702 E5.6449
G1 X146.639 Y71.047 E5.7130
G1 X146.550 Y71.486 E5.7356
G1 X146.128 Y72.853 E5.8077
G1 X145.957 Y73.262 E5.8300
G1 X145.287 Y74.498 E5.9008
G1 X145.044 Y74.859 E5.9227
G1 X144.472 Y75.554 E5.9681
G1 X145.003 Y76.199 E6.0102
G1 X145.244 Y76.557 E6.0320
G1 X145.913 Y77.792 E6.1028
G1 X146.086 Y78.202 E6.1252
G1 X146.507 Y79.569 E6.1973
G1 X146.596 Y80.008 E6.2198
G1 X146.731 Y81.352 E6.2879
G1 X146.743 Y81.578 E6.2993
G1 X146.743 Y91.803 E6.8146
G1 X146.731 Y92.029 E6.8259
G1 X146.596 Y93.374 E6.8940
G1 X146.507 Y93.813 E6.9166
G1 X146.086 Y95.179 E6.9887
G1 X145.914 Y95.588 E7.0110
G1 X145.245 Y96.824 E7.0818
G1 X145.002 Y97.185 E7.1038
G1 X144.559 Y97.722 E7.1389
G1 X144.814 Y98.032 E7.1590
G1 X145.055 Y98.390 E7.1808
G1 X145.724 Y99.625 E7.2516
G1 X145.897 Y100.035 E7.2740
G1 X146.318 Y101.402 E7.3461
G1 X146.407 Y101.841 E7.3686
G1 X146.542 Y103.185 E7.4368
G1 X146.554 Y103.411 E7.4481
G1 X146.554 Y113.636 E7.9634
G1 X146.542 Y113.862 E7.9747
G1 X146.407 Y115.207 E8.0429
G1 X146.318 Y115.646 E8.0654
G1 X145.897 Y117.012 E8.1375
G1 X145.725 Y117.421 E8.1598
G1 X145.056 Y118.657 E8.2307
G1 X144.813 Y119.018 E8.2526
G1 X144.297 Y119.643 E8.2934
G1 X144.594 Y120.004 E8.3170
G1 X144.835 Y120.363 E8.3387
G1 X145.504 Y121.597 E8.4095
G1 X145.677 Y122.007 E8.4319
G1 X146.098 Y123.374 E8.5040
G1 X146.187 Y123.813 E8.5266
G1 X146.322 Y125.158 E8.5947
G1 X146.334 Y125.383 E8.6060
G1 X146.334 Y135.609 E9.1213
G1 X146.322 Y135.834 E9.1326
G1 X146.187 Y137.179 E9.2008
G1 X146.098 Y137.618 E9.2233
G1 X145.677 Y138.984 E9.2954
G1 X145.505 Y139.393 E9.3177
G1 X144.836 Y140.629 E9.3886
G1 X144.593 Y140.990 E9.4105
G1 X143.708 Y142.064 E9.4806
G1 X143.402 Y142.370 E9.5024
G1 X142.328 Y143.255 E9.5725
G1 X141.967 Y143.498 E9.5944
G1 X140.731 Y144.167 E9.6653
G1 X140.322 Y144.339 E9.6876
G1 X138.956 Y144.760 E9.7597
G1 X138.517 Y144.849 E9.7822
G1 X137.172 Y144.985 E9.8504
G1 X136.946 Y144.996 E9.8617
G1 X126.721 Y144.996 E10.3770
G1 X126.495 Y144.985 E10.3884
G1 X125.151 Y144.849 E10.4565
G1 X124.712 Y144.760 E10.4790
G1 X123.345 Y144.339 E10.5511
G1 X122.936 Y144.167 E10.5734
G1 X121.700 Y143.498 E10.6443
G1 X121.340 Y143.255 E10.6662
G1 X121.014 Y142.987 E10.6874
G1 X120.429 Y143.469 E10.7256
G1 X120.069 Y143.712 E10.7475
G1 X118.833 Y144.381 E10.8183
G1 X118.424 Y144.553 E10.8407
G1 X117.057 Y144.975 E10.9128
G1 X116.618 Y145.064 E10.9353
G1 X115.273 Y145.199 E11.0034
G1 X115.048 Y145.210 E11.0148
G1 X104.822 Y145.210 E11.5301
G1 X104.597 Y145.199 E11.5414
G1 X103.252 Y145.064 E11.6095
G1 X102.813 Y144.975 E11.6321
G1 X101.447 Y144.553 E11.7041
G1 X101.038 Y144.381 E11.7265
G1 X99.802 Y143.712 E11.7973
G1 X99.441 Y143.469 E11.8192
G1 X99.190 Y143.262 E11.8356
G1 X98.589 Y143.757 E11.8749
G1 X98.229 Y144.000 E11.8968
G1 X96.993 Y144.669 E11.9676
G1 X96.584 Y144.841 E11.9900
G1 X95.217 Y145.263 E12.0620
G1 X94.778 Y145.351 E12.0846
G1 X93.434 Y145.487 E12.1527
G1 X93.208 Y145.498 E12.1640
G1 X82.982 Y145.498 E12.6793
G1 X82.757 Y145.487 E12.6907
G1 X81.412 Y145.351 E12.7588
G1 X80.973 Y145.263 E12.7813
G1 X79.607 Y144.841 E12.8534
G1 X79.198 Y144.669 E12.8758
G1 X77.962 Y144.000 E12.9466
G1 X77.601 Y143.757 E12.9685
G1 X77.081 Y143.329 E13.0024
G1 X76.293 Y143.978 E13.0539
G1 X75.933 Y144.221 E13.0758
G1 X74.697 Y144.890 E13.1466
G1 X74.287 Y145.062 E13.1690
G1 X72.921 Y145.484 E13.2411
G1 X72.482 Y145.572 E13.2636
G1 X71.137 Y145.708 E13.3317
G1 X70.912 Y145.719 E13.3431
G1 X60.686 Y145.719 E13.8584
G1 X60.461 Y145.708 E13.8697
G1 X59.116 Y145.572 E13.9378
G1 X58.677 Y145.484 E13.9604
G1 X57.311 Y145.062 E14.0324
G1 X56.902 Y144.890 E14.0548
G1 X55.666 Y144.221 E14.1256
G1 X55.305 Y143.978 E14.1475
G1 X54.231 Y143.093 E14.2177
G1 X53.925 Y142.787 E14.2395
G1 X53.040 Y141.713 E14.3096
G1 X52.797 Y141.353 E14.3315
G1 X52.128 Y140.117 E14.4023
G1 X51.956 Y139.707 E14.4247
G1 X51.535 Y138.341 E14.4967
G1 X51.446 Y137.902 E14.5193
G1 X51.310 Y136.557 E14.5874
G1 X51.299 Y136.332 E14.5988
G1 X51.299 Y126.106 E15.1140
G1 X51.310 Y125.881 E15.1254
G1 X51.446 Y124.536 E15.1935
G1 X51.535 Y124.097 E15.2161
G1 X51.956 Y122.730 E15.2882
G1 X52.129 Y122.320 E15.3106
G1 X52.798 Y121.086 E15.3813
G1 X53.039 Y120.727 E15.4031
G1 X53.556 Y120.100 E15.4441
G1 X53.260 Y119.741 E15.4675
G1 X53.017 Y119.380 E15.4894
G1 X52.348 Y118.144 E15.5602
G1 X52.176 Y117.735 E15.5826
G1 X51.755 Y116.369 E15.6546
G1 X51.666 Y115.930 E15.6772
G1 X51.530 Y114.585 E15.7453
G1 X51.519 Y114.360 E15.7567
G1 X51.519 Y104.134 E16.2719
G1 X51.530 Y103.908 E16.2833
G1 X51.666 Y102.564 E16.3514
G1 X51.754 Y102.125 E16.3740
G1 X52.176 Y100.758 E16.4461
G1 X52.348 Y100.348 E16.4685
G1 X53.017 Y99.113 E16.5392
G1 X53.259 Y98.755 E16.5610
G1 X53.703 Y98.216 E16.5962
G1 X53.449 Y97.908 E16.6163
G1 X53.206 Y97.547 E16.6382
G1 X52.537 Y96.311 E16.7090
G1 X52.365 Y95.902 E16.7314
G1 X51.944 Y94.536 E16.8034
G1 X51.855 Y94.097 E16.8260
G1 X51.720 Y92.752 E16.8941
G1 X51.708 Y92.527 E16.9055
G1 X51.708 Y82.301 E17.4207
G1 X51.720 Y82.076 E17.4321
G1 X51.855 Y80.731 E17.5002
G1 X51.944 Y80.292 E17.5228
G1 X52.365 Y78.925 E17.5949
G1 X52.538 Y78.515 E17.6173
G1 X53.207 Y77.281 E17.6880
G1 X53.448 Y76.922 E17.7098
G1 X54.022 Y76.225 E17.7553
G1 X53.492 Y75.582 E17.7973
G1 X53.249 Y75.221 E17.8192
G1 X52.580 Y73.985 E17.8900
G1 X52.408 Y73.576 E17.9124
G1 X51.986 Y72.209 E17.9845
G1 X51.897 Y71.771 E18.0070
G1 X51.762 Y70.426 E18.0751
G1 X51.751 Y70.200 E18.0865
G1 X51.751 Y59.975 E18.6018
G1 X51.762 Y59.749 E18.6131
G1 X51.897 Y58.404 E18.6812
G1 X51.986 Y57.966 E18.7038
G1 X52.408 Y56.599 E18.7759
G1 X52.580 Y56.188 E18.7983
G1 X53.249 Y54.954 E18.8690
G1 X53.491 Y54.596 E18.8908
G1 X54.248 Y53.675 E18.9509
G1 X54.375 Y53.521 F792
G1 X55.086 Y53.659 F4800
G92 E0
G1 X56.116 Y52.810 E0.0673 F792
G1 X56.429 Y52.599 E0.0862
G1 X57.613 Y51.958 E0.1541
G1 X57.967 Y51.809 E0.1735
G1 X59.277 Y51.405 E0.2425
G1 X59.658 Y51.328 E0.2621
G1 X60.958 Y51.197 E0.3280
G1 X61.153 Y51.188 E0.3378
G1 X71.349 Y51.188 E0.8515
G1 X71.544 Y51.197 E0.8614
G1 X72.844 Y51.328 E0.9272
G1 X73.224 Y51.405 E0.9468
G1 X74.534 Y51.809 E1.0159
G1 X74.889 Y51.958 E1.0352
G1 X76.073 Y52.599 E1.1031
G1 X76.386 Y52.810 E1.1221
G1 X77.276 Y53.544 E1.1803
G1 X77.382 Y53.438 E1.1878
G1 X78.412 Y52.589 E1.2551
G1 X78.725 Y52.378 E1.2741
G1 X79.909 Y51.737 E1.3419
G1 X80.264 Y51.588 E1.3613
G1 X81.573 Y51.184 E1.4304
G1 X81.954 Y51.107 E1.4499
G1 X83.254 Y50.976 E1.5158
G1 X83.449 Y50.967 E1.5256
G1 X93.645 Y50.967 E2.0394
G1 X93.840 Y50.976 E2.0492
G1 X95.140 Y51.107 E2.1151
G1 X95.521 Y51.184 E2.1346
G1 X96.830 Y51.588 E2.2037
G1 X97.185 Y51.737 E2.2231
G1 X98.369 Y52.378 E2.2909
G1 X98.682 Y52.589 E2.3099
G1 X99.292 Y53.092 E2.3498
G1 X100.252 Y52.301 E2.4124
G1 X100.565 Y52.090 E2.4314
G1 X101.749 Y51.449 E2.4993
G1 X102.104 Y51.300 E2.5187
G1 X103.413 Y50.896 E2.5877
G1 X103.794 Y50.819 E2.6073
G1 X105.094 Y50.688 E2.6731
G1 X105.289 Y50.679 E2.6830
G1 X115.485 Y50.679 E3.1967
G1 X115.680 Y50.689 E3.2066
G1 X116.980 Y50.819 E3.2724
G1 X117.361 Y50.896 E3.2920
G1 X118.670 Y51.300 E3.3611
G1 X119.025 Y51.449 E3.3804
G1 X120.209 Y52.090 E3.4483
G1 X120.522 Y52.301 E3.4673
G1 X121.206 Y52.865 E3.5120
G1 X122.150 Y52.087 E3.5736
G1 X122.463 Y51.876 E3.5926
G1 X123.647 Y51.235 E3.6605
G1 X124.002 Y51.086 E3.6799
G1 X125.312 Y50.682 E3.7489
G1 X125.692 Y50.605 E3.7685
G1 X126.992 Y50.474 E3.8343
G1 X127.188 Y50.464 E3.8442
G1 X137.383 Y50.464 E4.3579
G1 X137.578 Y50.474 E4.3678
G1 X138.878 Y50.605 E4.4336
G1 X139.259 Y50.682 E4.4532
G1 X140.569 Y51.086 E4.5223
G1 X140.923 Y51.235 E4.5416
G1 X142.108 Y51.876 E4.6095
G1 X142.420 Y52.087 E4.6285
G1 X143.450 Y52.935 E4.6957
G1 X143.716 Y53.201 E4.7147
G1 X144.564 Y54.231 E4.7819
