; generated by Slic3r 1.2.9 on 2016-03-23 at 16:50:32

; H1_0.30
; H11_0.25
; H12_0.45
; H13_0.25
; H14_0.45
; H15_False
; H5_False
; H6_False
; H4_5
; H3_60
; H2_QUJTLUZEUGxhc3QtMjQw
; H31_False
; H32_1.00
; H33_True
; H34_70
; H35_1.50
; H36_False
; H37_True
; H23_240
; H22_240
; H25_110
; H24_115
; H21_0.97
; H26_1400.00
; H27_1
; H7_0

; external perimeters extrusion width = 0.45mm
; perimeters extrusion width = 0.45mm
; infill extrusion width = 0.45mm
; solid infill extrusion width = 0.45mm
; top infill extrusion width = 0.30mm

M107
M85 S600
M104 S200
M190 S115
M109 S240
G28
G90
G1 X20 Y0 F10000
G21 ; set units to millimeters
G90 ; use absolute coordinates
M82 ; use absolute distances for extrusion
G92 E0
G1 Z0.250 F9600.000
G1 E-1.00000 F1200.00000
G92 E0
G1 X81.371 Y78.594 F9600.000
G1 E1.00000 F1200.00000
G1 X81.767 Y78.240 E1.02122 F1800.000
G1 X83.779 Y76.702 E1.12242
G1 X84.225 Y76.413 E1.14366
G1 X88.897 Y73.885 E1.35594
G1 X89.383 Y73.670 E1.37717
G1 X91.768 Y72.828 E1.47822
G1 X92.280 Y72.691 E1.49941
G1 X97.507 Y71.724 E1.71184
G1 X98.047 Y71.668 E1.73353
G1 X100.577 Y71.610 E1.83464
G1 X101.108 Y71.640 E1.85591
G1 X106.367 Y72.348 E2.06794 F1800.000
G1 X106.873 Y72.456 E2.08863
G1 X109.300 Y73.171 E2.18972
G1 X109.808 Y73.366 E2.21148
G1 X114.606 Y75.665 E2.42406
G1 X115.065 Y75.931 E2.44526
G1 X117.144 Y77.363 E2.54614
G1 X117.559 Y77.701 E2.56755
G1 X121.407 Y81.367 E2.77993
G1 X121.764 Y81.765 E2.80125
G1 X123.301 Y83.778 E2.90247
G1 X123.589 Y84.223 E2.92366
G1 X126.117 Y88.894 E3.13591
G1 X126.333 Y89.380 E3.15716
G1 X127.175 Y91.765 E3.25821
G1 X127.312 Y92.280 E3.27952
G1 X128.274 Y97.508 E3.49192
G1 X128.330 Y98.046 E3.51353
G1 X128.387 Y100.574 E3.61460
G1 X128.358 Y101.101 E3.63568
G1 X127.655 Y106.366 E3.84795
G1 X127.544 Y106.882 E3.86904
G1 X126.825 Y109.308 E3.97016
G1 X126.633 Y109.808 E3.99153
G1 X124.338 Y114.606 E4.20406
G1 X124.067 Y115.074 E4.22567
G1 X122.629 Y117.151 E4.32665
G1 X122.294 Y117.563 E4.34784
G1 X118.628 Y121.406 E4.56005
G1 X118.233 Y121.760 E4.58126
G1 X116.221 Y123.298 E4.68247
G1 X115.777 Y123.585 E4.70361
G1 X111.104 Y126.118 E4.91601
G1 X110.616 Y126.335 E4.93734
G1 X108.231 Y127.176 E5.03839
G1 X107.716 Y127.314 E5.05970
G1 X102.490 Y128.276 E5.27206
G1 X101.953 Y128.332 E5.29363
G1 X99.423 Y128.390 E5.39474
G1 X98.895 Y128.361 E5.41589
G1 X93.635 Y127.657 E5.62793
G1 X93.120 Y127.547 E5.64897
G1 X90.689 Y126.827 E5.75028
G1 X90.189 Y126.634 E5.77169
G1 X85.396 Y124.342 E5.98402
G1 X84.927 Y124.070 E6.00567
G1 X82.849 Y122.631 E6.10667
G1 X82.440 Y122.298 E6.12774
G1 X78.593 Y118.632 E6.34012
G1 X78.237 Y118.235 E6.36140
G1 X76.699 Y116.223 E6.46260
G1 X76.410 Y115.777 E6.48384
G1 X73.883 Y111.105 E6.69612
G1 X73.667 Y110.619 E6.71736
G1 X72.825 Y108.234 E6.81840
G1 X72.688 Y107.719 E6.83971
G1 X71.725 Y102.493 E7.05207
G1 X71.670 Y101.954 E7.07370
G1 X71.613 Y99.425 E7.17480
G1 X71.642 Y98.898 E7.19587
G1 X72.345 Y93.633 E7.40815
G1 X72.456 Y93.116 E7.42925
G1 X73.175 Y90.691 E7.53033
G1 X73.367 Y90.192 E7.55169
G1 X75.662 Y85.394 E7.76422
G1 X75.933 Y84.926 E7.78583
G1 X77.371 Y82.848 E7.88681
G1 X77.706 Y82.437 E7.90800
G1 X81.340 Y78.627 E8.11841
G1 E7.11841 F1200.00000
G92 E0
G1 X105.536 Y119.885 F9600.000
G1 E1.00000 F1200.00000
G1 X103.864 Y120.259 E1.06847 F1800.000
G1 X102.584 Y120.461 E1.12024
G1 X101.294 Y120.583 E1.17201
G1 X99.999 Y120.624 E1.22377
G1 X98.705 Y120.583 E1.27554
G1 X97.415 Y120.461 E1.32731
G1 X96.135 Y120.259 E1.37908
G1 X94.871 Y119.976 E1.43084
G1 X93.627 Y119.615 E1.48261
G1 X92.408 Y119.176 E1.53438
G1 X91.219 Y118.661 E1.58615
G1 X90.065 Y118.073 E1.63791
G1 X88.950 Y117.414 E1.68968
G1 X87.878 Y116.686 E1.74145
G1 X86.855 Y115.892 E1.79321
G1 X85.883 Y115.035 E1.84498
G1 X84.967 Y114.119 E1.89675
G1 X83.834 Y112.834 E1.96522
G1 X97.015 Y103.257 E2.61627
G1 X97.648 Y103.695 E2.64702
G1 X98.136 Y103.963 E2.66928
G1 X98.647 Y104.166 E2.69125
G1 X99.189 Y104.305 E2.71360
G1 X99.439 Y104.344 E2.72373
G1 X100.506 Y104.404 E2.76643
G1 X105.522 Y119.842 E3.41507
G1 X105.024 Y119.593 F9600.000
G1 X103.789 Y119.869 E3.46564 F1800.000
G1 X102.534 Y120.068 E3.51641
G1 X101.269 Y120.188 E3.56718
G1 X99.999 Y120.228 E3.61796
G1 X98.730 Y120.188 E3.66873
G1 X97.465 Y120.068 E3.71950
G1 X96.210 Y119.869 E3.77027
G1 X94.970 Y119.592 E3.82104
G1 X93.750 Y119.238 E3.87182
G1 X92.554 Y118.807 E3.92259
G1 X91.388 Y118.303 E3.97336
G1 X90.256 Y117.726 E4.02413
G1 X89.162 Y117.079 E4.07490
G1 X88.111 Y116.365 E4.12568
G1 X87.108 Y115.586 E4.17645
G1 X86.154 Y114.746 E4.22722
G1 X85.256 Y113.847 E4.27799
G1 X84.419 Y112.898 E4.32856
G1 X97.020 Y103.743 E4.95097
G1 X97.439 Y104.032 E4.97131
G1 X97.967 Y104.323 E4.99537
G1 X98.524 Y104.543 E5.01933
G1 X99.108 Y104.693 E5.04343
G1 X99.397 Y104.739 E5.05511
G1 X100.213 Y104.785 E5.08777
G1 X105.010 Y119.550 E5.70816
G1 X105.099 Y119.884 F9600.000
G1 E4.70816 F1200.00000
G92 E0
G1 X100.529 Y102.776 F9600.000
G1 E1.00000 F1200.00000
G1 X99.999 Y102.827 E1.02124 F1800.000
G1 X99.470 Y102.776 E1.04248
G1 X98.960 Y102.628 E1.06372
G1 X98.485 Y102.386 E1.08502
G1 X98.060 Y102.053 E1.10658
G1 X97.824 Y101.801 E1.12039
G1 X97.611 Y101.507 E1.13492
G1 X97.374 Y101.042 E1.15576
G1 X97.225 Y100.532 E1.17701
G1 X97.175 Y100.002 E1.19825
G1 X97.225 Y99.473 E1.21949
G1 X97.374 Y98.963 E1.24073
G1 X97.615 Y98.489 E1.26197
G1 X97.941 Y98.069 E1.28321
G1 X98.340 Y97.718 E1.30445
G1 X98.797 Y97.447 E1.32569
G1 X99.288 Y97.270 E1.34654
G1 X99.645 Y97.202 E1.36107
G1 X99.990 Y97.180 E1.37487 F1800.000
G1 X100.527 Y97.228 E1.39643
G1 X101.039 Y97.377 E1.41773
G1 X101.513 Y97.618 E1.43897
G1 X101.933 Y97.944 E1.46021
G1 X102.278 Y98.335 E1.48106
G1 X102.473 Y98.643 E1.49562
G1 X102.628 Y98.972 E1.51017
G1 X102.774 Y99.473 E1.53102
G1 X102.823 Y99.993 E1.55187
G1 X102.800 Y100.356 E1.56643
G1 X102.732 Y100.714 E1.58098
G1 X102.555 Y101.205 E1.60183
G1 X102.284 Y101.662 E1.62307
G1 X101.933 Y102.061 E1.64431
G1 X101.513 Y102.387 E1.66555
G1 X101.039 Y102.628 E1.68679
G1 X100.572 Y102.764 E1.70623
G1 X100.454 Y102.385 F9600.000
G1 X99.999 Y102.428 E1.72448 F1800.000
G1 X99.545 Y102.385 E1.74273
G1 X99.106 Y102.258 E1.76097
G1 X98.699 Y102.050 E1.77924
G1 X98.329 Y101.760 E1.79804
G1 X98.131 Y101.548 E1.80964
G1 X97.950 Y101.299 E1.82194
G1 X97.744 Y100.895 E1.84005
G1 X97.616 Y100.457 E1.85829
G1 X97.573 Y100.002 E1.87654
G1 X97.616 Y99.548 E1.89479
G1 X97.744 Y99.109 E1.91303
G1 X97.951 Y98.702 E1.93128
G1 X98.231 Y98.342 E1.94953
G1 X98.574 Y98.040 E1.96777
G1 X98.967 Y97.807 E1.98602
G1 X99.393 Y97.654 E2.00412
G1 X99.695 Y97.596 E2.01643
G1 X99.985 Y97.577 E2.02803 F1800.000
G1 X100.454 Y97.619 E2.04683
G1 X100.893 Y97.747 E2.06509
G1 X101.299 Y97.954 E2.08334
G1 X101.660 Y98.234 E2.10159
G1 X101.960 Y98.574 E2.11969
G1 X102.125 Y98.834 E2.13200
G1 X102.256 Y99.113 E2.14432
G1 X102.383 Y99.548 E2.16242
G1 X102.425 Y99.999 E2.18053
G1 X102.406 Y100.306 E2.19284
G1 X102.348 Y100.609 E2.20515
G1 X102.195 Y101.035 E2.22326
G1 X101.962 Y101.428 E2.24150
G1 X101.660 Y101.771 E2.25975
G1 X101.299 Y102.051 E2.27799
G1 X100.893 Y102.258 E2.29624
G1 X100.497 Y102.373 E2.31269
G1 X100.347 Y102.666 F9600.000
G1 X102.049 Y103.468 F9600.000
G1 X102.702 Y103.437 E2.33879 F1800.000
G1 X102.996 Y103.193 E2.35405
G1 X103.379 Y102.786 E2.37640
G1 X103.536 Y102.584 E2.38661
G1 X103.841 Y102.103 E2.40936
G1 X103.956 Y101.877 E2.41949
G1 X104.343 Y100.881 E2.46219
G1 X120.620 Y100.881 E3.11263
G1 X120.459 Y102.587 E3.18110
G1 X120.256 Y103.867 E3.23287
G1 X119.973 Y105.131 E3.28463
G1 X119.612 Y106.375 E3.33640
G1 X119.173 Y107.594 E3.38817
G1 X118.658 Y108.783 E3.43994
G1 X118.070 Y109.937 E3.49170
G1 X117.411 Y111.052 E3.54347
G1 X116.683 Y112.123 E3.59524
G1 X115.889 Y113.147 E3.64701
G1 X115.032 Y114.119 E3.69877
G1 X114.116 Y115.035 E3.75054
G1 X113.144 Y115.892 E3.80231
G1 X112.121 Y116.686 E3.85408
G1 X111.049 Y117.414 E3.90585
G1 X109.934 Y118.073 E3.95761
G1 X108.780 Y118.661 E4.00938
G1 X107.207 Y119.342 E4.07785
G1 X102.063 Y103.511 E4.74301
G1 X102.587 Y103.839 F9600.000
G1 X102.853 Y103.826 E4.75365 F1800.000
G1 X103.268 Y103.483 E4.77518
G1 X103.681 Y103.043 E4.79928
G1 X103.860 Y102.812 E4.81098
G1 X104.185 Y102.300 E4.83523
G1 X104.318 Y102.039 E4.84690
G1 X104.614 Y101.277 E4.87956
G1 X120.184 Y101.277 E5.50175
G1 X120.065 Y102.537 E5.55232
G1 X119.866 Y103.792 E5.60309
G1 X119.589 Y105.032 E5.65386
G1 X119.235 Y106.252 E5.70464
G1 X118.804 Y107.448 E5.75541
G1 X118.300 Y108.614 E5.80618
G1 X117.723 Y109.746 E5.85695
G1 X117.076 Y110.840 E5.90772
G1 X116.362 Y111.890 E5.95850
G1 X115.583 Y112.894 E6.00927
G1 X114.743 Y113.847 E6.06004
G1 X113.844 Y114.746 E6.11081
G1 X112.891 Y115.586 E6.16158
G1 X111.888 Y116.365 E6.21235
G1 X110.837 Y117.079 E6.26313
G1 X109.743 Y117.726 E6.31390
G1 X108.611 Y118.303 E6.36467
G1 X107.450 Y118.805 E6.41524
G1 X102.601 Y103.882 E7.04226
G1 X102.550 Y103.575 F9600.000
G1 E6.04226 F1200.00000
G92 E0
G1 X104.343 Y99.124 F9600.000
G1 E1.00000 F1200.00000
G1 X103.959 Y98.137 E1.04231 F1800.000
G1 X103.691 Y97.648 E1.06458
G1 X103.377 Y97.217 E1.08592
G1 X102.996 Y96.811 E1.10813
G1 X102.702 Y96.568 E1.12339
G1 X102.049 Y96.537 E1.14949
G1 X107.207 Y80.663 E1.81644
G1 X108.780 Y81.343 E1.88492
G1 X109.934 Y81.932 E1.93668
G1 X111.049 Y82.591 E1.98845
G1 X112.121 Y83.319 E2.04022
G1 X113.150 Y84.118 E2.09230
G1 X114.116 Y84.970 E2.14375
G1 X115.032 Y85.886 E2.19552
G1 X115.889 Y86.858 E2.24729
G1 X116.683 Y87.881 E2.29905
G1 X117.411 Y88.953 E2.35082
G1 X118.070 Y90.068 E2.40259
G1 X118.658 Y91.222 E2.45436
G1 X119.173 Y92.411 E2.50612
G1 X119.612 Y93.630 E2.55789
G1 X119.973 Y94.874 E2.60966
G1 X120.256 Y96.138 E2.66143
G1 X120.459 Y97.418 E2.71319
G1 X120.620 Y99.124 E2.78167
G1 X104.388 Y99.124 E3.43030
G1 X104.614 Y98.727 F9600.000
G1 X104.319 Y97.969 E3.46282 F1800.000
G1 X104.029 Y97.441 E3.48689
G1 X103.678 Y96.959 E3.51072
G1 X103.268 Y96.522 E3.53467
G1 X102.853 Y96.178 E3.55620
G1 X102.587 Y96.166 E3.56685
G1 X107.450 Y81.200 E4.19566
G1 X108.611 Y81.702 E4.24623
G1 X109.743 Y82.279 E4.29700
G1 X110.837 Y82.926 E4.34777
G1 X111.888 Y83.640 E4.39855
G1 X112.897 Y84.424 E4.44963
G1 X113.844 Y85.259 E4.50009
G1 X114.743 Y86.157 E4.55086
G1 X115.583 Y87.110 E4.60163
G1 X116.362 Y88.114 E4.65241
G1 X117.076 Y89.165 E4.70318
G1 X117.723 Y90.259 E4.75395
G1 X118.300 Y91.391 E4.80472
G1 X118.804 Y92.557 E4.85549
G1 X119.235 Y93.752 E4.90626
G1 X119.589 Y94.973 E4.95704
G1 X119.866 Y96.213 E5.00781
G1 X120.065 Y97.468 E5.05858
G1 X120.184 Y98.727 E5.10915
G1 X104.659 Y98.727 E5.72954
G1 X104.323 Y98.801 F9600.000
G1 E4.72954 F1200.00000
G92 E0
G1 X100.506 Y95.600 F9600.000
G1 E1.00000 F1200.00000
G1 X99.449 Y95.660 E1.04231 F1800.000
G1 X98.901 Y95.764 E1.06458
G1 X98.656 Y95.836 E1.07479
G1 X98.127 Y96.045 E1.09754
G1 X97.901 Y96.160 E1.10767
G1 X97.002 Y96.739 E1.15037
G1 X83.834 Y87.171 E1.80081
G1 X84.967 Y85.886 E1.86928
G1 X85.883 Y84.970 E1.92105
G1 X86.855 Y84.113 E1.97282
G1 X87.878 Y83.319 E2.02458
G1 X88.950 Y82.591 E2.07635
G1 X90.065 Y81.932 E2.12812
G1 X91.219 Y81.343 E2.17989
G1 X92.408 Y80.829 E2.23165
G1 X93.627 Y80.390 E2.28342
G1 X94.871 Y80.029 E2.33519
G1 X96.135 Y79.746 E2.38696
G1 X97.415 Y79.543 E2.43872
G1 X98.705 Y79.421 E2.49049
G1 X99.992 Y79.381 E2.54194
G1 X101.294 Y79.421 E2.59402
G1 X102.584 Y79.543 E2.64579
G1 X103.864 Y79.746 E2.69756
G1 X105.536 Y80.120 E2.76603
G1 X100.520 Y95.558 E3.41467
G1 X100.213 Y95.220 F9600.000
G1 X99.400 Y95.266 E3.44719 F1800.000
G1 X98.809 Y95.379 E3.47126
G1 X98.527 Y95.460 E3.48296
G1 X97.963 Y95.684 E3.50721
G1 X97.703 Y95.816 E3.51888
G1 X97.016 Y96.259 E3.55154
G1 X84.419 Y87.107 E4.17373
G1 X85.256 Y86.157 E4.22430
G1 X86.154 Y85.259 E4.27507
G1 X87.108 Y84.419 E4.32584
G1 X88.111 Y83.640 E4.37662
G1 X89.162 Y82.926 E4.42739
G1 X90.256 Y82.279 E4.47816
G1 X91.388 Y81.702 E4.52893
G1 X92.554 Y81.198 E4.57970
G1 X93.750 Y80.767 E4.63047
G1 X94.970 Y80.413 E4.68125
G1 X96.210 Y80.136 E4.73202
G1 X97.465 Y79.937 E4.78279
G1 X98.730 Y79.817 E4.83356
G1 X99.992 Y79.778 E4.88402
G1 X101.269 Y79.817 E4.93510
G1 X102.534 Y79.937 E4.98588
G1 X103.789 Y80.136 E5.03665
G1 X105.024 Y80.412 E5.08722
G1 X100.227 Y95.177 E5.70761
G1 X100.193 Y95.519 F9600.000
G1 E4.70761 F1200.00000
G92 E0
G1 X95.969 Y98.160 F9600.000
G1 E1.00000 F1200.00000
G1 X95.697 Y99.194 E1.04270 F1800.000
G1 X95.657 Y99.444 E1.05283
G1 X95.622 Y100.002 E1.07519
G1 X95.657 Y100.561 E1.09754
G1 X95.697 Y100.811 E1.10767
G1 X95.969 Y101.844 E1.15037
G1 X82.801 Y111.412 E1.80081
G1 X81.929 Y109.937 E1.86928
G1 X81.341 Y108.783 E1.92104
G1 X80.826 Y107.594 E1.97281
G1 X80.387 Y106.375 E2.02458
G1 X80.026 Y105.131 E2.07635
G1 X79.743 Y103.867 E2.12811
G1 X79.540 Y102.587 E2.17988
G1 X79.419 Y101.297 E2.23165
G1 X79.378 Y100.002 E2.28342
G1 X79.419 Y98.708 E2.33518
G1 X79.540 Y97.418 E2.38695
G1 X79.743 Y96.138 E2.43872
G1 X80.026 Y94.874 E2.49049
G1 X80.387 Y93.630 E2.54225
G1 X80.826 Y92.411 E2.59402
G1 X81.341 Y91.222 E2.64579
G1 X81.932 Y90.062 E2.69784
G1 X82.801 Y88.593 E2.76603
G1 X95.933 Y98.134 E3.41466
G1 X95.517 Y98.322 F9600.000
G1 X95.309 Y99.112 E3.44732 F1800.000
G1 X95.263 Y99.400 E3.45900
G1 X95.225 Y100.002 E3.48310
G1 X95.263 Y100.604 E3.50720
G1 X95.309 Y100.893 E3.51887
G1 X95.517 Y101.683 E3.55153
G1 X82.920 Y110.835 E4.17372
G1 X82.276 Y109.746 E4.22429
G1 X81.699 Y108.614 E4.27506
G1 X81.195 Y107.448 E4.32583
G1 X80.764 Y106.252 E4.37660
G1 X80.410 Y105.032 E4.42738
G1 X80.133 Y103.792 E4.47815
G1 X79.934 Y102.537 E4.52892
G1 X79.814 Y101.272 E4.57969
G1 X79.774 Y100.002 E4.63046
G1 X79.814 Y98.732 E4.68123
G1 X79.934 Y97.468 E4.73201
G1 X80.133 Y96.213 E4.78278
G1 X80.410 Y94.973 E4.83355
G1 X80.764 Y93.752 E4.88432
G1 X81.195 Y92.557 E4.93509
G1 X81.699 Y91.391 E4.98587
G1 X82.280 Y90.253 E5.03692
G1 X82.920 Y89.170 E5.08721
G1 X95.481 Y98.295 E5.70760
G1 X95.795 Y98.433 F9600.000
G1 E4.70760 F1200.00000
G92 E0
G1 X79.144 Y92.141 F9600.000
G1 E1.00000 F1200.00000
G1 X80.804 Y88.676 E1.15356 F1800.000
G1 X79.487 Y86.852 E1.24347
G1 X80.425 Y85.495 E1.30938
G1 X82.590 Y86.078 E1.39896
G1 X84.959 Y83.619 E1.53541
G1 X85.236 Y83.276 E1.55302
G1 X84.555 Y81.165 E1.64164
G1 X85.870 Y80.160 E1.70779
G1 X87.756 Y81.383 E1.79759
G1 X90.761 Y79.767 E1.93395
G1 X91.128 Y79.526 E1.95149
G1 X91.134 Y77.313 E2.03994
G1 X92.691 Y76.763 E2.10592
G1 X94.099 Y78.504 E2.19542
G1 X97.877 Y77.816 E2.34888
G1 X98.579 Y75.675 E2.43891
G1 X100.229 Y75.637 E2.50488
G1 X100.884 Y77.368 E2.57883
G1 X101.068 Y77.752 E2.59585
G1 X103.829 Y78.082 E2.70693
G1 X104.820 Y78.266 E2.74722
G1 X106.158 Y76.433 E2.83789
G1 X107.743 Y76.900 E2.90393
G1 X107.860 Y79.153 E2.99405
G1 X111.322 Y80.806 E3.14735
G1 X113.146 Y79.488 E3.23728
G1 X114.503 Y80.423 E3.30309
G1 X113.917 Y82.600 E3.39317
G1 X116.386 Y84.959 E3.52964
G1 X116.728 Y85.234 E3.54719
G1 X118.837 Y84.553 E3.63576
G1 X119.842 Y85.868 E3.70189
G1 X118.614 Y87.752 E3.79176
G1 X120.231 Y90.758 E3.92816
G1 X120.472 Y91.125 E3.94570
G1 X122.690 Y91.131 E4.03434
G1 X123.240 Y92.688 E4.10033
G1 X121.491 Y94.103 E4.19022
G1 X122.188 Y97.875 E4.34349
G1 X124.323 Y98.576 E4.43330
G1 X124.360 Y100.228 E4.49934
G1 X122.254 Y101.038 E4.58950
G1 X121.920 Y103.832 E4.70194
G1 X121.736 Y104.823 E4.74223
G1 X123.568 Y106.160 E4.83286
G1 X123.098 Y107.744 E4.89889
G1 X120.856 Y107.858 E4.98860
G1 X119.196 Y111.324 E5.14220
G1 X120.513 Y113.148 E5.23210
G1 X119.574 Y114.505 E5.29802
G1 X117.403 Y113.921 E5.38786
G1 X115.040 Y116.382 E5.52420
G1 X114.764 Y116.725 E5.54179
G1 X115.445 Y118.834 E5.63038
G1 X114.129 Y119.840 E5.69653
G1 X112.244 Y118.617 E5.78633
G1 X109.239 Y120.233 E5.92269
G1 X108.872 Y120.474 E5.94022
G1 X108.865 Y122.692 E6.02886
G1 X107.308 Y123.242 E6.09485
G1 X105.895 Y121.493 E6.18469
G1 X102.123 Y122.183 E6.33793
G1 X101.421 Y124.325 E6.42800
G1 X99.769 Y124.363 E6.49400
G1 X98.966 Y122.252 E6.58428
G1 X96.172 Y121.923 E6.69669
G1 X95.182 Y121.731 E6.73701
G1 X93.841 Y123.571 E6.82796
G1 X92.253 Y123.100 E6.89417
G1 X92.139 Y120.853 E6.98404
G1 X89.059 Y119.374 E7.12060
G1 X88.649 Y119.219 E7.13812
