; generated by Slic3r 1.2.9 on 2016-03-23 at 16:49:17

; H1_0.30
; H11_0.25
; H12_0.45
; H13_0.25
; H14_0.45
; H15_False
; H5_False
; H6_False
; H4_5
; H3_60
; H2_QUJTLUZEUGxhc3QtMjQw
; H31_False
; H32_1.00
; H33_True
; H34_70
; H35_1.50
; H36_False
; H37_True
; H23_240
; H22_240
; H25_110
; H24_115
; H21_0.97
; H26_1400.00
; H27_1
; H7_0

; external perimeters extrusion width = 0.45mm
; perimeters extrusion width = 0.45mm
; infill extrusion width = 0.45mm
; solid infill extrusion width = 0.45mm
; top infill extrusion width = 0.30mm

M107
M85 S600
M104 S200
M190 S115
M109 S240
G28
G90
G1 X20 Y0 F10000
G21 ; set units to millimeters
G90 ; use absolute coordinates
M82 ; use absolute distances for extrusion
G92 E0
G1 Z0.250 F9600.000
G1 E-1.00000 F1200.00000
G92 E0
G1 X78.593 Y81.368 F9600.000
G1 E1.00000 F1200.00000
G1 X82.440 Y77.702 E1.21237 F1800.000
G1 X82.849 Y77.369 E1.23345
G1 X84.927 Y75.930 E1.33444
G1 X85.396 Y75.658 E1.35609
G1 X90.189 Y73.366 E1.56842
G1 X90.689 Y73.173 E1.58983
G1 X93.120 Y72.453 E1.69114
G1 X93.635 Y72.343 E1.71219
G1 X98.895 Y71.639 E1.92423
G1 X99.423 Y71.610 E1.94537
G1 X101.953 Y71.668 E2.04648
G1 X102.490 Y71.724 E2.06806 F1800.000
G1 X107.716 Y72.686 E2.28042
G1 X108.231 Y72.824 E2.30173
G1 X110.616 Y73.665 E2.40277
G1 X111.104 Y73.882 E2.42411
G1 X115.777 Y76.415 E2.63650
G1 X116.221 Y76.702 E2.65765
G1 X118.233 Y78.240 E2.75885
G1 X118.628 Y78.594 E2.78006
G1 X122.294 Y82.437 E2.99227
G1 X122.629 Y82.849 E3.01347
G1 X124.067 Y84.926 E3.11445
G1 X124.338 Y85.394 E3.13605
G1 X126.633 Y90.192 E3.34858
G1 X126.825 Y90.692 E3.36996
G1 X127.544 Y93.118 E3.47107
G1 X127.655 Y93.634 E3.49216
G1 X128.358 Y98.899 E3.70444
G1 X128.387 Y99.426 E3.72552
G1 X128.330 Y101.954 E3.82659
G1 X128.274 Y102.492 E3.84820
G1 X127.312 Y107.720 E4.06059
G1 X127.175 Y108.235 E4.08191
G1 X126.333 Y110.620 E4.18296
G1 X126.117 Y111.106 E4.20421
G1 X123.589 Y115.777 E4.41646
G1 X123.301 Y116.222 E4.43764
G1 X121.764 Y118.235 E4.53887
G1 X121.407 Y118.633 E4.56019
G1 X117.559 Y122.299 E4.77257
G1 X117.144 Y122.637 E4.79397
G1 X115.065 Y124.069 E4.89485
G1 X114.606 Y124.335 E4.91606
G1 X109.808 Y126.634 E5.12864
G1 X109.300 Y126.829 E5.15039
G1 X106.873 Y127.544 E5.25149
G1 X106.367 Y127.652 E5.27217
G1 X101.108 Y128.360 E5.48421
G1 X100.577 Y128.390 E5.50548
G1 X98.047 Y128.332 E5.60659
G1 X97.507 Y128.276 E5.62828
G1 X92.280 Y127.309 E5.84070
G1 X91.768 Y127.172 E5.86190
G1 X89.383 Y126.330 E5.96294
G1 X88.897 Y126.115 E5.98418
G1 X84.225 Y123.587 E6.19646
G1 X83.779 Y123.298 E6.21770
G1 X81.767 Y121.760 E6.31890
G1 X81.371 Y121.406 E6.34012
G1 X77.706 Y117.563 E6.55233
G1 X77.371 Y117.152 E6.57352
G1 X75.933 Y115.074 E6.67450
G1 X75.662 Y114.606 E6.69611
G1 X73.367 Y109.808 E6.90864
G1 X73.175 Y109.309 E6.93000
G1 X72.456 Y106.884 E7.03108
G1 X72.345 Y106.367 E7.05218
G1 X71.642 Y101.102 E7.26445
G1 X71.613 Y100.575 E7.28553
G1 X71.670 Y98.046 E7.38663
G1 X71.725 Y97.507 E7.40826
G1 X72.688 Y92.281 E7.62061
G1 X72.825 Y91.766 E7.64192
G1 X73.667 Y89.381 E7.74297
G1 X73.883 Y88.895 E7.76421
G1 X76.410 Y84.223 E7.97649
G1 X76.699 Y83.777 E7.99772
G1 X78.237 Y81.765 E8.09892
G1 X78.563 Y81.402 E8.11841
G1 E7.11841 F1200.00000
G92 E0
G1 X105.536 Y119.880 F9600.000
G1 E1.00000 F1200.00000
G1 X103.864 Y120.254 E1.06847 F1800.000
G1 X102.584 Y120.457 E1.12024
G1 X101.294 Y120.579 E1.17201
G1 X99.999 Y120.619 E1.22377
G1 X98.705 Y120.579 E1.27554
G1 X97.415 Y120.457 E1.32731
G1 X96.135 Y120.254 E1.37908
G1 X94.871 Y119.971 E1.43084
G1 X93.627 Y119.610 E1.48261
G1 X92.408 Y119.171 E1.53438
G1 X91.219 Y118.657 E1.58615
G1 X90.065 Y118.068 E1.63791
G1 X88.950 Y117.409 E1.68968
G1 X87.878 Y116.681 E1.74145
G1 X86.855 Y115.887 E1.79321
G1 X85.883 Y115.030 E1.84498
G1 X84.967 Y114.114 E1.89675
G1 X83.834 Y112.829 E1.96522
G1 X97.015 Y103.252 E2.61627
G1 X97.648 Y103.690 E2.64702
G1 X98.136 Y103.958 E2.66928
G1 X98.656 Y104.164 E2.69164
G1 X98.901 Y104.236 E2.70185
G1 X99.449 Y104.340 E2.72412
G1 X100.506 Y104.400 E2.76643
G1 X105.522 Y119.837 E3.41507
G1 X105.024 Y119.588 F9600.000
G1 X103.789 Y119.864 E3.46564 F1800.000
G1 X102.534 Y120.063 E3.51641
G1 X101.269 Y120.183 E3.56718
G1 X99.999 Y120.223 E3.61796
G1 X98.730 Y120.183 E3.66873
G1 X97.465 Y120.063 E3.71950
G1 X96.210 Y119.864 E3.77027
G1 X94.970 Y119.587 E3.82104
G1 X93.750 Y119.233 E3.87182
G1 X92.554 Y118.802 E3.92259
G1 X91.388 Y118.298 E3.97336
G1 X90.256 Y117.721 E4.02413
G1 X89.162 Y117.074 E4.07490
G1 X88.111 Y116.360 E4.12568
G1 X87.108 Y115.581 E4.17645
G1 X86.154 Y114.741 E4.22722
G1 X85.256 Y113.843 E4.27799
G1 X84.419 Y112.893 E4.32856
G1 X97.020 Y103.738 E4.95097
G1 X97.439 Y104.028 E4.97131
G1 X97.967 Y104.318 E4.99537
G1 X98.527 Y104.540 E5.01947
G1 X98.809 Y104.621 E5.03118
G1 X99.400 Y104.734 E5.05525
G1 X100.213 Y104.780 E5.08777
G1 X105.010 Y119.546 E5.70816
G1 X105.099 Y119.879 F9600.000
G1 E4.70816 F1200.00000
G92 E0
G1 X100.510 Y102.673 F9600.000
G1 E1.00000 F1200.00000
G1 X99.999 Y102.722 E1.02049 F1800.000
G1 X99.489 Y102.673 E1.04098
G1 X98.997 Y102.530 E1.06147
G1 X98.538 Y102.297 E1.08202
G1 X98.129 Y101.976 E1.10279
G1 X97.901 Y101.733 E1.11613
G1 X97.695 Y101.448 E1.13015
G1 X97.467 Y101.000 E1.15025
G1 X97.324 Y100.508 E1.17074
G1 X97.275 Y99.998 E1.19123
G1 X97.324 Y99.487 E1.21171
G1 X97.467 Y98.995 E1.23220
G1 X97.699 Y98.538 E1.25269
G1 X98.014 Y98.133 E1.27318
G1 X98.398 Y97.794 E1.29367
G1 X98.840 Y97.533 E1.31416
G1 X99.313 Y97.362 E1.33425
G1 X99.658 Y97.297 E1.34828
G1 X99.991 Y97.275 E1.36161 F1800.000
G1 X100.508 Y97.321 E1.38239
G1 X101.002 Y97.465 E1.40294
G1 X101.459 Y97.698 E1.42343
G1 X101.864 Y98.012 E1.44392
G1 X102.204 Y98.398 E1.46447
G1 X102.467 Y98.846 E1.48524
G1 X102.589 Y99.157 E1.49858
G1 X102.676 Y99.497 E1.51261
G1 X102.724 Y99.998 E1.53270
G1 X102.675 Y100.510 E1.55325
G1 X102.528 Y101.008 E1.57403
G1 X102.385 Y101.310 E1.58736
G1 X102.197 Y101.606 E1.60139
G1 X101.864 Y101.983 E1.62148
G1 X101.459 Y102.298 E1.64197
G1 X101.002 Y102.530 E1.66246
G1 X100.553 Y102.661 E1.68115
G1 X100.435 Y102.282 F9600.000
G1 X99.999 Y102.324 E1.69865 F1800.000
G1 X99.564 Y102.282 E1.71614
G1 X99.143 Y102.160 E1.73363
G1 X98.753 Y101.961 E1.75115
G1 X98.398 Y101.683 E1.76917
G1 X98.208 Y101.480 E1.78030
G1 X98.034 Y101.241 E1.79210
G1 X97.837 Y100.854 E1.80945
G1 X97.715 Y100.433 E1.82694
G1 X97.673 Y99.998 E1.84444
G1 X97.715 Y99.562 E1.86193
G1 X97.837 Y99.141 E1.87943
G1 X98.036 Y98.751 E1.89692
G1 X98.304 Y98.405 E1.91442
G1 X98.632 Y98.116 E1.93191
G1 X99.009 Y97.893 E1.94940
G1 X99.418 Y97.746 E1.96676
G1 X99.708 Y97.691 E1.97856
G1 X99.986 Y97.672 E1.98969 F1800.000
G1 X100.435 Y97.713 E2.00770
G1 X100.856 Y97.835 E2.02522
G1 X101.246 Y98.034 E2.04271
G1 X101.592 Y98.302 E2.06021
G1 X101.882 Y98.631 E2.07772
G1 X102.109 Y99.020 E2.09574
G1 X102.211 Y99.279 E2.10687
G1 X102.285 Y99.565 E2.11867
G1 X102.325 Y99.998 E2.13602
G1 X102.284 Y100.434 E2.15354
G1 X102.156 Y100.866 E2.17156
G1 X102.037 Y101.118 E2.18269
G1 X101.879 Y101.367 E2.19449
G1 X101.592 Y101.693 E2.21184
G1 X101.246 Y101.962 E2.22933
G1 X100.856 Y102.160 E2.24683
G1 X100.479 Y102.270 E2.26252
G1 X100.328 Y102.562 F9600.000
G1 X102.049 Y103.463 F9600.000
G1 X102.702 Y103.432 E2.28862 F1800.000
G1 X102.996 Y103.189 E2.30388
G1 X103.379 Y102.781 E2.32624
G1 X103.691 Y102.352 E2.34743
G1 X103.959 Y101.863 E2.36971
G1 X104.343 Y100.876 E2.41201
G1 X120.620 Y100.876 E3.06245
G1 X120.459 Y102.582 E3.13093
G1 X120.256 Y103.862 E3.18269
G1 X119.973 Y105.126 E3.23446
G1 X119.612 Y106.370 E3.28623
G1 X119.173 Y107.589 E3.33799
G1 X118.658 Y108.778 E3.38976
G1 X118.070 Y109.932 E3.44153
G1 X117.411 Y111.047 E3.49329
G1 X116.683 Y112.119 E3.54506
G1 X115.889 Y113.142 E3.59683
G1 X115.032 Y114.114 E3.64860
G1 X114.116 Y115.030 E3.70037
G1 X113.144 Y115.887 E3.75213
G1 X112.121 Y116.681 E3.80390
G1 X111.049 Y117.409 E3.85567
G1 X109.934 Y118.068 E3.90743
G1 X108.780 Y118.657 E3.95920
G1 X107.207 Y119.337 E4.02767
G1 X102.063 Y103.506 E4.69283
G1 X102.587 Y103.834 F9600.000
G1 X102.853 Y103.822 E4.70347 F1800.000
G1 X103.268 Y103.478 E4.72500
G1 X103.681 Y103.038 E4.74911
G1 X104.029 Y102.559 E4.77278
G1 X104.319 Y102.031 E4.79686
G1 X104.614 Y101.273 E4.82937
G1 X120.184 Y101.273 E5.45156
G1 X120.065 Y102.532 E5.50213
G1 X119.866 Y103.787 E5.55291
G1 X119.589 Y105.027 E5.60368
G1 X119.235 Y106.248 E5.65445
G1 X118.804 Y107.443 E5.70522
G1 X118.300 Y108.609 E5.75599
G1 X117.723 Y109.741 E5.80676
G1 X117.076 Y110.835 E5.85753
G1 X116.362 Y111.886 E5.90831
G1 X115.583 Y112.890 E5.95908
G1 X114.743 Y113.843 E6.00985
G1 X113.844 Y114.741 E6.06063
G1 X112.891 Y115.581 E6.11140
G1 X111.888 Y116.360 E6.16217
G1 X110.837 Y117.074 E6.21294
G1 X109.743 Y117.721 E6.26371
G1 X108.611 Y118.298 E6.31448
G1 X107.450 Y118.800 E6.36505
G1 X102.601 Y103.877 E6.99207
G1 X102.550 Y103.571 F9600.000
G1 E5.99207 F1200.00000
G92 E0
G1 X104.343 Y99.119 F9600.000
G1 E1.00000 F1200.00000
G1 X103.959 Y98.132 E1.04231 F1800.000
G1 X103.691 Y97.643 E1.06458
G1 X103.377 Y97.212 E1.08592
G1 X102.996 Y96.807 E1.10813
G1 X102.702 Y96.563 E1.12339
G1 X102.049 Y96.532 E1.14949
G1 X107.207 Y80.658 E1.81645
G1 X108.780 Y81.339 E1.88492
G1 X109.934 Y81.927 E1.93668
G1 X111.049 Y82.586 E1.98845
G1 X112.121 Y83.314 E2.04022
G1 X113.144 Y84.108 E2.09199
G1 X114.116 Y84.965 E2.14375
G1 X115.032 Y85.881 E2.19552
G1 X115.889 Y86.853 E2.24729
G1 X116.683 Y87.877 E2.29906
G1 X117.411 Y88.948 E2.35083
G1 X118.070 Y90.063 E2.40259
G1 X118.658 Y91.217 E2.45436
G1 X119.173 Y92.406 E2.50613
G1 X119.612 Y93.625 E2.55789
G1 X119.973 Y94.869 E2.60966
G1 X120.256 Y96.133 E2.66143
G1 X120.459 Y97.413 E2.71319
G1 X120.620 Y99.119 E2.78167
G1 X104.388 Y99.119 E3.43031
G1 X104.614 Y98.723 F9600.000
G1 X104.319 Y97.964 E3.46282 F1800.000
G1 X104.029 Y97.436 E3.48690
G1 X103.678 Y96.954 E3.51073
G1 X103.268 Y96.517 E3.53467
G1 X102.853 Y96.174 E3.55621
G1 X102.587 Y96.161 E3.56685
G1 X107.450 Y81.195 E4.19567
G1 X108.611 Y81.697 E4.24623
G1 X109.743 Y82.274 E4.29701
G1 X110.837 Y82.921 E4.34778
G1 X111.888 Y83.635 E4.39855
G1 X112.891 Y84.414 E4.44932
G1 X113.844 Y85.254 E4.50009
G1 X114.743 Y86.153 E4.55087
G1 X115.583 Y87.106 E4.60164
G1 X116.362 Y88.110 E4.65241
G1 X117.076 Y89.160 E4.70318
G1 X117.723 Y90.254 E4.75395
G1 X118.300 Y91.386 E4.80472
G1 X118.804 Y92.552 E4.85550
G1 X119.235 Y93.748 E4.90627
G1 X119.589 Y94.968 E4.95704
G1 X119.866 Y96.208 E5.00781
G1 X120.065 Y97.463 E5.05858
G1 X120.184 Y98.723 E5.10915
G1 X104.659 Y98.723 E5.72955
G1 X104.323 Y98.796 F9600.000
G1 E4.72955 F1200.00000
G92 E0
G1 X100.506 Y95.596 F9600.000
G1 E1.00000 F1200.00000
G1 X99.449 Y95.655 E1.04231 F1800.000
G1 X98.901 Y95.760 E1.06458
G1 X98.656 Y95.831 E1.07480
G1 X98.130 Y96.039 E1.09740
G1 X97.901 Y96.156 E1.10768
G1 X97.002 Y96.734 E1.15037
G1 X83.834 Y87.166 E1.80081
G1 X84.967 Y85.881 E1.86928
G1 X85.883 Y84.965 E1.92105
G1 X86.855 Y84.108 E1.97282
G1 X87.878 Y83.314 E2.02458
G1 X88.950 Y82.586 E2.07635
G1 X90.065 Y81.927 E2.12812
G1 X91.219 Y81.339 E2.17989
G1 X92.408 Y80.824 E2.23165
G1 X93.627 Y80.385 E2.28342
G1 X94.871 Y80.024 E2.33519
G1 X96.135 Y79.741 E2.38696
G1 X97.415 Y79.539 E2.43872
G1 X98.705 Y79.417 E2.49049
G1 X99.992 Y79.376 E2.54194
G1 X101.294 Y79.417 E2.59402
G1 X102.584 Y79.539 E2.64579
G1 X103.864 Y79.741 E2.69756
G1 X105.536 Y80.115 E2.76603
G1 X100.520 Y95.553 E3.41467
G1 X100.213 Y95.215 F9600.000
G1 X99.400 Y95.261 E3.44719 F1800.000
G1 X98.809 Y95.374 E3.47126
G1 X98.527 Y95.455 E3.48296
G1 X97.967 Y95.677 E3.50705
G1 X97.703 Y95.811 E3.51888
G1 X97.016 Y96.254 E3.55154
G1 X84.419 Y87.102 E4.17373
G1 X85.256 Y86.153 E4.22430
G1 X86.154 Y85.254 E4.27507
G1 X87.108 Y84.414 E4.32584
G1 X88.111 Y83.635 E4.37661
G1 X89.162 Y82.921 E4.42739
G1 X90.256 Y82.274 E4.47816
G1 X91.388 Y81.697 E4.52893
G1 X92.554 Y81.193 E4.57970
G1 X93.750 Y80.762 E4.63047
G1 X94.970 Y80.408 E4.68125
G1 X96.210 Y80.131 E4.73202
G1 X97.465 Y79.932 E4.78279
G1 X98.730 Y79.812 E4.83356
G1 X99.992 Y79.773 E4.88402
G1 X101.269 Y79.812 E4.93510
G1 X102.534 Y79.932 E4.98588
G1 X103.789 Y80.131 E5.03665
G1 X105.024 Y80.407 E5.08722
G1 X100.227 Y95.172 E5.70761
G1 X100.193 Y95.514 F9600.000
G1 E4.70761 F1200.00000
G92 E0
G1 X95.969 Y98.156 F9600.000
G1 E1.00000 F1200.00000
G1 X95.697 Y99.189 E1.04269 F1800.000
G1 X95.657 Y99.443 E1.05297
G1 X95.622 Y99.998 E1.07518
G1 X95.657 Y100.556 E1.09754
G1 X95.697 Y100.806 E1.10767
G1 X95.969 Y101.840 E1.15037
G1 X82.801 Y111.407 E1.80081
G1 X81.929 Y109.932 E1.86928
G1 X81.341 Y108.778 E1.92104
G1 X80.826 Y107.589 E1.97281
G1 X80.387 Y106.370 E2.02458
G1 X80.026 Y105.126 E2.07635
G1 X79.743 Y103.862 E2.12811
G1 X79.540 Y102.582 E2.17988
G1 X79.419 Y101.292 E2.23165
G1 X79.378 Y99.998 E2.28342
G1 X79.419 Y98.703 E2.33518
G1 X79.540 Y97.413 E2.38695
G1 X79.743 Y96.133 E2.43872
G1 X80.026 Y94.869 E2.49049
G1 X80.387 Y93.625 E2.54225
G1 X80.826 Y92.406 E2.59402
G1 X81.341 Y91.217 E2.64579
G1 X81.932 Y90.057 E2.69784
G1 X82.801 Y88.588 E2.76603
G1 X95.933 Y98.129 E3.41466
G1 X95.517 Y98.317 F9600.000
G1 X95.309 Y99.107 E3.44732 F1800.000
G1 X95.262 Y99.399 E3.45915
G1 X95.225 Y99.998 E3.48310
G1 X95.263 Y100.600 E3.50720
G1 X95.309 Y100.888 E3.51887
G1 X95.517 Y101.678 E3.55153
G1 X82.920 Y110.830 E4.17372
G1 X82.276 Y109.741 E4.22429
G1 X81.699 Y108.609 E4.27506
G1 X81.195 Y107.443 E4.32583
G1 X80.764 Y106.248 E4.37660
G1 X80.410 Y105.027 E4.42738
G1 X80.133 Y103.787 E4.47815
G1 X79.934 Y102.532 E4.52892
G1 X79.814 Y101.268 E4.57969
G1 X79.774 Y99.998 E4.63046
G1 X79.814 Y98.728 E4.68123
G1 X79.934 Y97.463 E4.73201
G1 X80.133 Y96.208 E4.78278
G1 X80.410 Y94.968 E4.83355
G1 X80.764 Y93.748 E4.88432
G1 X81.195 Y92.552 E4.93509
G1 X81.699 Y91.386 E4.98587
G1 X82.280 Y90.248 E5.03692
G1 X82.920 Y89.165 E5.08721
G1 X95.481 Y98.290 E5.70760
G1 X95.795 Y98.428 F9600.000
G1 E4.70760 F1200.00000
G92 E0
G1 X78.509 Y94.103 F9600.000
G1 E1.00000 F1200.00000
G1 X76.760 Y92.689 E1.08987 F1800.000
G1 X77.310 Y91.132 E1.15586
G1 X79.528 Y91.125 E1.24450
G1 X79.769 Y90.758 E1.26203
G1 X81.385 Y87.752 E1.39842
G1 X80.158 Y85.868 E1.48830
G1 X81.162 Y84.553 E1.55441
G1 X83.305 Y85.245 E1.64439
G1 X86.082 Y82.595 E1.79776
G1 X85.497 Y80.422 E1.88767
G1 X86.853 Y79.483 E1.95359
G1 X88.677 Y80.801 E2.04351
G1 X92.139 Y79.148 E2.19683
G1 X92.253 Y76.900 E2.28675
G1 X93.841 Y76.429 E2.35295
G1 X95.182 Y78.269 E2.44390
G1 X96.172 Y78.077 E2.48422
G1 X98.966 Y77.748 E2.59664
G1 X99.768 Y75.641 E2.68672
G1 X101.421 Y75.676 E2.75280
G1 X102.112 Y77.784 E2.84143
G1 X102.535 Y77.899 E2.85899
G1 X105.895 Y78.506 E2.99542
G1 X107.308 Y76.758 E3.08522
G1 X108.865 Y77.308 E3.15121
G1 X108.872 Y79.526 E3.23985
G1 X109.239 Y79.767 E3.25738
G1 X112.244 Y81.383 E3.39374
G1 X114.129 Y80.160 E3.48354
G1 X115.445 Y81.165 E3.54970
G1 X114.764 Y83.275 E3.63829
G1 X115.040 Y83.618 E3.65587
G1 X117.403 Y86.079 E3.79221
G1 X119.574 Y85.495 E3.88205
G1 X120.513 Y86.852 E3.94797
G1 X119.196 Y88.676 E4.03788
G1 X120.856 Y92.142 E4.19148
G1 X123.098 Y92.256 E4.28118
G1 X123.568 Y93.840 E4.34721
G1 X121.736 Y95.177 E4.43785
G1 X121.920 Y96.168 E4.47814
G1 X122.254 Y98.962 E4.59057
G1 X124.360 Y99.772 E4.68074
G1 X124.323 Y101.424 E4.74678
G1 X122.188 Y102.125 E4.83658
G1 X121.491 Y105.897 E4.98985
G1 X123.240 Y107.312 E5.07975
G1 X122.690 Y108.869 E5.14574
G1 X120.472 Y108.875 E5.23438
G1 X120.231 Y109.242 E5.25192
G1 X118.614 Y112.248 E5.38831
G1 X119.842 Y114.132 E5.47819
G1 X118.837 Y115.447 E5.54432
G1 X116.728 Y114.766 E5.63288
G1 X116.386 Y115.041 E5.65044
G1 X113.917 Y117.400 E5.78690
G1 X114.503 Y119.577 E5.87698
G1 X113.146 Y120.512 E5.94280
G1 X111.322 Y119.194 E6.03273
G1 X107.860 Y120.847 E6.18602
G1 X107.743 Y123.100 E6.27615
G1 X106.158 Y123.567 E6.34218
G1 X104.820 Y121.734 E6.43285
G1 X103.829 Y121.918 E6.47314
G1 X101.033 Y122.253 E6.58563
G1 X100.230 Y124.363 E6.67587
G1 X98.579 Y124.325 E6.74188
G1 X97.877 Y122.184 E6.83191
G1 X94.099 Y121.496 E6.98537
G1 X92.691 Y123.237 E7.07487
G1 X91.134 Y122.687 E7.14086
G1 X91.128 Y120.474 E7.22930
G1 X90.761 Y120.233 E7.24684
G1 X87.756 Y118.617 E7.38320
