; generated by Slic3r 1.2.9 on 2016-06-14 at 16:38:43

; H1_0.30
; H11_0.25
; H12_0.45
; H13_0.25
; H14_0.45
; H15_False
; H5_False
; H6_False
; H4_5
; H3_60
; H2_QUJTLUZEUGxhc3QtMjQw
; H31_False
; H32_1.00
; H33_True
; H34_70
; H35_1.50
; H36_False
; H37_True
; H23_240
; H22_240
; H25_110
; H24_110
; H21_0.97
; H26_600.00
; H27_1
; H7_0

; external perimeters extrusion width = 0.45mm
; perimeters extrusion width = 0.45mm
; infill extrusion width = 0.45mm
; solid infill extrusion width = 0.45mm
; top infill extrusion width = 0.30mm

M107
M85 S600
M104 S200
M190 S110
M109 S240
G28
G90
G1 X20 Y0 F10000
G21 ; set units to millimeters
G90 ; use absolute coordinates
M82 ; use absolute distances for extrusion
G92 E0
G1 Z0.250 F9600.000
G1 E-1.00000 F1200.00000
G92 E0
G1 X81.372 Y78.594 F9600.000
G1 E1.00000 F1200.00000
G1 X81.767 Y78.240 E1.02121 F1800.000
G1 X83.779 Y76.702 E1.12241
G1 X84.223 Y76.415 E1.14356
G1 X88.896 Y73.882 E1.35596
G1 X89.384 Y73.665 E1.37729
G1 X91.769 Y72.824 E1.47834
G1 X92.284 Y72.686 E1.49965
G1 X97.510 Y71.724 E1.71201
G1 X98.047 Y71.668 E1.73358
G1 X100.577 Y71.610 E1.83469
G1 X101.105 Y71.639 E1.85584
G1 X106.365 Y72.343 E2.06788 F1800.000
G1 X106.880 Y72.453 E2.08892
G1 X109.311 Y73.173 E2.19023
G1 X109.811 Y73.366 E2.21164
G1 X114.604 Y75.658 E2.42397
G1 X115.073 Y75.930 E2.44562
G1 X117.151 Y77.369 E2.54661
G1 X117.560 Y77.702 E2.56769
G1 X121.407 Y81.368 E2.78006
G1 X121.763 Y81.765 E2.80135
G1 X123.301 Y83.777 E2.90255
G1 X123.590 Y84.223 E2.92379
G1 X126.117 Y88.895 E3.13607
G1 X126.333 Y89.381 E3.15730
G1 X127.175 Y91.766 E3.25835
G1 X127.312 Y92.281 E3.27966
G1 X128.275 Y97.507 E3.49202
G1 X128.330 Y98.046 E3.51364
G1 X128.387 Y100.575 E3.61475
G1 X128.358 Y101.102 E3.63582
G1 X127.655 Y106.367 E3.84810
G1 X127.544 Y106.884 E3.86920
G1 X126.825 Y109.309 E3.97028
G1 X126.633 Y109.808 E3.99164
G1 X124.338 Y114.606 E4.20416
G1 X124.067 Y115.074 E4.22578
G1 X122.629 Y117.152 E4.32676
G1 X122.294 Y117.563 E4.34795
G1 X118.629 Y121.406 E4.56016
G1 X118.233 Y121.760 E4.58138
G1 X116.221 Y123.298 E4.68258
G1 X115.775 Y123.587 E4.70381
G1 X111.103 Y126.115 E4.91609
G1 X110.617 Y126.330 E4.93733
G1 X108.232 Y127.172 E5.03838
G1 X107.720 Y127.309 E5.05957
G1 X102.493 Y128.276 E5.27200
G1 X101.953 Y128.332 E5.29368
G1 X99.423 Y128.390 E5.39480
G1 X98.892 Y128.360 E5.41607
G1 X93.633 Y127.652 E5.62810
G1 X93.127 Y127.544 E5.64879
G1 X90.700 Y126.829 E5.74988
G1 X90.192 Y126.634 E5.77163
G1 X85.394 Y124.335 E5.98422
G1 X84.935 Y124.069 E6.00542
G1 X82.856 Y122.637 E6.10630
G1 X82.441 Y122.299 E6.12771
G1 X78.593 Y118.633 E6.34008
G1 X78.236 Y118.235 E6.36141
G1 X76.699 Y116.222 E6.46263
G1 X76.411 Y115.777 E6.48382
G1 X73.883 Y111.106 E6.69606
G1 X73.667 Y110.620 E6.71732
G1 X72.825 Y108.235 E6.81836
G1 X72.688 Y107.720 E6.83968
G1 X71.726 Y102.492 E7.05208
G1 X71.670 Y101.954 E7.07369
G1 X71.613 Y99.426 E7.17475
G1 X71.642 Y98.899 E7.19583
G1 X72.345 Y93.634 E7.40811
G1 X72.456 Y93.118 E7.42920
G1 X73.175 Y90.692 E7.53032
G1 X73.367 Y90.192 E7.55169
G1 X75.662 Y85.394 E7.76422
G1 X75.933 Y84.926 E7.78583
G1 X77.371 Y82.849 E7.88680
G1 X77.706 Y82.437 E7.90800
G1 X81.340 Y78.627 E8.11841
G1 E7.11841 F1200.00000
G92 E0
G1 X116.166 Y112.829 F9600.000
G1 E1.00000 F1200.00000
G1 X115.033 Y114.114 E1.06847 F1800.000
G1 X114.117 Y115.030 E1.12024
G1 X113.145 Y115.887 E1.17201
G1 X112.122 Y116.681 E1.22377
G1 X111.050 Y117.409 E1.27554
G1 X109.935 Y118.068 E1.32731
G1 X108.781 Y118.657 E1.37908
G1 X107.592 Y119.171 E1.43084
G1 X106.373 Y119.610 E1.48261
G1 X105.129 Y119.971 E1.53438
G1 X103.865 Y120.254 E1.58615
G1 X102.585 Y120.457 E1.63791
G1 X101.295 Y120.579 E1.68968
G1 X100.001 Y120.619 E1.74145
G1 X98.706 Y120.579 E1.79322
G1 X97.416 Y120.457 E1.84498
G1 X96.136 Y120.254 E1.89675
G1 X94.464 Y119.880 E1.96522
G1 X99.494 Y104.400 E2.61566
G1 X100.551 Y104.340 E2.65797
G1 X101.099 Y104.236 E2.68024
G1 X101.344 Y104.164 E2.69046
G1 X101.870 Y103.956 E2.71306
G1 X102.101 Y103.839 E2.72342
G1 X102.582 Y103.533 E2.74619
G1 X102.964 Y103.237 E2.76551
G1 X116.130 Y112.802 E3.41580
G1 X115.581 Y112.893 F9600.000
G1 X114.744 Y113.843 E3.46636 F1800.000
G1 X113.846 Y114.741 E3.51714
G1 X112.892 Y115.581 E3.56791
G1 X111.889 Y116.360 E3.61868
G1 X110.838 Y117.074 E3.66946
G1 X109.744 Y117.721 E3.72023
G1 X108.612 Y118.298 E3.77100
G1 X107.446 Y118.802 E3.82177
G1 X106.250 Y119.233 E3.87254
G1 X105.030 Y119.587 E3.92331
G1 X103.790 Y119.864 E3.97408
G1 X102.535 Y120.063 E4.02486
G1 X101.270 Y120.183 E4.07563
G1 X100.001 Y120.223 E4.12640
G1 X98.731 Y120.183 E4.17717
G1 X97.466 Y120.063 E4.22794
G1 X96.211 Y119.864 E4.27872
G1 X94.976 Y119.588 E4.32928
G1 X99.787 Y104.780 E4.95148
G1 X100.600 Y104.734 E4.98399
G1 X101.191 Y104.621 E5.00806
G1 X101.473 Y104.540 E5.01977
G1 X102.033 Y104.318 E5.04386
G1 X102.298 Y104.183 E5.05572
G1 X102.810 Y103.858 E5.07998
G1 X102.972 Y103.733 E5.08816
G1 X115.545 Y112.867 E5.70915
G1 X115.812 Y113.085 F9600.000
G1 E4.70915 F1200.00000
G92 E0
G1 X102.042 Y101.929 F9600.000
G1 E1.00000 F1200.00000
G1 X101.791 Y102.164 E1.01372 F1800.000
G1 X101.499 Y102.376 E1.02819
G1 X101.036 Y102.612 E1.04894
G1 X100.527 Y102.760 E1.07009
G1 X100.001 Y102.810 E1.09124
G1 X99.474 Y102.760 E1.11239
G1 X98.975 Y102.615 E1.13315
G1 X98.647 Y102.461 E1.14765
G1 X98.340 Y102.266 E1.16214
G1 X97.951 Y101.923 E1.18290
G1 X97.626 Y101.504 E1.20405
G1 X97.386 Y101.033 E1.22520
G1 X97.238 Y100.525 E1.24635
G1 X97.188 Y99.998 E1.26750
G1 X97.238 Y99.471 E1.28865
G1 X97.386 Y98.962 E1.30980
G1 X97.626 Y98.491 E1.33095
G1 X97.951 Y98.073 E1.35210
G1 X98.348 Y97.723 E1.37325
G1 X98.803 Y97.453 E1.39440
G1 X99.292 Y97.277 E1.41516
G1 X99.648 Y97.209 E1.42962
G1 X99.990 Y97.187 E1.44334 F1800.000
G1 X100.526 Y97.235 E1.46483
G1 X101.036 Y97.383 E1.48605
G1 X101.507 Y97.623 E1.50720
G1 X101.918 Y97.942 E1.52796
G1 X102.166 Y98.206 E1.54245
G1 X102.379 Y98.500 E1.55695
G1 X102.615 Y98.962 E1.57771
G1 X102.763 Y99.471 E1.59886
G1 X102.813 Y99.998 E1.62001
G1 X102.763 Y100.525 E1.64116
G1 X102.615 Y101.033 E1.66231
G1 X102.374 Y101.506 E1.68352
G1 X102.070 Y101.894 E1.70322
G1 X101.749 Y101.661 F9600.000
G1 X101.539 Y101.857 E1.71473 F1800.000
G1 X101.291 Y102.037 E1.72698
G1 X100.889 Y102.242 E1.74499
G1 X100.453 Y102.369 E1.76314
G1 X100.001 Y102.412 E1.78130
G1 X99.548 Y102.369 E1.79946
G1 X99.115 Y102.243 E1.81747
G1 X98.838 Y102.112 E1.82972
G1 X98.579 Y101.948 E1.84198
G1 X98.241 Y101.650 E1.85999
G1 X97.962 Y101.291 E1.87814
G1 X97.756 Y100.886 E1.89630
G1 X97.629 Y100.450 E1.91446
G1 X97.587 Y99.998 E1.93261
G1 X97.629 Y99.545 E1.95077
G1 X97.756 Y99.109 E1.96892
G1 X97.962 Y98.704 E1.98708
G1 X98.241 Y98.345 E2.00523
G1 X98.582 Y98.045 E2.02339
G1 X98.973 Y97.813 E2.04155
G1 X99.397 Y97.661 E2.05956
G1 X99.698 Y97.603 E2.07180
G1 X99.985 Y97.585 E2.08332 F1800.000
G1 X100.452 Y97.626 E2.10205
G1 X100.889 Y97.753 E2.12023
G1 X101.294 Y97.959 E2.13839
G1 X101.650 Y98.236 E2.15640
G1 X101.860 Y98.459 E2.16865
G1 X102.040 Y98.707 E2.18091
G1 X102.245 Y99.109 E2.19892
G1 X102.372 Y99.545 E2.21707
G1 X102.414 Y99.998 E2.23523
G1 X102.372 Y100.450 E2.25339
G1 X102.245 Y100.886 E2.27154
G1 X102.038 Y101.292 E2.28972
G1 X101.777 Y101.625 E2.30666
G1 X101.829 Y101.937 F9600.000
G1 E1.30666 F1200.00000
G92 E0
G1 X102.998 Y96.734 F9600.000
G1 E1.00000 F1200.00000
G1 X102.099 Y96.155 E1.04270 F1800.000
G1 X101.873 Y96.040 E1.05283
G1 X101.344 Y95.831 E1.07558
G1 X101.099 Y95.760 E1.08579
G1 X100.551 Y95.655 E1.10806
G1 X99.494 Y95.596 E1.15037
G1 X94.464 Y80.115 E1.80081
G1 X96.136 Y79.741 E1.86928
G1 X97.416 Y79.539 E1.92105
G1 X98.706 Y79.417 E1.97282
G1 X99.993 Y79.376 E2.02427
G1 X101.295 Y79.417 E2.07635
G1 X102.585 Y79.539 E2.12812
G1 X103.865 Y79.741 E2.17989
G1 X105.129 Y80.024 E2.23165
G1 X106.373 Y80.385 E2.28342
G1 X107.592 Y80.824 E2.33519
G1 X108.781 Y81.339 E2.38696
G1 X109.935 Y81.927 E2.43872
G1 X111.050 Y82.586 E2.49049
G1 X112.122 Y83.314 E2.54226
G1 X113.145 Y84.108 E2.59402
G1 X114.117 Y84.965 E2.64579
G1 X115.033 Y85.881 E2.69756
G1 X116.166 Y87.166 E2.76603
G1 X103.034 Y96.707 E3.41467
G1 X102.984 Y96.254 F9600.000
G1 X102.297 Y95.811 E3.44733 F1800.000
G1 X102.037 Y95.679 E3.45900
G1 X101.473 Y95.455 E3.48325
G1 X101.191 Y95.374 E3.49495
G1 X100.600 Y95.261 E3.51902
G1 X99.787 Y95.215 E3.55154
G1 X94.976 Y80.407 E4.17373
G1 X96.211 Y80.131 E4.22430
G1 X97.466 Y79.932 E4.27507
G1 X98.731 Y79.812 E4.32584
G1 X99.993 Y79.773 E4.37630
G1 X101.270 Y79.812 E4.42738
G1 X102.535 Y79.932 E4.47816
G1 X103.790 Y80.131 E4.52893
G1 X105.030 Y80.408 E4.57970
G1 X106.250 Y80.762 E4.63047
G1 X107.446 Y81.193 E4.68125
G1 X108.612 Y81.697 E4.73202
G1 X109.744 Y82.274 E4.78279
G1 X110.838 Y82.921 E4.83356
G1 X111.889 Y83.635 E4.88433
G1 X112.892 Y84.414 E4.93510
G1 X113.846 Y85.254 E4.98587
G1 X114.744 Y86.153 E5.03665
G1 X115.581 Y87.102 E5.08722
G1 X103.021 Y96.227 E5.70761
G1 X102.792 Y96.484 F9600.000
G1 E4.70761 F1200.00000
G92 E0
G1 X97.951 Y96.532 F9600.000
G1 E1.00000 F1200.00000
G1 X97.298 Y96.563 E1.02610 F1800.000
G1 X97.004 Y96.807 E1.04136
G1 X96.621 Y97.214 E1.06371
G1 X96.307 Y97.647 E1.08505
G1 X96.041 Y98.132 E1.10718
G1 X95.657 Y99.119 E1.14949
G1 X79.380 Y99.119 E1.79993
G1 X79.541 Y97.413 E1.86840
G1 X79.744 Y96.133 E1.92017
G1 X80.027 Y94.869 E1.97193
G1 X80.388 Y93.625 E2.02370
G1 X80.827 Y92.406 E2.07547
G1 X81.342 Y91.217 E2.12724
G1 X81.930 Y90.063 E2.17900
G1 X82.589 Y88.948 E2.23077
G1 X83.317 Y87.877 E2.28254
G1 X84.111 Y86.853 E2.33430
G1 X84.968 Y85.881 E2.38607
G1 X85.884 Y84.965 E2.43784
G1 X86.856 Y84.108 E2.48961
G1 X87.879 Y83.314 E2.54137
G1 X88.951 Y82.586 E2.59314
G1 X90.066 Y81.927 E2.64491
G1 X91.227 Y81.336 E2.69696
G1 X92.793 Y80.658 E2.76515
G1 X97.937 Y96.489 E3.43031
G1 X97.413 Y96.161 F9600.000
G1 X97.147 Y96.174 E3.44095 F1800.000
G1 X96.732 Y96.517 E3.46248
G1 X96.319 Y96.957 E3.48658
G1 X95.969 Y97.439 E3.51041
G1 X95.681 Y97.964 E3.53433
G1 X95.386 Y98.723 E3.56685
G1 X79.816 Y98.723 E4.18904
G1 X79.935 Y97.463 E4.23961
G1 X80.134 Y96.208 E4.29038
G1 X80.411 Y94.968 E4.34115
G1 X80.765 Y93.748 E4.39192
G1 X81.196 Y92.552 E4.44269
G1 X81.700 Y91.386 E4.49347
G1 X82.277 Y90.254 E4.54424
G1 X82.924 Y89.160 E4.59501
G1 X83.638 Y88.110 E4.64578
G1 X84.417 Y87.106 E4.69655
G1 X85.257 Y86.153 E4.74732
G1 X86.155 Y85.254 E4.79810
G1 X87.109 Y84.414 E4.84887
G1 X88.112 Y83.635 E4.89964
G1 X89.163 Y82.921 E4.95041
G1 X90.257 Y82.274 E5.00119
G1 X91.396 Y81.695 E5.05224
G1 X92.550 Y81.195 E5.10252
G1 X97.399 Y96.118 E5.72954
G1 X97.450 Y96.425 F9600.000
G1 E4.72954 F1200.00000
G92 E0
G1 X95.657 Y100.876 F9600.000
G1 E1.00000 F1200.00000
G1 X96.041 Y101.863 E1.04231 F1800.000
G1 X96.309 Y102.352 E1.06458
G1 X96.623 Y102.783 E1.08592
G1 X97.004 Y103.189 E1.10813
G1 X97.298 Y103.432 E1.12339
G1 X97.951 Y103.463 E1.14949
G1 X92.793 Y119.337 E1.81644
G1 X91.220 Y118.657 E1.88492
G1 X90.066 Y118.068 E1.93668
G1 X88.951 Y117.409 E1.98845
G1 X87.879 Y116.681 E2.04022
G1 X86.856 Y115.887 E2.09199
G1 X85.884 Y115.030 E2.14375
G1 X84.968 Y114.114 E2.19552
G1 X84.111 Y113.142 E2.24729
G1 X83.317 Y112.119 E2.29906
G1 X82.589 Y111.047 E2.35082
G1 X81.930 Y109.932 E2.40259
G1 X81.342 Y108.778 E2.45436
G1 X80.827 Y107.589 E2.50612
G1 X80.388 Y106.370 E2.55789
G1 X80.027 Y105.126 E2.60966
G1 X79.744 Y103.862 E2.66143
G1 X79.541 Y102.582 E2.71319
G1 X79.380 Y100.876 E2.78167
G1 X95.612 Y100.876 E3.43031
G1 X95.386 Y101.273 F9600.000
G1 X95.681 Y102.031 E3.46282 F1800.000
G1 X95.971 Y102.559 E3.48690
G1 X96.322 Y103.041 E3.51073
G1 X96.732 Y103.478 E3.53467
G1 X97.147 Y103.822 E3.55621
G1 X97.413 Y103.834 E3.56685
G1 X92.550 Y118.800 E4.19566
G1 X91.389 Y118.298 E4.24623
G1 X90.257 Y117.721 E4.29700
G1 X89.163 Y117.074 E4.34777
G1 X88.112 Y116.360 E4.39855
G1 X87.109 Y115.581 E4.44932
G1 X86.155 Y114.741 E4.50009
G1 X85.257 Y113.843 E4.55087
G1 X84.417 Y112.890 E4.60164
G1 X83.638 Y111.886 E4.65241
G1 X82.924 Y110.835 E4.70318
G1 X82.277 Y109.741 E4.75395
G1 X81.700 Y108.609 E4.80472
G1 X81.196 Y107.443 E4.85549
G1 X80.765 Y106.248 E4.90627
G1 X80.411 Y105.027 E4.95704
G1 X80.134 Y103.787 E5.00781
G1 X79.935 Y102.532 E5.05858
G1 X79.816 Y101.273 E5.10915
G1 X95.341 Y101.273 E5.72954
G1 X95.677 Y101.199 F9600.000
G1 E4.72954 F1200.00000
G92 E0
G1 X104.031 Y101.840 F9600.000
G1 E1.00000 F1200.00000
G1 X104.303 Y100.807 E1.04269 F1800.000
G1 X104.343 Y100.552 E1.05297
G1 X104.378 Y99.998 E1.07518
G1 X104.343 Y99.439 E1.09754
G1 X104.303 Y99.189 E1.10767
G1 X104.031 Y98.156 E1.15037
G1 X117.199 Y88.588 E1.80080
G1 X118.071 Y90.063 E1.86927
G1 X118.659 Y91.217 E1.92104
G1 X119.174 Y92.406 E1.97281
G1 X119.613 Y93.625 E2.02457
G1 X119.974 Y94.869 E2.07634
G1 X120.257 Y96.133 E2.12811
G1 X120.460 Y97.413 E2.17988
G1 X120.581 Y98.703 E2.23165
G1 X120.622 Y99.998 E2.28341
G1 X120.581 Y101.292 E2.33518
G1 X120.460 Y102.582 E2.38695
G1 X120.257 Y103.862 E2.43871
G1 X119.974 Y105.126 E2.49048
G1 X119.613 Y106.370 E2.54225
G1 X119.174 Y107.589 E2.59402
G1 X118.659 Y108.778 E2.64578
G1 X118.071 Y109.932 E2.69755
G1 X117.199 Y111.407 E2.76602
G1 X104.067 Y101.866 E3.41466
G1 X104.483 Y101.678 F9600.000
G1 X104.691 Y100.888 E3.44731 F1800.000
G1 X104.738 Y100.596 E3.45914
G1 X104.775 Y99.998 E3.48309
G1 X104.737 Y99.396 E3.50719
G1 X104.691 Y99.107 E3.51887
G1 X104.483 Y98.317 E3.55153
G1 X117.080 Y89.165 E4.17372
G1 X117.724 Y90.254 E4.22428
G1 X118.301 Y91.386 E4.27505
G1 X118.805 Y92.552 E4.32583
G1 X119.236 Y93.748 E4.37660
G1 X119.590 Y94.968 E4.42737
G1 X119.867 Y96.208 E4.47814
G1 X120.066 Y97.463 E4.52891
G1 X120.186 Y98.728 E4.57969
G1 X120.226 Y99.998 E4.63046
G1 X120.186 Y101.268 E4.68123
G1 X120.066 Y102.532 E4.73200
G1 X119.867 Y103.787 E4.78277
G1 X119.590 Y105.027 E4.83354
G1 X119.236 Y106.248 E4.88432
G1 X118.805 Y107.443 E4.93509
G1 X118.301 Y108.609 E4.98586
G1 X117.724 Y109.741 E5.03663
G1 X117.080 Y110.830 E5.08720
G1 X104.519 Y101.705 E5.70759
G1 X104.205 Y101.567 F9600.000
G1 E4.70759 F1200.00000
G92 E0
G1 X120.856 Y107.859 F9600.000
G1 E1.00000 F1200.00000
G1 X119.196 Y111.324 E1.15356 F1800.000
G1 X120.513 Y113.148 E1.24347
G1 X119.575 Y114.505 E1.30938
G1 X117.410 Y113.922 E1.39896
G1 X115.041 Y116.381 E1.53541
G1 X114.764 Y116.724 E1.55302
G1 X115.445 Y118.835 E1.64164
G1 X114.130 Y119.840 E1.70779
G1 X112.244 Y118.617 E1.79759
G1 X109.239 Y120.233 E1.93395
G1 X108.872 Y120.474 E1.95149
G1 X108.866 Y122.687 E2.03994
G1 X107.309 Y123.237 E2.10592
G1 X105.901 Y121.496 E2.19542
G1 X102.123 Y122.184 E2.34888
G1 X101.421 Y124.325 E2.43891
G1 X99.770 Y124.363 E2.50492
G1 X98.967 Y122.253 E2.59516
G1 X96.171 Y121.918 E2.70765
G1 X95.180 Y121.734 E2.74794
G1 X93.842 Y123.567 E2.83861
G1 X92.257 Y123.100 E2.90465
G1 X92.140 Y120.847 E2.99477
G1 X88.678 Y119.194 E3.14807
G1 X86.854 Y120.512 E3.23799
G1 X85.497 Y119.577 E3.30381
G1 X86.083 Y117.400 E3.39389
G1 X83.614 Y115.041 E3.53036
G1 X83.272 Y114.766 E3.54791
G1 X81.163 Y115.447 E3.63647
G1 X80.158 Y114.132 E3.70261
G1 X81.386 Y112.248 E3.79248
G1 X79.769 Y109.242 E3.92887
G1 X79.528 Y108.875 E3.94641
G1 X77.310 Y108.869 E4.03506
G1 X76.760 Y107.312 E4.10105
G1 X78.509 Y105.897 E4.19094
G1 X77.812 Y102.125 E4.34421
G1 X75.677 Y101.424 E4.43402
G1 X75.640 Y99.772 E4.50006
G1 X77.746 Y98.962 E4.59022
G1 X78.080 Y96.168 E4.70266
G1 X78.264 Y95.177 E4.74294
G1 X76.432 Y93.840 E4.83358
G1 X76.902 Y92.256 E4.89961
G1 X79.144 Y92.142 E4.98932
G1 X80.804 Y88.676 E5.14292
G1 X79.487 Y86.852 E5.23282
G1 X80.426 Y85.495 E5.29874
G1 X82.597 Y86.079 E5.38858
G1 X84.960 Y83.618 E5.52492
G1 X85.236 Y83.275 E5.54250
G1 X84.555 Y81.165 E5.63110
G1 X85.871 Y80.160 E5.69725
G1 X87.756 Y81.383 E5.78705
G1 X90.761 Y79.767 E5.92341
G1 X91.128 Y79.526 E5.94094
G1 X91.135 Y77.308 E6.02958
G1 X92.692 Y76.758 E6.09557
G1 X94.105 Y78.507 E6.18541
G1 X97.877 Y77.817 E6.33865
G1 X98.579 Y75.675 E6.42871
G1 X100.230 Y75.637 E6.49468
G1 X100.884 Y77.368 E6.56864
G1 X101.069 Y77.752 E6.58568
G1 X103.828 Y78.077 E6.69669
G1 X104.818 Y78.269 E6.73701
G1 X106.159 Y76.429 E6.82796
G1 X107.747 Y76.900 E6.89416
G1 X107.861 Y79.148 E6.98408
