; G-Code generated by Simplify3D(R) Version 3.0.0
; фев 4, 2016 at 7:59:42 
; Settings Summary
;   processName,Process1
;   applyToModels,battery-aa-holder-4-mod3
;   profileName,Builder (modified)
;   profileVersion,2016-01-09 13:44:58
;   baseProfile,Default
;   printMaterial,ABS
;   printQuality,Medium
;   printExtruders,
;   extruderName,Extruder 1
;   extruderToolheadNumber,0
;   extruderDiameter,0.5
;   extruderAutoWidth,0
;   extruderWidth,0.64
;   extrusionMultiplier,1.01
;   extruderUseRetract,1
;   extruderRetractionDistance,4
;   extruderExtraRestartDistance,-0.2
;   extruderRetractionZLift,0
;   extruderRetractionSpeed,2400
;   extruderUseCoasting,1
;   extruderCoastingDistance,0.2
;   extruderUseWipe,0
;   extruderWipeDistance,5
;   primaryExtruder,0
;   layerHeight,0.2
;   topSolidLayers,3
;   bottomSolidLayers,3
;   perimeterOutlines,1
;   printPerimetersInsideOut,0
;   startPointOption,2
;   startPointOriginX,0
;   startPointOriginY,0
;   startPointOriginZ,300
;   sequentialIslands,0
;   spiralVaseMode,0
;   firstLayerHeightPercentage,80
;   firstLayerWidthPercentage,100
;   firstLayerUnderspeed,0.2
;   useRaft,0
;   raftExtruder,0
;   raftLayers,3
;   raftOffset,3
;   raftSeparationDistance,0.14
;   raftInfill,85
;   disableRaftBaseLayers,0
;   useSkirt,1
;   skirtExtruder,0
;   skirtLayers,1
;   skirtOutlines,1
;   skirtOffset,0.3
;   usePrimePillar,0
;   primePillarExtruder,999
;   primePillarWidth,12
;   primePillarLocation,7
;   primePillarSpeedMultiplier,1
;   useOozeShield,0
;   oozeShieldExtruder,999
;   oozeShieldOffset,2
;   oozeShieldOutlines,1
;   oozeShieldSidewallShape,1
;   oozeShieldSidewallAngle,30
;   oozeShieldSpeedMultiplier,1
;   infillExtruder,0
;   internalInfillPattern,Wiggle
;   externalInfillPattern,Rectilinear
;   infillPercentage,14
;   outlineOverlapPercentage,15
;   infillExtrusionWidthPercentage,100
;   minInfillLength,5
;   infillLayerInterval,1
;   infillAngles,0
;   overlapInfillAngles,0
;   generateSupport,1
;   supportExtruder,0
;   supportInfillPercentage,30
;   supportExtraInflation,0
;   denseSupportLayers,0
;   denseSupportInfillPercentage,70
;   supportLayerInterval,1
;   supportHorizontalPartOffset,0.3
;   supportUpperSeparationLayers,1
;   supportLowerSeparationLayers,1
;   supportType,0
;   supportGridSpacing,4
;   maxOverhangAngle,45
;   supportAngles,0
;   temperatureName,Extruder 1 Temperature,Heated Bed
;   temperatureNumber,0,1
;   temperatureSetpointCount,2,1
;   temperatureSetpointLayers,1,1,1
;   temperatureSetpointTemperatures,240,225,110
;   temperatureStabilizeAtStartup,1,1
;   temperatureHeatedBed,0,1
;   temperatureRelayBetweenLayers,0,0
;   temperatureRelayBetweenLoops,0,0
;   fanLayers,1
;   fanSpeeds,0
;   blipFanToFullPower,0
;   adjustSpeedForCooling,1
;   minSpeedLayerTime,10
;   minCoolingSpeedSlowdown,20
;   increaseFanForCooling,0
;   minFanLayerTime,45
;   maxCoolingFanSpeed,100
;   increaseFanForBridging,0
;   bridgingFanSpeed,100
;   use5D,1
;   relativeEdistances,0
;   allowEaxisZeroing,1
;   independentExtruderAxes,0
;   includeM10123,0
;   stickySupport,1
;   applyToolheadOffsets,0
;   gcodeXoffset,0
;   gcodeYoffset,0
;   gcodeZoffset,0
;   overrideMachineDefinition,1
;   machineTypeOverride,0
;   strokeXoverride,190
;   strokeYoverride,190
;   strokeZoverride,190
;   originOffsetXoverride,0
;   originOffsetYoverride,0
;   originOffsetZoverride,0
;   homeXdirOverride,-1
;   homeYdirOverride,-1
;   homeZdirOverride,-1
;   flipXoverride,1
;   flipYoverride,-1
;   flipZoverride,1
;   toolheadOffsets,0,0|0,0|0,0|0,0|0,0|0,0
;   overrideFirmwareConfiguration,1
;   firmwareTypeOverride,RepRap (Marlin/Repetier/Sprinter)
;   GPXconfigOverride,r2
;   baudRateOverride,230400
;   overridePrinterModels,0
;   printerModelsOverride
;   startingGcode,G28 ; home all axes
;   layerChangeGcode,
;   retractionGcode,
;   toolChangeGcode,
;   endingGcode,M104 S0 ; turn off extruder,M140 S0 ; turn off bed,G28 X0;,M84 ; disable motors
;   createX3G,0
;   celebration,0
;   celebrationSong,Random Song
;   createMB5G,0
;   postProcessing,
;   defaultSpeed,3600
;   outlineUnderspeed,0.5
;   solidInfillUnderspeed,0.8
;   supportUnderspeed,0.8
;   rapidXYspeed,4800
;   rapidZspeed,1002
;   minBridgingArea,50
;   bridgingExtraInflation,0
;   bridgingExtrusionMultiplier,1
;   bridgingSpeedMultiplier,1
;   filamentDiameter,1.75
;   filamentPricePerKg,46
;   filamentDensity,1.25
;   useMinPrintHeight,0
;   minPrintHeight,5
;   useMaxPrintHeight,0
;   maxPrintHeight,0
;   useDiaphragm,0
;   diaphragmLayerInterval,20
;   robustSlicing,0
;   mergeAllIntoSolid,0
;   onlyRetractWhenCrossingOutline,1
;   retractBetweenLayers,1
;   useRetractionMinTravel,0
;   retractionMinTravel,3
;   retractWhileWiping,0
;   onlyWipeOutlines,1
;   avoidCrossingOutline,1
;   maxMovementDetourFactor,3
;   toolChangeRetractionDistance,12
;   toolChangeExtraRestartDistance,-0.5
;   toolChangeRetractionSpeed,600
;   allowThinWallGapFill,1
;   thinWallAllowedOverlapPercentage,10
;   horizontalSizeCompensation,0
G90
M82
M106 S0
M140 S110
M190 S110
M104 S240 T0
M109 S240 T0
G28 ; home all axes
G92 E0
G1 E-4.0000 F2400
G1 Z0.160 F1002
; layer 1, Z = 0.16
T0
; tool H0.200 W0.640
; skirt
G1 X58.301 Y60.225 F4800
G1 E-0.2000 F720
G92 E0
G1 X58.312 Y60.215 E0.0008 F720
G1 X58.742 Y59.860 E0.0308
G1 X58.758 Y59.849 E0.0318
G1 X58.807 Y59.818 E0.0349
G1 X58.825 Y59.808 E0.0360
G1 X59.320 Y59.576 E0.0654
G1 X59.334 Y59.570 E0.0662
G1 X59.375 Y59.555 E0.0686
G1 X59.389 Y59.551 E0.0694
G1 X59.676 Y59.478 E0.0853
G1 X59.688 Y59.475 E0.0860
G1 X59.724 Y59.469 E0.0879
G1 X59.736 Y59.467 E0.0886
G1 X60.134 Y59.430 E0.1101
G1 X60.142 Y59.430 E0.1105
G1 X60.163 Y59.429 E0.1116
G1 X60.171 Y59.428 E0.1120
G1 X69.061 Y59.428 E0.5899
G1 X69.061 Y57.870 E0.6736
G1 X69.110 Y57.753 E0.6805
G1 X69.376 Y57.487 E0.7007
G1 X69.493 Y57.438 E0.7075
G1 X95.669 Y57.438 E2.1144
G1 X95.787 Y57.487 E2.1213
G1 X95.981 Y57.682 E2.1360
G1 X96.176 Y57.487 E2.1508
G1 X96.293 Y57.438 E2.1577
G1 X101.069 Y57.438 E2.4144
G1 X101.187 Y57.487 E2.4212
G1 X101.381 Y57.682 E2.4360
G1 X101.576 Y57.487 E2.4508
G1 X101.693 Y57.438 E2.4576
G1 X127.869 Y57.438 E3.8645
G1 X127.987 Y57.487 E3.8714
G1 X128.253 Y57.753 E3.8916
G1 X128.301 Y57.870 E3.8984
G1 X128.301 Y59.429 E3.9822
G1 X136.331 Y59.433 E4.4137
G1 X136.343 Y59.433 E4.4144
G1 X136.380 Y59.436 E4.4164
G1 X136.392 Y59.438 E4.4170
G1 X136.807 Y59.504 E4.4396
G1 X136.824 Y59.508 E4.4406
G1 X136.873 Y59.522 E4.4433
G1 X136.890 Y59.527 E4.4442
G1 X137.406 Y59.733 E4.4741
G1 X137.424 Y59.742 E4.4752
G1 X137.475 Y59.770 E4.4783
G1 X137.492 Y59.781 E4.4794
G1 X137.943 Y60.110 E4.5094
G1 X137.958 Y60.123 E4.5105
G1 X138.000 Y60.162 E4.5136
G1 X138.014 Y60.177 E4.5147
G1 X138.362 Y60.599 E4.5440
G1 X138.371 Y60.611 E4.5448
G1 X138.395 Y60.646 E4.5472
G1 X138.403 Y60.659 E4.5480
G1 X138.543 Y60.914 E4.5636
G1 X138.549 Y60.925 E4.5643
G1 X138.564 Y60.958 E4.5662
G1 X138.568 Y60.970 E4.5669
G1 X138.711 Y61.365 E4.5895
G1 X138.716 Y61.382 E4.5904
G1 X138.727 Y61.431 E4.5931
G1 X138.731 Y61.448 E4.5941
G1 X138.798 Y61.985 E4.6231
G1 X138.799 Y61.995 E4.6237
G1 X138.801 Y62.024 E4.6252
G1 X138.801 Y62.034 E4.6258
G1 X138.801 Y118.059 E7.6371
G1 X138.801 Y118.067 E7.6375
G1 X138.800 Y118.088 E7.6386
G1 X138.800 Y118.096 E7.6390
G1 X138.762 Y118.499 E7.6608
G1 X138.760 Y118.512 E7.6615
G1 X138.754 Y118.548 E7.6634
G1 X138.751 Y118.560 E7.6641
G1 X138.680 Y118.835 E7.6794
G1 X138.678 Y118.844 E7.6799
G1 X138.669 Y118.872 E7.6814
G1 X138.665 Y118.881 E7.6820
G1 X138.561 Y119.145 E7.6972
G1 X138.556 Y119.156 E7.6979
G1 X138.540 Y119.189 E7.6999
G1 X138.534 Y119.200 E7.7005
G1 X138.322 Y119.559 E7.7229
G1 X138.313 Y119.571 E7.7237
G1 X138.288 Y119.606 E7.7261
G1 X138.278 Y119.618 E7.7269
G1 X137.997 Y119.937 E7.7497
G1 X137.986 Y119.948 E7.7506
G1 X137.954 Y119.977 E7.7529
G1 X137.943 Y119.987 E7.7537
G1 X137.611 Y120.244 E7.7763
G1 X137.598 Y120.252 E7.7771
G1 X137.561 Y120.276 E7.7794
G1 X137.548 Y120.283 E7.7802
G1 X137.170 Y120.474 E7.8030
G1 X137.154 Y120.481 E7.8039
G1 X137.107 Y120.499 E7.8067
G1 X137.090 Y120.504 E7.8076
G1 X136.552 Y120.641 E7.8374
G1 X136.533 Y120.645 E7.8385
G1 X136.477 Y120.652 E7.8416
G1 X136.457 Y120.653 E7.8426
G1 X130.301 Y120.667 E8.1735
G1 X130.301 Y124.736 E8.3922
G1 X130.253 Y124.854 E8.3990
G1 X129.987 Y125.120 E8.4192
G1 X129.869 Y125.168 E8.4261
G1 X67.493 Y125.168 E11.7787
G1 X67.376 Y125.120 E11.7855
G1 X67.110 Y124.854 E11.8057
G1 X67.061 Y124.736 E11.8126
G1 X67.061 Y120.668 E12.0312
G1 X60.032 Y120.664 E12.4090
G1 X60.019 Y120.663 E12.4097
G1 X59.983 Y120.661 E12.4117
G1 X59.970 Y120.659 E12.4124
G1 X59.563 Y120.593 E12.4345
G1 X59.551 Y120.591 E12.4352
G1 X59.515 Y120.582 E12.4372
G1 X59.503 Y120.579 E12.4378
G1 X59.227 Y120.488 E12.4535
G1 X59.213 Y120.483 E12.4543
G1 X59.173 Y120.466 E12.4566
G1 X59.159 Y120.459 E12.4574
G1 X58.677 Y120.192 E12.4871
G1 X58.660 Y120.181 E12.4882
G1 X58.613 Y120.147 E12.4912
G1 X58.598 Y120.135 E12.4923
G1 X58.195 Y119.755 E12.5221
G1 X58.181 Y119.740 E12.5232
G1 X58.144 Y119.696 E12.5263
G1 X58.132 Y119.680 E12.5273
G1 X57.833 Y119.208 E12.5574
G1 X57.823 Y119.190 E12.5585
G1 X57.798 Y119.138 E12.5616
G1 X57.791 Y119.119 E12.5627
G1 X57.619 Y118.591 E12.5925
G1 X57.615 Y118.574 E12.5935
G1 X57.605 Y118.524 E12.5962
G1 X57.602 Y118.507 E12.5971
G1 X57.563 Y118.096 E12.6193
G1 X57.563 Y118.088 E12.6197
G1 X57.562 Y118.067 E12.6209
G1 X57.561 Y118.059 E12.6213
G1 X57.561 Y62.038 E15.6324
G1 X57.562 Y62.030 E15.6328
G1 X57.563 Y62.008 E15.6339
G1 X57.563 Y62.001 E15.6343
G1 X57.601 Y61.597 E15.6561
G1 X57.603 Y61.585 E15.6568
G1 X57.609 Y61.549 E15.6588
G1 X57.612 Y61.537 E15.6594
G1 X57.682 Y61.262 E15.6747
G1 X57.685 Y61.253 E15.6752
G1 X57.694 Y61.225 E15.6768
G1 X57.697 Y61.216 E15.6773
G1 X57.802 Y60.952 E15.6925
G1 X57.807 Y60.940 E15.6932
G1 X57.823 Y60.908 E15.6952
G1 X57.829 Y60.897 E15.6958
G1 X58.039 Y60.542 E15.7180
G1 X58.046 Y60.531 E15.7187
G1 X58.067 Y60.502 E15.7206
G1 X58.074 Y60.492 E15.7213
G1 X58.170 Y60.376 E15.7294
G1 X58.260 Y60.267 F720
G1 X58.270 Y60.256 F720
G1 X58.301 Y60.225 F720
G92 E0
G1 E-4.0000 F2400
G1 X73.601 Y64.678 F4800
G1 E-0.2000 F2400
G92 E0
G1 X73.601 Y65.428 E0.0403 F720
G1 X78.761 Y65.428 E0.3177
G1 X78.761 Y64.678 E0.3580
G1 X78.193 Y64.677 E0.3885
G1 X78.076 Y64.629 E0.3954
G1 X77.810 Y64.363 E0.4156
G1 X77.761 Y64.245 E0.4224
G1 X77.761 Y61.870 E0.5500
G1 X77.810 Y61.753 E0.5569
G1 X77.885 Y61.678 E0.5626
G1 X74.478 Y61.678 E0.7457
G1 X74.553 Y61.754 E0.7514
G1 X74.601 Y61.871 E0.7582
G1 X74.601 Y64.246 E0.8859
G1 X74.553 Y64.364 E0.8927
G1 X74.287 Y64.630 E0.9129
G1 X74.169 Y64.678 E0.9197
G1 X73.801 Y64.678 E0.9395
G1 X73.601 Y64.678 F720
G92 E0
G1 E-4.0000 F2400
G1 X83.178 Y61.438 F4800
G1 E-0.2000 F2400
G92 E0
G1 X97.061 Y61.438 E0.7462 F720
G1 X97.061 Y60.778 E0.7817
G1 X96.293 Y60.778 E0.8229
G1 X96.176 Y60.730 E0.8298
G1 X95.981 Y60.535 E0.8446
G1 X95.787 Y60.730 E0.8594
G1 X95.669 Y60.778 E0.8662
G1 X83.301 Y60.778 E1.5310
G1 X83.301 Y61.246 E1.5561
G1 X83.289 Y61.276 E1.5579
G1 X83.253 Y61.364 F720
G1 X83.178 Y61.438 F720
G92 E0
G1 E-4.0000 F2400
G1 X100.301 Y61.438 F4800
G1 E-0.2000 F2400
G92 E0
G1 X114.185 Y61.438 E0.7462 F720
G1 X114.110 Y61.364 E0.7519
G1 X114.061 Y61.246 E0.7587
G1 X114.061 Y60.778 E0.7839
G1 X101.693 Y60.778 E1.4486
G1 X101.576 Y60.730 E1.4554
G1 X101.381 Y60.535 E1.4702
G1 X101.187 Y60.730 E1.4850
G1 X101.069 Y60.778 E1.4919
G1 X100.301 Y60.778 E1.5331
G1 X100.301 Y61.238 E1.5579
G1 X100.301 Y61.438 F720
G1 X105.556 Y62.369 F4800
G1 X117.668 Y62.362 F4800
G1 X117.668 Y62.372 F4800
G1 X118.668 Y62.372 F4800
G1 X118.668 Y63.745 F4800
G1 X117.668 Y63.745 F4800
G1 X117.668 Y64.513 F4800
G1 X118.601 Y64.678 F4800
G92 E0
G1 X118.601 Y65.428 E0.0403 F720
G1 X123.761 Y65.428 E0.3177
G1 X123.761 Y64.678 E0.3580
G1 X123.193 Y64.677 E0.3885
G1 X123.076 Y64.629 E0.3954
G1 X122.810 Y64.363 E0.4156
G1 X122.761 Y64.245 E0.4224
G1 X122.761 Y61.871 E0.5500
G1 X122.810 Y61.754 E0.5569
G1 X122.885 Y61.678 E0.5626
G1 X119.478 Y61.678 E0.7457
G1 X119.553 Y61.753 E0.7513
G1 X119.601 Y61.870 E0.7582
G1 X119.601 Y64.246 E0.8859
G1 X119.553 Y64.364 E0.8927
G1 X119.287 Y64.630 E0.9129
G1 X119.169 Y64.678 E0.9197
G1 X118.801 Y64.678 E0.9395
G1 X118.601 Y64.678 F720
; outer perimeter
G1 X118.661 Y63.738 F4800
G92 E0
G1 X117.661 Y63.738 E0.0537 F360
G1 X117.661 Y66.368 E0.1951
G1 X124.701 Y66.368 E0.5735
G1 X124.701 Y63.739 E0.7148
G1 X123.701 Y63.738 E0.7686
G1 X123.701 Y62.377 E0.8417
G1 X126.501 Y62.367 E0.9922
G1 X126.501 Y60.738 E1.0798
G1 X115.001 Y60.738 E1.6979
G1 X115.001 Y59.838 E1.7463
G1 X102.201 Y59.838 E2.4342
G1 X102.201 Y58.378 E2.5127
G1 X127.361 Y58.378 E3.8650
G1 X127.361 Y60.368 E3.9720
G1 X136.286 Y60.373 E4.4517
G1 X136.608 Y60.425 E4.4692
G1 X136.804 Y60.489 E4.4802
G1 X136.994 Y60.579 E4.4916
G1 X137.172 Y60.692 E4.5029
G1 X137.334 Y60.827 E4.5142
G1 X137.475 Y60.978 E4.5253
G1 X137.599 Y61.149 E4.5367
G1 X137.699 Y61.329 E4.5477
G1 X137.809 Y61.636 E4.5653
G1 X137.847 Y61.838 E4.5763
G1 X137.861 Y62.058 E4.5882
G1 X137.861 Y118.033 E7.5968
G1 X137.830 Y118.368 E7.6148
G1 X137.779 Y118.567 E7.6259
G1 X137.703 Y118.759 E7.6370
G1 X137.539 Y119.035 E7.6542
G1 X137.327 Y119.275 E7.6714
G1 X137.077 Y119.468 E7.6884
G1 X136.791 Y119.613 E7.7057
G1 X136.595 Y119.676 E7.7167
G1 X136.387 Y119.715 E7.7281
G1 X136.171 Y119.728 E7.7397
G1 X129.361 Y119.728 E8.1057
G1 X129.361 Y124.228 E8.3476
G1 X68.001 Y124.228 E11.6456
G1 X68.001 Y119.729 E11.8875
G1 X60.076 Y119.724 E12.3134
G1 X59.755 Y119.672 E12.3309
G1 X59.559 Y119.608 E12.3420
G1 X59.369 Y119.518 E12.3533
G1 X59.191 Y119.404 E12.3647
G1 X59.032 Y119.273 E12.3757
G1 X58.887 Y119.119 E12.3871
G1 X58.763 Y118.948 E12.3984
G1 X58.662 Y118.764 E12.4097
G1 X58.584 Y118.567 E12.4211
G1 X58.533 Y118.368 E12.4322
G1 X58.501 Y118.033 E12.4502
G1 X58.501 Y62.063 E15.4585
G1 X58.533 Y61.729 E15.4766
G1 X58.584 Y61.529 E15.4876
G1 X58.660 Y61.338 E15.4987
G1 X58.826 Y61.057 E15.5162
G1 X58.957 Y60.899 E15.5273
G1 X59.114 Y60.752 E15.5389
G1 X59.281 Y60.631 E15.5499
G1 X59.577 Y60.482 E15.5677
G1 X59.657 Y60.453 E15.5723
G1 X59.866 Y60.399 E15.5839
G1 X60.196 Y60.368 E15.6017
G1 X70.001 Y60.368 E16.1287
G1 X70.001 Y58.378 E16.2357
G1 X95.161 Y58.378 E17.5880
G1 X95.161 Y59.838 E17.6665
G1 X82.361 Y59.838 E18.3545
G1 X82.361 Y60.738 E18.4028
G1 X70.861 Y60.738 E19.0209
G1 X70.861 Y62.367 E19.1085
G1 X73.661 Y62.377 E19.2590
G1 X73.661 Y63.738 E19.3322
G1 X72.661 Y63.738 E19.3859
G1 X72.661 Y66.368 E19.5273
G1 X79.701 Y66.368 E19.9056
G1 X79.701 Y63.739 E20.0470
G1 X78.701 Y63.738 E20.1007
G1 X78.701 Y62.378 E20.1738
G1 X79.701 Y62.378 E20.2276
G1 X79.701 Y62.369 E20.2281
G1 X98.001 Y62.379 E21.2117
G1 X98.001 Y59.838 E21.3482
G1 X96.801 Y59.838 E21.4127
G1 X96.801 Y58.378 E21.4912
G1 X100.561 Y58.378 E21.6933
G1 X100.561 Y59.838 E21.7717
G1 X99.361 Y59.838 E21.8362
G1 X99.361 Y62.379 E21.9728
G1 X117.661 Y62.369 E22.9564
G1 X117.661 Y62.378 E22.9569
G1 X118.661 Y62.378 E23.0106
G1 X118.661 Y63.538 E23.0730
G1 X118.661 Y63.738 F360
G92 E0
G1 E-4.0000 F2400
; outer perimeter
G1 X119.861 Y72.228 F4800
G1 E-0.2000 F2400
G92 E0
G1 X119.861 Y73.228 E0.0537 F360
G1 X118.861 Y73.228 E0.1075
G1 X118.861 Y75.868 E0.2494
G1 X119.861 Y75.868 E0.3031
G1 X119.861 Y76.868 E0.3569
G1 X122.501 Y76.868 E0.4988
G1 X122.501 Y75.868 E0.5525
G1 X123.501 Y75.868 E0.6063
G1 X123.501 Y73.228 E0.7482
G1 X122.501 Y73.228 E0.8019
G1 X122.501 Y72.228 E0.8557
