; G-Code generated by Simplify3D(R) Version 3.0.0
; фев 2, 2016 at 11:09:06 
; Settings Summary
;   processName,Process1
;   applyToModels,battery-aa-holder-4-mod3
;   profileName,prusa 1mm (modified)
;   profileVersion,2016-01-19 15:41:13
;   baseProfile,Default
;   printMaterial,PLA
;   printQuality,Medium
;   printExtruders,
;   extruderName,Extruder 1
;   extruderToolheadNumber,0
;   extruderDiameter,0.5
;   extruderAutoWidth,0
;   extruderWidth,0.62
;   extrusionMultiplier,0.98
;   extruderUseRetract,1
;   extruderRetractionDistance,4
;   extruderExtraRestartDistance,-0.2
;   extruderRetractionZLift,0
;   extruderRetractionSpeed,2400
;   extruderUseCoasting,1
;   extruderCoastingDistance,0.2
;   extruderUseWipe,0
;   extruderWipeDistance,5
;   primaryExtruder,0
;   layerHeight,0.2
;   topSolidLayers,4
;   bottomSolidLayers,3
;   perimeterOutlines,2
;   printPerimetersInsideOut,0
;   startPointOption,1
;   startPointOriginX,150
;   startPointOriginY,0
;   startPointOriginZ,120
;   sequentialIslands,0
;   spiralVaseMode,0
;   firstLayerHeightPercentage,85
;   firstLayerWidthPercentage,100
;   firstLayerUnderspeed,0.22
;   useRaft,0
;   raftExtruder,0
;   raftLayers,3
;   raftOffset,3
;   raftSeparationDistance,0.14
;   raftInfill,85
;   disableRaftBaseLayers,0
;   useSkirt,1
;   skirtExtruder,0
;   skirtLayers,1
;   skirtOutlines,10
;   skirtOffset,0
;   usePrimePillar,0
;   primePillarExtruder,999
;   primePillarWidth,12
;   primePillarLocation,7
;   primePillarSpeedMultiplier,1
;   useOozeShield,0
;   oozeShieldExtruder,999
;   oozeShieldOffset,2
;   oozeShieldOutlines,1
;   oozeShieldSidewallShape,1
;   oozeShieldSidewallAngle,30
;   oozeShieldSpeedMultiplier,1
;   infillExtruder,0
;   internalInfillPattern,Fast Honeycomb
;   externalInfillPattern,Rectilinear
;   infillPercentage,15
;   outlineOverlapPercentage,15
;   infillExtrusionWidthPercentage,100
;   minInfillLength,5
;   infillLayerInterval,1
;   infillAngles,0
;   overlapInfillAngles,0
;   generateSupport,0
;   supportExtruder,0
;   supportInfillPercentage,30
;   supportExtraInflation,0
;   denseSupportLayers,0
;   denseSupportInfillPercentage,70
;   supportLayerInterval,1
;   supportHorizontalPartOffset,0.3
;   supportUpperSeparationLayers,1
;   supportLowerSeparationLayers,1
;   supportType,0
;   supportGridSpacing,4
;   maxOverhangAngle,45
;   supportAngles,0
;   temperatureName,Extruder 1 Temperature,Heated Bed
;   temperatureNumber,0,1
;   temperatureSetpointCount,2,1
;   temperatureSetpointLayers,1,2,1
;   temperatureSetpointTemperatures,240,225,115
;   temperatureStabilizeAtStartup,1,1
;   temperatureHeatedBed,0,1
;   temperatureRelayBetweenLayers,0,0
;   temperatureRelayBetweenLoops,0,0
;   fanLayers,1
;   fanSpeeds,0
;   blipFanToFullPower,0
;   adjustSpeedForCooling,1
;   minSpeedLayerTime,10
;   minCoolingSpeedSlowdown,20
;   increaseFanForCooling,0
;   minFanLayerTime,45
;   maxCoolingFanSpeed,100
;   increaseFanForBridging,0
;   bridgingFanSpeed,100
;   use5D,1
;   relativeEdistances,0
;   allowEaxisZeroing,1
;   independentExtruderAxes,0
;   includeM10123,0
;   stickySupport,1
;   applyToolheadOffsets,0
;   gcodeXoffset,0
;   gcodeYoffset,0
;   gcodeZoffset,0
;   overrideMachineDefinition,1
;   machineTypeOverride,0
;   strokeXoverride,200
;   strokeYoverride,200
;   strokeZoverride,200
;   originOffsetXoverride,0
;   originOffsetYoverride,0
;   originOffsetZoverride,0
;   homeXdirOverride,-1
;   homeYdirOverride,-1
;   homeZdirOverride,-1
;   flipXoverride,1
;   flipYoverride,-1
;   flipZoverride,1
;   toolheadOffsets,0,0|0,0|0,0|0,0|0,0|0,0
;   overrideFirmwareConfiguration,1
;   firmwareTypeOverride,RepRap (Marlin/Repetier/Sprinter)
;   GPXconfigOverride,r2
;   baudRateOverride,115200
;   overridePrinterModels,0
;   printerModelsOverride
;   startingGcode,;Sliced at: {day} {date} {time},;Basic settings: Layer height: {layer_height} Walls: {wall_thickness} Fill: {fill_density},;Print time: {print_time},;Filament used: {filament_amount}m {filament_weight}g,;Filament cost: {filament_cost},;M190 S{print_bed_temperature} ;Uncomment to add your own bed temperature line,;M109 S{print_temperature} ;Uncomment to add your own temperature line,G21        ;metric values,G90        ;absolute positioning,M82        ;set extruder to absolute mode,M107       ;start with the fan off,,G28 X0 Y0  ;move X/Y to min endstops,G28 Z0     ;move Z to min endstops,,G1 Z15.0 F{travel_speed} ;move the platform down 15mm,,G92 E0                  ;zero the extruded length,G1 F200 E3              ;extrude 3mm of feed stock,G92 E0                  ;zero the extruded length again,G1 F{travel_speed},;Put printing message on LCD screen,M117 Printing...,
;   layerChangeGcode,
;   retractionGcode,
;   toolChangeGcode,
;   endingGcode,M104 S0 ; turn off extruder,M140 S0 ; turn off bed,G28 X0;,M84 ; disable motors
;   createX3G,0
;   celebration,0
;   celebrationSong,Random Song
;   createMB5G,0
;   postProcessing,
;   defaultSpeed,3600
;   outlineUnderspeed,0.5
;   solidInfillUnderspeed,0.8
;   supportUnderspeed,0.8
;   rapidXYspeed,4800
;   rapidZspeed,1002
;   minBridgingArea,50
;   bridgingExtraInflation,0
;   bridgingExtrusionMultiplier,1
;   bridgingSpeedMultiplier,1
;   filamentDiameter,1.75
;   filamentPricePerKg,46
;   filamentDensity,1.25
;   useMinPrintHeight,0
;   minPrintHeight,0
;   useMaxPrintHeight,0
;   maxPrintHeight,0
;   useDiaphragm,0
;   diaphragmLayerInterval,20
;   robustSlicing,1
;   mergeAllIntoSolid,0
;   onlyRetractWhenCrossingOutline,1
;   retractBetweenLayers,1
;   useRetractionMinTravel,1
;   retractionMinTravel,3
;   retractWhileWiping,0
;   onlyWipeOutlines,1
;   avoidCrossingOutline,1
;   maxMovementDetourFactor,3
;   toolChangeRetractionDistance,12
;   toolChangeExtraRestartDistance,-0.5
;   toolChangeRetractionSpeed,600
;   allowThinWallGapFill,1
;   thinWallAllowedOverlapPercentage,1
;   horizontalSizeCompensation,0
G90
M82
M106 S0
M140 S115
M190 S115
M104 S240 T0
M109 S240 T0
;Sliced at: {day} {date} {time}
;Basic settings: Layer height: {layer_height} Walls: {wall_thickness} Fill: {fill_density}
;Print time: {print_time}
;Filament used: {filament_amount}m {filament_weight}g
;Filament cost: {filament_cost}
;M190 S{print_bed_temperature} ;Uncomment to add your own bed temperature line
;M109 S{print_temperature} ;Uncomment to add your own temperature line
G21        ;metric values
G90        ;absolute positioning
M82        ;set extruder to absolute mode
M107       ;start with the fan off
G28 X0 Y0  ;move X/Y to min endstops
G28 Z0     ;move Z to min endstops
G1 Z15.0 F{travel_speed} ;move the platform down 15mm
G92 E0                  ;zero the extruded length
G1 F200 E3              ;extrude 3mm of feed stock
G92 E0                  ;zero the extruded length again
G1 F{travel_speed}
;Put printing message on LCD screen
M117 Printing...
G92 E0
G1 E-4.0000 F2400
G1 Z0.170 F1002
; layer 1, Z = 0.17
T0
; tool H0.200 W0.620
; skirt
G1 X62.509 Y58.563 F4800
G1 E-0.2000 F720
G92 E0
G1 X63.006 Y58.037 E0.0365 F792
G1 X63.278 Y57.783 E0.0554
G1 X63.792 Y57.360 E0.0890
G1 X64.167 Y57.097 E0.1121
G1 X64.923 Y56.651 E0.1565
G1 X65.428 Y56.414 E0.1847
G1 X66.355 Y56.082 E0.2344
G1 X66.984 Y55.932 E0.2671
G1 X67.979 Y55.807 E0.3177
G1 X68.345 Y55.785 E0.3363
G1 X73.599 Y55.785 E0.6017
G1 X75.589 Y53.795 E0.7439
G1 X105.482 Y53.795 E2.2542
G1 X107.789 Y53.795 E2.3707
G1 X108.575 Y53.795 E2.4104
G1 X111.668 Y53.795 E2.5667
G1 X111.668 Y53.795 E2.5667
G1 X138.468 Y53.795 E3.9207
G1 X140.460 Y55.787 E4.0630
G1 X144.897 Y55.789 E4.2872
G1 X145.365 Y55.827 E4.3109
G1 X146.288 Y55.975 E4.3581
G1 X146.913 Y56.148 E4.3909
G1 X147.937 Y56.557 E4.4466
G1 X148.432 Y56.810 E4.4747
G1 X149.110 Y57.243 E4.5153
G1 X149.544 Y57.582 E4.5432
G1 X150.375 Y58.363 E4.6008
G1 X150.844 Y58.932 E4.6380
G1 X151.485 Y59.940 E4.6984
G1 X151.770 Y60.523 E4.7311
G1 X152.086 Y61.400 E4.7783
G1 X152.208 Y61.847 E4.8017
G1 X152.350 Y62.594 E4.8401
G1 X152.403 Y63.145 E4.8681
G1 X152.418 Y119.812 E7.7310
G1 X152.405 Y120.089 E7.7450
G1 X152.327 Y120.926 E7.7875
G1 X152.195 Y121.561 E7.8202
G1 X151.840 Y122.655 E7.8783
G1 X151.572 Y123.246 E7.9111
G1 X151.073 Y124.091 E7.9607
G1 X150.743 Y124.543 E7.9890
G1 X150.120 Y125.248 E8.0365
G1 X149.713 Y125.629 E8.0647
G1 X148.974 Y126.199 E8.1118
G1 X148.503 Y126.496 E8.1399
G1 X147.630 Y126.938 E8.1894
G1 X147.023 Y127.165 E8.2222
G1 X145.871 Y127.458 E8.2822
G1 X145.150 Y127.548 E8.3189
G1 X143.918 Y127.551 E8.3811
G1 X143.918 Y128.614 E8.4348
G1 X140.468 Y132.065 E8.6814
G1 X73.589 Y132.065 E12.0602
G1 X70.138 Y128.614 E12.3068
G1 X70.138 Y127.561 E12.3600
G1 X68.206 Y127.560 E12.4576
G1 X67.830 Y127.536 E12.4766
G1 X67.165 Y127.450 E12.5105
G1 X66.712 Y127.355 E12.5339
G1 X65.907 Y127.119 E12.5763
G1 X65.473 Y126.953 E12.5997
G1 X64.788 Y126.629 E12.6380
G1 X64.316 Y126.348 E12.6658
G1 X63.469 Y125.732 E12.7187
G1 X63.055 Y125.366 E12.7466
G1 X62.504 Y124.779 E12.7873
G1 X62.163 Y124.340 E12.8154
G1 X61.572 Y123.409 E12.8711
G1 X61.287 Y122.826 E12.9039
G1 X60.940 Y121.862 E12.9556
G1 X60.788 Y121.232 E12.9884
G1 X60.662 Y120.229 E13.0395
G1 X60.638 Y119.860 E13.0582
G1 X60.638 Y63.582 E15.9014
G1 X60.644 Y63.397 E15.9108
G1 X60.680 Y62.823 E15.9398
G1 X60.746 Y62.365 E15.9632
G1 X60.929 Y61.546 E16.0056
G1 X61.065 Y61.103 E16.0290
G1 X61.345 Y60.396 E16.0674
G1 X61.597 Y59.902 E16.0955
G1 X62.165 Y59.007 E16.1490
G1 X62.386 Y58.721 E16.1673
G1 X62.509 Y58.563 F792
G1 X62.981 Y58.967 F4800
G92 E0
G1 X63.443 Y58.477 E0.0341 F792
G1 X63.687 Y58.249 E0.0509
G1 X64.167 Y57.854 E0.0823
G1 X64.502 Y57.619 E0.1030
G1 X65.213 Y57.200 E0.1447
G1 X65.665 Y56.988 E0.1699
G1 X66.532 Y56.677 E0.2164
G1 X67.094 Y56.543 E0.2457
G1 X68.036 Y56.425 E0.2936
G1 X68.364 Y56.405 E0.3102
G1 X73.856 Y56.405 E0.5877
G1 X75.846 Y54.415 E0.7298
G1 X102.646 Y54.415 E2.0838
G1 X108.046 Y54.415 E2.3567
G1 X138.211 Y54.415 E3.8807
G1 X140.203 Y56.407 E4.0230
G1 X144.872 Y56.409 E4.2589
G1 X145.290 Y56.443 E4.2801
G1 X146.156 Y56.582 E4.3244
G1 X146.715 Y56.737 E4.3537
G1 X147.681 Y57.122 E4.4062
G1 X148.123 Y57.349 E4.4313
G1 X148.752 Y57.750 E4.4690
G1 X149.141 Y58.053 E4.4939
G1 X149.922 Y58.788 E4.5481
G1 X150.342 Y59.297 E4.5814
G1 X150.943 Y60.244 E4.6381
G1 X151.198 Y60.765 E4.6674
G1 X151.494 Y61.587 E4.7116
G1 X151.604 Y61.987 E4.7325
G1 X151.736 Y62.681 E4.7682
G1 X151.783 Y63.175 E4.7933
G1 X151.798 Y119.797 E7.6540
G1 X151.787 Y120.046 E7.6665
G1 X151.713 Y120.833 E7.7065
G1 X151.595 Y121.402 E7.7358
G1 X151.261 Y122.431 E7.7905
G1 X151.022 Y122.960 E7.8198
G1 X150.554 Y123.749 E7.8662
G1 X150.260 Y124.154 E7.8915
G1 X149.675 Y124.815 E7.9360
G1 X149.311 Y125.156 E7.9612
G1 X148.618 Y125.690 E8.0054
G1 X148.197 Y125.956 E8.0306
G1 X147.381 Y126.369 E8.0768
G1 X146.837 Y126.573 E8.1061
G1 X145.755 Y126.847 E8.1625
G1 X145.111 Y126.929 E8.1954
G1 X143.298 Y126.933 E8.2869
G1 X143.298 Y128.357 E8.3589
G1 X140.211 Y131.445 E8.5795
G1 X73.846 Y131.445 E11.9324
G1 X70.758 Y128.358 E12.1530
G1 X70.758 Y126.942 E12.2245
G1 X68.226 Y126.940 E12.3525
G1 X67.890 Y126.918 E12.3695
G1 X67.269 Y126.838 E12.4011
G1 X66.863 Y126.753 E12.4221
G1 X66.105 Y126.531 E12.4620
G1 X65.717 Y126.383 E12.4830
G1 X65.080 Y126.081 E12.5186
G1 X64.657 Y125.830 E12.5434
G1 X63.858 Y125.247 E12.5934
G1 X63.487 Y124.920 E12.6184
G1 X62.976 Y124.376 E12.6561
G1 X62.671 Y123.983 E12.6812
G1 X62.114 Y123.105 E12.7337
G1 X61.859 Y122.584 E12.7631
G1 X61.535 Y121.684 E12.8114
G1 X61.399 Y121.120 E12.8407
G1 X61.279 Y120.171 E12.8890
G1 X61.258 Y119.840 E12.9058
G1 X61.258 Y63.592 E15.7476
G1 X61.264 Y63.427 E15.7559
G1 X61.298 Y62.887 E15.7833
G1 X61.356 Y62.477 E15.8042
G1 X61.528 Y61.705 E15.8441
G1 X61.650 Y61.309 E15.8651
G1 X61.910 Y60.652 E15.9008
G1 X62.136 Y60.209 E15.9259
G1 X62.672 Y59.364 E15.9764
G1 X62.858 Y59.125 E15.9917
G1 X62.981 Y58.967 F792
G1 X63.452 Y59.371 F4800
G92 E0
G1 X63.881 Y58.916 E0.0316 F792
G1 X64.096 Y58.716 E0.0464
G1 X64.543 Y58.348 E0.0757
G1 X64.838 Y58.141 E0.0939
G1 X65.503 Y57.748 E0.1329
G1 X65.902 Y57.561 E0.1552
G1 X66.709 Y57.272 E0.1985
G1 X67.205 Y57.154 E0.2242
G1 X68.094 Y57.043 E0.2695
G1 X68.384 Y57.025 E0.2842
G1 X74.112 Y57.025 E0.5736
G1 X76.102 Y55.035 E0.7158
G1 X102.902 Y55.035 E2.0698
G1 X108.302 Y55.035 E2.3426
G1 X137.954 Y55.035 E3.8407
G1 X139.947 Y57.027 E3.9830
G1 X144.847 Y57.029 E4.2306
G1 X145.216 Y57.059 E4.2493
G1 X146.023 Y57.189 E4.2906
G1 X146.517 Y57.325 E4.3165
G1 X147.424 Y57.687 E4.3658
G1 X147.814 Y57.887 E4.3879
G1 X148.393 Y58.257 E4.4227
G1 X148.737 Y58.525 E4.4447
G1 X149.468 Y59.213 E4.4954
G1 X149.839 Y59.662 E4.5248
G1 X150.401 Y60.547 E4.5778
G1 X150.627 Y61.007 E4.6037
G1 X150.903 Y61.774 E4.6449
G1 X150.999 Y62.127 E4.6634
G1 X151.121 Y62.769 E4.6964
G1 X151.163 Y63.204 E4.7185
G1 X151.178 Y119.783 E7.5770
G1 X151.168 Y120.002 E7.5880
G1 X151.098 Y120.741 E7.6255
G1 X150.995 Y121.243 E7.6514
G1 X150.681 Y122.207 E7.7026
G1 X150.471 Y122.674 E7.7285
G1 X150.036 Y123.408 E7.7716
G1 X149.776 Y123.766 E7.7940
G1 X149.230 Y124.382 E7.8356
G1 X148.909 Y124.683 E7.8578
G1 X148.263 Y125.181 E7.8990
G1 X147.891 Y125.416 E7.9212
G1 X147.131 Y125.800 E7.9643
G1 X146.652 Y125.980 E7.9901
G1 X145.640 Y126.237 E8.0429
G1 X145.071 Y126.309 E8.0718
G1 X142.678 Y126.314 E8.1927
G1 X142.678 Y128.101 E8.2830
G1 X139.955 Y130.825 E8.4776
G1 X74.102 Y130.825 E11.8046
G1 X71.378 Y128.101 E11.9992
G1 X71.378 Y126.322 E12.0891
G1 X68.246 Y126.320 E12.2473
G1 X67.950 Y126.301 E12.2623
G1 X67.372 Y126.226 E12.2918
G1 X67.015 Y126.151 E12.3102
G1 X66.303 Y125.942 E12.3477
G1 X65.960 Y125.812 E12.3662
G1 X65.372 Y125.533 E12.3991
G1 X64.999 Y125.311 E12.4210
G1 X64.246 Y124.763 E12.4681
G1 X63.919 Y124.475 E12.4901
G1 X63.448 Y123.973 E12.5249
G1 X63.179 Y123.626 E12.5471
G1 X62.656 Y122.802 E12.5964
G1 X62.430 Y122.342 E12.6223
G1 X62.130 Y121.506 E12.6671
G1 X62.010 Y121.009 E12.6930
G1 X61.897 Y120.112 E12.7386
G1 X61.878 Y119.821 E12.7534
G1 X61.878 Y63.602 E15.5937
G1 X61.883 Y63.456 E15.6011
G1 X61.915 Y62.950 E15.6267
G1 X61.966 Y62.588 E15.6452
G1 X62.128 Y61.864 E15.6826
G1 X62.236 Y61.515 E15.7011
G1 X62.476 Y60.907 E15.7341
G1 X62.675 Y60.517 E15.7563
G1 X63.180 Y59.721 E15.8039
G1 X63.329 Y59.529 E15.8162
G1 X63.452 Y59.371 F792
G1 X63.923 Y59.775 F4800
G92 E0
G1 X64.319 Y59.356 E0.0291 F792
G1 X64.505 Y59.182 E0.0420
G1 X64.918 Y58.842 E0.0690
G1 X65.174 Y58.663 E0.0848
G1 X65.793 Y58.297 E0.1211
G1 X66.139 Y58.135 E0.1404
G1 X66.886 Y57.868 E0.1805
G1 X67.316 Y57.765 E0.2028
G1 X68.152 Y57.660 E0.2454
G1 X68.403 Y57.645 E0.2581
G1 X74.369 Y57.645 E0.5595
G1 X76.359 Y55.655 E0.7017
G1 X103.159 Y55.655 E2.0557
G1 X108.559 Y55.655 E2.3285
G1 X137.698 Y55.655 E3.8007
G1 X139.690 Y57.647 E3.9430
G1 X144.822 Y57.649 E4.2023
G1 X145.142 Y57.675 E4.2185
G1 X145.891 Y57.796 E4.2568
G1 X146.319 Y57.914 E4.2793
G1 X147.167 Y58.252 E4.3254
G1 X147.505 Y58.426 E4.3446
G1 X148.035 Y58.764 E4.3764
G1 X148.333 Y58.996 E4.3954
G1 X149.015 Y59.638 E4.4428
G1 X149.337 Y60.027 E4.4683
G1 X149.859 Y60.851 E4.5175
G1 X150.055 Y61.249 E4.5400
G1 X150.311 Y61.961 E4.5782
G1 X150.395 Y62.267 E4.5942
G1 X150.507 Y62.856 E4.6245
G1 X150.543 Y63.233 E4.6437
G1 X150.558 Y119.769 E7.4999
G1 X150.550 Y119.958 E7.5096
G1 X150.484 Y120.649 E7.5446
G1 X150.394 Y121.084 E7.5670
G1 X150.102 Y121.983 E7.6148
G1 X149.920 Y122.387 E7.6372
G1 X149.517 Y123.067 E7.6771
G1 X149.292 Y123.377 E7.6965
G1 X148.786 Y123.949 E7.7351
G1 X148.507 Y124.210 E7.7544
G1 X147.907 Y124.673 E7.7926
G1 X147.585 Y124.876 E7.8119
