; G-Code generated by Simplify3D(R) Version 3.0.0
; фев 4, 2016 at 6:11:14 
; Settings Summary
;   processName,Process1
;   applyToModels,battery-aa-holder-4-mod3
;   profileName,Builder (modified)
;   profileVersion,2016-01-09 13:44:58
;   baseProfile,Default
;   printMaterial,ABS
;   printQuality,Medium
;   printExtruders,
;   extruderName,Extruder 1
;   extruderToolheadNumber,0
;   extruderDiameter,0.5
;   extruderAutoWidth,0
;   extruderWidth,0.63
;   extrusionMultiplier,1
;   extruderUseRetract,1
;   extruderRetractionDistance,4
;   extruderExtraRestartDistance,-0.2
;   extruderRetractionZLift,0
;   extruderRetractionSpeed,2400
;   extruderUseCoasting,1
;   extruderCoastingDistance,0.2
;   extruderUseWipe,0
;   extruderWipeDistance,5
;   primaryExtruder,0
;   layerHeight,0.2
;   topSolidLayers,3
;   bottomSolidLayers,3
;   perimeterOutlines,1
;   printPerimetersInsideOut,1
;   startPointOption,2
;   startPointOriginX,0
;   startPointOriginY,0
;   startPointOriginZ,300
;   sequentialIslands,0
;   spiralVaseMode,0
;   firstLayerHeightPercentage,80
;   firstLayerWidthPercentage,100
;   firstLayerUnderspeed,0.2
;   useRaft,0
;   raftExtruder,0
;   raftLayers,3
;   raftOffset,3
;   raftSeparationDistance,0.14
;   raftInfill,85
;   disableRaftBaseLayers,0
;   useSkirt,1
;   skirtExtruder,0
;   skirtLayers,1
;   skirtOutlines,8
;   skirtOffset,0
;   usePrimePillar,0
;   primePillarExtruder,999
;   primePillarWidth,12
;   primePillarLocation,7
;   primePillarSpeedMultiplier,1
;   useOozeShield,0
;   oozeShieldExtruder,999
;   oozeShieldOffset,2
;   oozeShieldOutlines,1
;   oozeShieldSidewallShape,1
;   oozeShieldSidewallAngle,30
;   oozeShieldSpeedMultiplier,1
;   infillExtruder,0
;   internalInfillPattern,Fast Honeycomb
;   externalInfillPattern,Rectilinear
;   infillPercentage,10
;   outlineOverlapPercentage,15
;   infillExtrusionWidthPercentage,100
;   minInfillLength,5
;   infillLayerInterval,1
;   infillAngles,0
;   overlapInfillAngles,0
;   generateSupport,0
;   supportExtruder,0
;   supportInfillPercentage,30
;   supportExtraInflation,0
;   denseSupportLayers,0
;   denseSupportInfillPercentage,70
;   supportLayerInterval,1
;   supportHorizontalPartOffset,0.3
;   supportUpperSeparationLayers,1
;   supportLowerSeparationLayers,1
;   supportType,0
;   supportGridSpacing,4
;   maxOverhangAngle,45
;   supportAngles,0
;   temperatureName,Extruder 1 Temperature,Heated Bed
;   temperatureNumber,0,1
;   temperatureSetpointCount,1,1
;   temperatureSetpointLayers,1,1
;   temperatureSetpointTemperatures,240,110
;   temperatureStabilizeAtStartup,1,1
;   temperatureHeatedBed,0,1
;   temperatureRelayBetweenLayers,0,0
;   temperatureRelayBetweenLoops,0,0
;   fanLayers,2
;   fanSpeeds,30
;   blipFanToFullPower,0
;   adjustSpeedForCooling,1
;   minSpeedLayerTime,5
;   minCoolingSpeedSlowdown,20
;   increaseFanForCooling,0
;   minFanLayerTime,45
;   maxCoolingFanSpeed,100
;   increaseFanForBridging,0
;   bridgingFanSpeed,100
;   use5D,1
;   relativeEdistances,0
;   allowEaxisZeroing,1
;   independentExtruderAxes,0
;   includeM10123,0
;   stickySupport,1
;   applyToolheadOffsets,0
;   gcodeXoffset,0
;   gcodeYoffset,0
;   gcodeZoffset,0
;   overrideMachineDefinition,1
;   machineTypeOverride,0
;   strokeXoverride,190
;   strokeYoverride,190
;   strokeZoverride,190
;   originOffsetXoverride,0
;   originOffsetYoverride,0
;   originOffsetZoverride,0
;   homeXdirOverride,-1
;   homeYdirOverride,-1
;   homeZdirOverride,-1
;   flipXoverride,1
;   flipYoverride,-1
;   flipZoverride,1
;   toolheadOffsets,0,0|0,0|0,0|0,0|0,0|0,0
;   overrideFirmwareConfiguration,1
;   firmwareTypeOverride,RepRap (Marlin/Repetier/Sprinter)
;   GPXconfigOverride,r2
;   baudRateOverride,230400
;   overridePrinterModels,0
;   printerModelsOverride
;   startingGcode,G28 ; home all axes
;   layerChangeGcode,
;   retractionGcode,
;   toolChangeGcode,
;   endingGcode,M104 S0 ; turn off extruder,M140 S0 ; turn off bed,G28 X0;,M84 ; disable motors
;   createX3G,0
;   celebration,0
;   celebrationSong,Random Song
;   createMB5G,0
;   postProcessing,
;   defaultSpeed,3600
;   outlineUnderspeed,0.5
;   solidInfillUnderspeed,0.8
;   supportUnderspeed,0.8
;   rapidXYspeed,4800
;   rapidZspeed,1002
;   minBridgingArea,50
;   bridgingExtraInflation,0
;   bridgingExtrusionMultiplier,1
;   bridgingSpeedMultiplier,1
;   filamentDiameter,1.75
;   filamentPricePerKg,46
;   filamentDensity,1.25
;   useMinPrintHeight,0
;   minPrintHeight,0
;   useMaxPrintHeight,0
;   maxPrintHeight,0
;   useDiaphragm,0
;   diaphragmLayerInterval,20
;   robustSlicing,0
;   mergeAllIntoSolid,0
;   onlyRetractWhenCrossingOutline,1
;   retractBetweenLayers,1
;   useRetractionMinTravel,0
;   retractionMinTravel,3
;   retractWhileWiping,0
;   onlyWipeOutlines,1
;   avoidCrossingOutline,1
;   maxMovementDetourFactor,3
;   toolChangeRetractionDistance,12
;   toolChangeExtraRestartDistance,-0.5
;   toolChangeRetractionSpeed,600
;   allowThinWallGapFill,1
;   thinWallAllowedOverlapPercentage,10
;   horizontalSizeCompensation,0
G90
M82
M140 S110
M190 S110
M104 S240 T0
M109 S240 T0
G28 ; home all axes
G92 E0
G1 E-4.0000 F2400
G1 Z0.160 F1002
; layer 1, Z = 0.16
T0
; tool H0.200 W0.630
; skirt
G1 X52.363 Y60.874 F4800
G1 E-0.2000 F720
G92 E0
G1 X53.155 Y60.220 E0.0538 F720
G1 X53.657 Y59.903 E0.0849
G1 X54.577 Y59.471 E0.1382
G1 X54.998 Y59.319 E0.1616
G1 X55.642 Y59.155 E0.1964
G1 X56.006 Y59.092 E0.2158
G1 X56.669 Y59.030 E0.2507
G1 X56.890 Y59.020 E0.2622
G1 X62.553 Y59.020 E0.5589
G1 X64.543 Y57.030 E0.7063
G1 X126.457 Y57.030 E3.9497
G1 X128.449 Y59.022 E4.0972
G1 X133.284 Y59.025 E4.3505
G1 X133.585 Y59.044 E4.3663
G1 X134.168 Y59.119 E4.3971
G1 X134.531 Y59.195 E4.4165
G1 X135.320 Y59.427 E4.4596
G1 X135.800 Y59.627 E4.4869
G1 X136.725 Y60.138 E4.5422
G1 X137.202 Y60.486 E4.5732
G1 X137.995 Y61.232 E4.6302
G1 X138.372 Y61.688 E4.6612
G1 X138.938 Y62.581 E4.7166
G1 X139.167 Y63.048 E4.7438
G1 X139.471 Y63.892 E4.7908
G1 X139.592 Y64.398 E4.8180
G1 X139.706 Y65.300 E4.8657
G1 X139.725 Y65.597 E4.8812
G1 X139.725 Y121.856 E7.8284
G1 X139.715 Y122.079 E7.8401
G1 X139.644 Y122.823 E7.8792
G1 X139.539 Y123.332 E7.9065
G1 X139.223 Y124.304 E7.9600
G1 X139.009 Y124.778 E7.9873
G1 X138.570 Y125.520 E8.0324
G1 X138.306 Y125.883 E8.0559
G1 X137.756 Y126.504 E8.0994
G1 X137.430 Y126.810 E8.1228
G1 X136.778 Y127.313 E8.1659
G1 X136.401 Y127.551 E8.1893
G1 X135.700 Y127.906 E8.2304
G1 X135.357 Y128.047 E8.2499
G1 X134.731 Y128.248 E8.2843
G1 X134.299 Y128.344 E8.3075
G1 X133.441 Y128.452 E8.3528
G1 X133.147 Y128.470 E8.3682
G1 X131.225 Y128.470 E8.4689
G1 X131.225 Y130.202 E8.5596
G1 X128.457 Y132.970 E8.7647
G1 X62.543 Y132.970 E12.2176
G1 X59.775 Y130.202 E12.4227
G1 X59.775 Y128.467 E12.5135
G1 X56.679 Y128.466 E12.6757
G1 X56.304 Y128.435 E12.6954
G1 X55.564 Y128.316 E12.7347
G1 X55.203 Y128.229 E12.7541
G1 X54.576 Y128.023 E12.7887
G1 X54.167 Y127.845 E12.8121
G1 X53.275 Y127.351 E12.8655
G1 X52.798 Y127.004 E12.8964
G1 X52.006 Y126.258 E12.9534
G1 X51.628 Y125.802 E12.9844
G1 X51.062 Y124.909 E13.0398
G1 X50.833 Y124.442 E13.0671
G1 X50.529 Y123.598 E13.1140
G1 X50.408 Y123.092 E13.1413
G1 X50.294 Y122.190 E13.1889
G1 X50.275 Y121.893 E13.2045
G1 X50.275 Y65.671 E16.1497
G1 X50.280 Y65.523 E16.1575
G1 X50.312 Y65.013 E16.1842
G1 X50.364 Y64.645 E16.2037
G1 X50.527 Y63.915 E16.2429
G1 X50.636 Y63.560 E16.2623
G1 X50.865 Y62.981 E16.2949
G1 X51.029 Y62.648 E16.3144
G1 X51.409 Y62.004 E16.3536
G1 X51.623 Y61.701 E16.3730
G1 X52.045 Y61.191 E16.4077
G1 X52.221 Y61.015 E16.4207
G1 X52.363 Y60.874 F720
G1 X52.786 Y61.341 F4800
G92 E0
G1 X53.526 Y60.731 E0.0502 F720
G1 X53.960 Y60.456 E0.0771
G1 X54.818 Y60.053 E0.1267
G1 X55.183 Y59.923 E0.1471
G1 X55.774 Y59.772 E0.1790
G1 X56.089 Y59.717 E0.1958
G1 X56.713 Y59.659 E0.2286
G1 X56.904 Y59.650 E0.2386
G1 X62.814 Y59.650 E0.5482
G1 X64.804 Y57.660 E0.6956
G1 X126.196 Y57.660 E3.9117
G1 X128.188 Y59.652 E4.0592
G1 X133.263 Y59.654 E4.3251
G1 X133.524 Y59.671 E4.3388
G1 X134.063 Y59.741 E4.3672
G1 X134.378 Y59.807 E4.3841
G1 X135.110 Y60.021 E4.4240
G1 X135.526 Y60.195 E4.4476
G1 X136.386 Y60.671 E4.4991
G1 X136.799 Y60.972 E4.5260
G1 X137.534 Y61.664 E4.5788
G1 X137.861 Y62.059 E4.6057
G1 X138.388 Y62.889 E4.6572
G1 X138.586 Y63.294 E4.6808
G1 X138.866 Y64.073 E4.7241
G1 X138.972 Y64.511 E4.7478
G1 X139.079 Y65.360 E4.7926
G1 X139.095 Y65.616 E4.8060
G1 X139.095 Y121.841 E7.7514
G1 X139.086 Y122.034 E7.7615
G1 X139.020 Y122.729 E7.7981
G1 X138.929 Y123.171 E7.8217
G1 X138.635 Y124.076 E7.8716
G1 X138.449 Y124.488 E7.8952
G1 X138.043 Y125.173 E7.9369
G1 X137.814 Y125.488 E7.9573
G1 X137.304 Y126.065 E7.9977
G1 X137.021 Y126.329 E8.0179
G1 X136.417 Y126.796 E8.0579
G1 X136.090 Y127.002 E8.0782
G1 X135.438 Y127.332 E8.1165
G1 X135.140 Y127.455 E8.1333
G1 X134.566 Y127.640 E8.1650
G1 X134.192 Y127.723 E8.1850
G1 X133.382 Y127.824 E8.2278
G1 X133.128 Y127.840 E8.2411
G1 X130.595 Y127.840 E8.3738
G1 X130.595 Y129.941 E8.4839
G1 X128.196 Y132.340 E8.6616
G1 X62.804 Y132.340 E12.0871
G1 X60.405 Y129.941 E12.2648
G1 X60.405 Y127.838 E12.3750
G1 X56.704 Y127.836 E12.5689
G1 X56.379 Y127.809 E12.5860
G1 X55.688 Y127.698 E12.6227
G1 X55.376 Y127.622 E12.6395
G1 X54.800 Y127.434 E12.6712
G1 X54.446 Y127.279 E12.6915
G1 X53.614 Y126.819 E12.7413
G1 X53.201 Y126.518 E12.7681
G1 X52.466 Y125.826 E12.8209
G1 X52.139 Y125.431 E12.8478
G1 X51.612 Y124.601 E12.8993
G1 X51.414 Y124.196 E12.9229
G1 X51.134 Y123.417 E12.9663
G1 X51.028 Y122.979 E12.9899
G1 X50.921 Y122.130 E13.0347
G1 X50.905 Y121.874 E13.0482
G1 X50.905 Y65.681 E15.9918
G1 X50.909 Y65.552 E15.9985
G1 X50.939 Y65.077 E16.0235
G1 X50.984 Y64.758 E16.0404
G1 X51.137 Y64.077 E16.0769
G1 X51.231 Y63.769 E16.0938
G1 X51.442 Y63.236 E16.1238
G1 X51.584 Y62.947 E16.1407
G1 X51.939 Y62.346 E16.1772
G1 X52.124 Y62.083 E16.1941
G1 X52.511 Y61.616 E16.2259
G1 X52.645 Y61.482 E16.2358
G1 X52.786 Y61.341 F720
G1 X53.210 Y61.807 F4800
G92 E0
G1 X53.896 Y61.242 E0.0465 F720
G1 X54.263 Y61.010 E0.0693
G1 X55.058 Y60.636 E0.1153
G1 X55.367 Y60.526 E0.1325
G1 X55.906 Y60.389 E0.1616
G1 X56.172 Y60.342 E0.1758
G1 X56.757 Y60.288 E0.2066
G1 X56.919 Y60.280 E0.2151
G1 X63.075 Y60.280 E0.5375
G1 X65.065 Y58.290 E0.6850
G1 X125.935 Y58.290 E3.8736
G1 X127.927 Y60.282 E4.0212
G1 X133.243 Y60.284 E4.2997
G1 X133.464 Y60.299 E4.3113
G1 X133.958 Y60.362 E4.3373
G1 X134.224 Y60.418 E4.3516
G1 X134.899 Y60.616 E4.3884
G1 X135.251 Y60.763 E4.4084
G1 X136.046 Y61.203 E4.4560
G1 X136.396 Y61.458 E4.4787
G1 X137.074 Y62.095 E4.5274
G1 X137.350 Y62.430 E4.5502
G1 X137.837 Y63.198 E4.5978
G1 X138.005 Y63.540 E4.6178
G1 X138.262 Y64.253 E4.6575
G1 X138.351 Y64.624 E4.6775
G1 X138.451 Y65.419 E4.7194
G1 X138.465 Y65.636 E4.7308
G1 X138.465 Y121.827 E7.6744
G1 X138.457 Y121.990 E7.6829
G1 X138.396 Y122.636 E7.7169
G1 X138.319 Y123.009 E7.7369
G1 X138.046 Y123.849 E7.7831
G1 X137.889 Y124.197 E7.8031
G1 X137.516 Y124.827 E7.8415
G1 X137.322 Y125.093 E7.8587
G1 X136.852 Y125.625 E7.8959
G1 X136.613 Y125.849 E7.9131
G1 X136.055 Y126.279 E7.9500
G1 X135.779 Y126.454 E7.9671
G1 X135.175 Y126.759 E8.0025
G1 X134.924 Y126.863 E8.0168
G1 X134.401 Y127.031 E8.0456
G1 X134.084 Y127.101 E8.0626
G1 X133.324 Y127.197 E8.1027
G1 X133.108 Y127.210 E8.1140
G1 X129.965 Y127.210 E8.2787
G1 X129.965 Y129.680 E8.4081
G1 X127.935 Y131.710 E8.5585
G1 X63.065 Y131.710 E11.9567
G1 X61.035 Y129.680 E12.1070
G1 X61.035 Y127.208 E12.2366
G1 X56.730 Y127.206 E12.4621
G1 X56.455 Y127.183 E12.4765
G1 X55.813 Y127.080 E12.5106
G1 X55.548 Y127.016 E12.5249
G1 X55.025 Y126.844 E12.5537
G1 X54.725 Y126.714 E12.5709
G1 X53.954 Y126.287 E12.6170
G1 X53.604 Y126.032 E12.6397
G1 X52.926 Y125.395 E12.6884
G1 X52.650 Y125.060 E12.7112
G1 X52.163 Y124.292 E12.7588
G1 X51.995 Y123.950 E12.7788
G1 X51.738 Y123.237 E12.8185
G1 X51.649 Y122.866 E12.8385
G1 X51.549 Y122.071 E12.8804
G1 X51.535 Y121.854 E12.8918
G1 X51.535 Y65.691 E15.8339
G1 X51.538 Y65.582 E15.8396
G1 X51.566 Y65.141 E15.8628
G1 X51.605 Y64.871 E15.8770
G1 X51.746 Y64.238 E15.9110
G1 X51.826 Y63.978 E15.9253
G1 X52.019 Y63.491 E15.9527
G1 X52.139 Y63.247 E15.9670
G1 X52.469 Y62.688 E16.0009
G1 X52.625 Y62.466 E16.0152
G1 X52.977 Y62.040 E16.0441
G1 X53.069 Y61.949 E16.0509
G1 X53.210 Y61.807 F720
G1 X53.634 Y62.274 F4800
G92 E0
G1 X54.266 Y61.753 E0.0429 F720
G1 X54.567 Y61.563 E0.0615
G1 X55.299 Y61.219 E0.1039
G1 X55.552 Y61.129 E0.1180
G1 X56.037 Y61.005 E0.1442
G1 X56.256 Y60.967 E0.1558
G1 X56.802 Y60.916 E0.1846
G1 X56.934 Y60.910 E0.1915
G1 X63.665 Y60.910 E0.5441
G1 X63.665 Y60.581 E0.5614
G1 X65.326 Y58.920 E0.6844
G1 X125.674 Y58.920 E3.8457
G1 X127.335 Y60.581 E3.9688
G1 X127.335 Y60.911 E3.9861
G1 X133.223 Y60.914 E4.2945
G1 X133.403 Y60.926 E4.3040
G1 X133.852 Y60.984 E4.3277
G1 X134.071 Y61.030 E4.3394
G1 X134.688 Y61.211 E4.3731
G1 X134.976 Y61.331 E4.3895
G1 X135.707 Y61.735 E4.4332
G1 X135.993 Y61.944 E4.4518
G1 X136.613 Y62.527 E4.4963
G1 X136.839 Y62.801 E4.5149
G1 X137.287 Y63.506 E4.5587
G1 X137.424 Y63.786 E4.5750
G1 X137.657 Y64.434 E4.6111
G1 X137.730 Y64.738 E4.6275
G1 X137.824 Y65.478 E4.6666
G1 X137.835 Y65.656 E4.6759
G1 X137.835 Y121.812 E7.6176
G1 X137.829 Y121.945 E7.6246
G1 X137.772 Y122.542 E7.6560
G1 X137.709 Y122.847 E7.6723
G1 X137.458 Y123.621 E7.7150
G1 X137.329 Y123.906 E7.7313
G1 X136.989 Y124.480 E7.7663
G1 X136.831 Y124.698 E7.7804
G1 X136.400 Y125.185 E7.8145
G1 X136.204 Y125.368 E7.8285
G1 X135.694 Y125.762 E7.8623
G1 X135.467 Y125.905 E7.8763
G1 X134.913 Y126.186 E7.9089
G1 X134.707 Y126.271 E7.9205
G1 X134.236 Y126.422 E7.9465
G1 X133.977 Y126.480 E7.9604
G1 X133.265 Y126.569 E7.9979
G1 X133.088 Y126.580 E8.0072
G1 X129.335 Y126.580 E8.2038
G1 X129.335 Y129.419 E8.3526
G1 X127.674 Y131.080 E8.4756
G1 X63.326 Y131.080 E11.8465
G1 X61.665 Y129.419 E11.9695
G1 X61.665 Y126.578 E12.1183
G1 X56.755 Y126.576 E12.3755
G1 X56.530 Y126.558 E12.3873
G1 X55.937 Y126.462 E12.4188
G1 X55.721 Y126.410 E12.4305
G1 X55.249 Y126.255 E12.4565
G1 X55.004 Y126.148 E12.4705
G1 X54.293 Y125.755 E12.5130
G1 X54.007 Y125.546 E12.5316
G1 X53.387 Y124.963 E12.5762
G1 X53.161 Y124.689 E12.5948
G1 X52.713 Y123.984 E12.6385
G1 X52.576 Y123.704 E12.6549
G1 X52.343 Y123.056 E12.6910
G1 X52.270 Y122.752 E12.7073
G1 X52.176 Y122.012 E12.7464
G1 X52.165 Y121.834 E12.7557
G1 X52.165 Y65.700 E15.6963
G1 X52.168 Y65.612 E15.7009
G1 X52.193 Y65.205 E15.7223
G1 X52.225 Y64.985 E15.7339
G1 X52.355 Y64.400 E15.7653
G1 X52.421 Y64.187 E15.7770
G1 X52.595 Y63.746 E15.8018
G1 X52.693 Y63.546 E15.8135
G1 X52.998 Y63.030 E15.8449
G1 X53.127 Y62.848 E15.8566
G1 X53.444 Y62.465 E15.8826
G1 X53.493 Y62.416 E15.8863
G1 X53.634 Y62.274 F720
G1 X54.058 Y62.741 F4800
G92 E0
G1 X54.637 Y62.265 E0.0393 F720
G1 X54.870 Y62.117 E0.0538
G1 X55.540 Y61.802 E0.0925
G1 X55.736 Y61.732 E0.1034
G1 X56.169 Y61.622 E0.1268
G1 X56.339 Y61.592 E0.1359
G1 X56.846 Y61.545 E0.1625
G1 X56.949 Y61.540 E0.1679
G1 X64.295 Y61.540 E0.5528
G1 X64.295 Y60.842 E0.5893
G1 X65.587 Y59.550 E0.6850
G1 X125.413 Y59.550 E3.8190
G1 X126.705 Y60.842 E3.9147
G1 X126.705 Y61.541 E3.9514
G1 X133.202 Y61.544 E4.2917
G1 X133.343 Y61.554 E4.2991
G1 X133.747 Y61.606 E4.3205
G1 X133.917 Y61.641 E4.3295
G1 X134.478 Y61.806 E4.3602
G1 X134.702 Y61.899 E4.3729
G1 X135.367 Y62.267 E4.4127
G1 X135.590 Y62.430 E4.4272
G1 X136.153 Y62.959 E4.4676
G1 X136.329 Y63.172 E4.4821
G1 X136.736 Y63.814 E4.5220
G1 X136.843 Y64.032 E4.5347
G1 X137.053 Y64.615 E4.5671
G1 X137.110 Y64.851 E4.5798
G1 X137.196 Y65.537 E4.6161
