; generated by Slic3r 1.2.9 on 2016-02-06 at 11:53:54

; H1_0.30
; H11_0.20
; H12_0.36
; H13_0.20
; H14_0.36
; H15_True
; H5_False
; H6_False
; H4_30
; H3_15
; H2_QUJTLUZEUGxhc3QtMjQw
; H31_True
; H32_1.00
; H33_True
; H34_70
; H35_1.50
; H36_True
; H37_True
; H23_240
; H22_240
; H25_110
; H24_115
; H21_0.97
; H26_1400.00
; H27_1
; H7_0

; external perimeters extrusion width = 0.36mm
; perimeters extrusion width = 0.36mm
; infill extrusion width = 0.36mm
; solid infill extrusion width = 0.36mm
; top infill extrusion width = 0.30mm

M107
M85 S600
M104 S200
M190 S115
M109 S240
G28
G90
G1 X20 Y0 F10000
G21 ; set units to millimeters
G90 ; use absolute coordinates
M82 ; use absolute distances for extrusion
G92 E0
G1 Z0.200 F9600.000
G1 E-1.00000 F1200.00000
G92 E0
G1 X90.050 Y90.700 F9600.000
G1 E1.00000 F1200.00000
G1 X92.500 Y89.849 E1.06634 F450.000
G1 X107.500 Y89.849 E1.44996
G1 X109.222 Y90.243 E1.49514
G1 X110.600 Y91.349 E1.54032 F450.000
G1 X111.451 Y93.800 E1.60667
G1 X111.451 Y95.800 E1.65781
G1 X110.792 Y97.984 E1.71617
G1 X103.892 Y108.385 E2.03537
G1 X102.611 Y109.601 E2.08055
G1 X100.600 Y110.151 E2.13388
G1 X99.400 Y110.151 E2.16455
G1 X97.678 Y109.756 E2.20973
G1 X96.108 Y108.385 E2.26306
G1 X89.208 Y97.984 E2.58226
G1 X88.549 Y95.800 E2.64061
G1 X88.549 Y93.800 E2.69176
G1 X88.944 Y92.078 E2.73694
G1 X90.021 Y90.735 E2.78097
G1 X90.309 Y90.921 F9600.000
G1 X90.358 Y90.864 E2.78290 F450.000
G1 X92.500 Y90.166 E2.84051
G1 X107.500 Y90.166 E3.22413
G1 X109.147 Y90.560 E3.26743
G1 X110.436 Y91.658 E3.31074 F450.000
G1 X111.134 Y93.800 E3.36835
G1 X111.134 Y95.800 E3.41950
G1 X110.528 Y97.809 E3.47317
G1 X103.628 Y108.209 E3.79237
G1 X102.389 Y109.363 E3.83568
G1 X100.600 Y109.834 E3.88299
G1 X99.400 Y109.834 E3.91366
G1 X97.754 Y109.440 E3.95696
G1 X96.372 Y108.209 E4.00428
G1 X89.472 Y97.809 E4.32348
G1 X88.866 Y95.800 E4.37715
G1 X88.866 Y93.800 E4.42830
G1 X89.260 Y92.153 E4.47160
G1 X90.280 Y90.956 E4.51183
G1 X90.561 Y91.151 F9600.000
G1 X90.665 Y91.036 E4.51578 F450.000
G1 X92.500 Y90.483 E4.56479
G1 X107.500 Y90.483 E4.94841
G1 X109.068 Y90.877 E4.98975
G1 X110.263 Y91.965 E5.03110 F450.000
G1 X110.817 Y93.800 E5.08011
G1 X110.817 Y95.800 E5.13126
G1 X110.264 Y97.634 E5.18025
G1 X103.364 Y108.034 E5.49945
G1 X102.169 Y109.123 E5.54080
G1 X100.600 Y109.517 E5.58217
G1 X99.400 Y109.517 E5.61284
G1 X97.832 Y109.123 E5.65418
G1 X96.636 Y108.034 E5.69556
G1 X89.736 Y97.634 E6.01476
G1 X89.183 Y95.800 E6.06374
G1 X89.183 Y93.800 E6.11489
G1 X89.577 Y92.232 E6.15624
G1 X90.531 Y91.184 E6.19248
G1 E5.19248 F1200.00000
G92 E0
G1 X96.217 Y98.100 F9600.000
G1 E1.00000 F1200.00000
G1 X96.082 Y98.059 E1.00360 F450.000
G1 X95.449 Y97.955 E1.02001
G1 X94.589 Y97.890 E1.04208
G1 X93.584 Y97.865 E1.06779
G1 X91.641 Y97.858 E1.11747
G1 X90.439 Y96.651 E1.16103
G1 X90.439 Y92.896 E1.25706
G1 X91.768 Y91.672 E1.30327
G1 X94.644 Y91.908 E1.37709
G1 X96.492 Y92.022 E1.42443
G1 X98.264 Y92.091 E1.46978
G1 X100.002 Y92.114 E1.51423
G1 X101.736 Y92.091 E1.55858
G1 X103.508 Y92.022 E1.60392
G1 X105.355 Y91.908 E1.65127
G1 X108.232 Y91.672 E1.72508
G1 X109.561 Y92.896 E1.77130
G1 X109.561 Y96.651 E1.86733
G1 X108.359 Y97.858 E1.91089
G1 X106.413 Y97.865 E1.96065
G1 X105.419 Y97.890 E1.98608
G1 X104.563 Y97.953 E2.00802
G1 X103.917 Y98.058 E2.02478
G1 X103.783 Y98.099 E2.02836
G1 X103.661 Y98.266 E2.03365
G1 X103.661 Y99.505 E2.06535
G1 X103.484 Y100.090 E2.08096
G1 X102.688 Y101.283 E2.11766
G1 X102.661 Y101.373 E2.12006
G1 X102.661 Y107.054 E2.26534
G1 X101.453 Y108.261 E2.30900
G1 X98.547 Y108.261 E2.38334
G1 X97.339 Y107.054 E2.42700
G1 X97.339 Y101.373 E2.57228
G1 X97.312 Y101.283 E2.57468
G1 X96.516 Y100.089 E2.61138
G1 X96.339 Y99.505 E2.62699
G1 X96.339 Y98.267 E2.65866
G1 X96.244 Y98.136 E2.66281
G1 X96.656 Y98.035 F9600.000
G1 X96.534 Y97.868 E2.66810 F450.000
G1 X96.157 Y97.749 E2.67823
G1 X95.473 Y97.638 E2.69594
G1 X94.597 Y97.573 E2.71841
G1 X93.588 Y97.548 E2.74421
G1 X91.773 Y97.541 E2.79062
G1 X90.756 Y96.520 E2.82748
G1 X90.756 Y93.035 E2.91661
G1 X91.881 Y91.999 E2.95571
G1 X94.622 Y92.224 E3.02605
G1 X96.476 Y92.339 E3.07357
G1 X98.256 Y92.408 E3.11912
G1 X100.002 Y92.431 E3.16378
G1 X101.744 Y92.408 E3.20833
G1 X103.524 Y92.339 E3.25388
G1 X105.378 Y92.224 E3.30140
G1 X108.119 Y91.999 E3.37173
G1 X109.244 Y93.035 E3.41084
G1 X109.244 Y96.520 E3.49997
G1 X108.227 Y97.541 E3.53683
G1 X106.412 Y97.548 E3.58324
G1 X105.403 Y97.573 E3.60904
G1 X104.526 Y97.638 E3.63154
G1 X103.843 Y97.749 E3.64924
G1 X103.466 Y97.867 E3.65934
G1 X103.344 Y98.034 E3.66464
G1 X103.344 Y99.458 E3.70107
G1 X103.194 Y99.953 E3.71428
G1 X102.371 Y101.187 E3.75223
G1 X102.344 Y101.277 E3.75463
G1 X102.344 Y106.923 E3.89900
G1 X101.322 Y107.944 E3.93595
G1 X98.678 Y107.944 E4.00357
G1 X97.656 Y106.923 E4.04052
G1 X97.656 Y101.277 E4.18489
G1 X97.629 Y101.187 E4.18729
G1 X96.806 Y99.953 E4.22525
G1 X96.656 Y99.458 E4.23845
G1 X96.656 Y98.080 E4.27370
G1 X96.869 Y97.684 F9600.000
G1 X96.707 Y97.590 E4.27849 F450.000
G1 X96.253 Y97.446 E4.29066
G1 X95.510 Y97.323 E4.30992
G1 X94.612 Y97.257 E4.33294
G1 X93.593 Y97.230 E4.35903
G1 X91.905 Y97.225 E4.40218
G1 X91.073 Y96.389 E4.43234
G1 X91.073 Y93.174 E4.51456
G1 X91.993 Y92.327 E4.54655
G1 X94.599 Y92.541 E4.61342
G1 X96.460 Y92.656 E4.66111
G1 X98.248 Y92.725 E4.70686
G1 X99.998 Y92.748 E4.75162
G1 X101.748 Y92.725 E4.79639
G1 X103.540 Y92.656 E4.84224
G1 X105.401 Y92.541 E4.88993
G1 X108.007 Y92.327 E4.95679
G1 X108.927 Y93.174 E4.98879
G1 X108.927 Y96.389 E5.07102
G1 X108.094 Y97.225 E5.10117
G1 X106.407 Y97.230 E5.14432
G1 X105.387 Y97.257 E5.17041
G1 X104.489 Y97.323 E5.19345
G1 X103.769 Y97.439 E5.21211
G1 X103.294 Y97.589 E5.22483
G1 X103.131 Y97.684 E5.22966
G1 X103.056 Y97.792 E5.23304
G1 X103.026 Y97.955 E5.23728
G1 X103.026 Y99.411 E5.27452
G1 X102.904 Y99.816 E5.28532
G1 X102.054 Y101.091 E5.32453
G1 X102.026 Y101.181 E5.32693
G1 X102.026 Y106.791 E5.47040
G1 X101.191 Y107.627 E5.50063
G1 X98.809 Y107.627 E5.56153
G1 X97.974 Y106.791 E5.59176
G1 X97.974 Y101.181 E5.73523
G1 X97.946 Y101.091 E5.73763
G1 X97.096 Y99.816 E5.77684
G1 X96.974 Y99.411 E5.78764
G1 X96.974 Y97.956 E5.82485
G1 X96.944 Y97.793 E5.82911
G1 X96.894 Y97.721 E5.83134
G1 X97.208 Y97.573 F9600.000
G1 X97.111 Y97.461 E5.83514 F450.000
G1 X96.840 Y97.300 E5.84320
G1 X96.305 Y97.131 E5.85755
G1 X95.561 Y97.010 E5.87680
G1 X94.628 Y96.940 E5.90074
G1 X93.597 Y96.913 E5.92711
G1 X92.038 Y96.908 E5.96700
G1 X91.390 Y96.258 E5.99045
G1 X91.390 Y93.313 E6.06577
G1 X92.106 Y92.654 E6.09066
G1 X94.576 Y92.857 E6.15405
G1 X96.444 Y92.973 E6.20192
G1 X98.240 Y93.042 E6.24786
G1 X99.998 Y93.065 E6.29283
G1 X101.760 Y93.042 E6.33791
G1 X103.555 Y92.973 E6.38385
G1 X105.424 Y92.857 E6.43173
G1 X107.894 Y92.654 E6.49511
G1 X108.610 Y93.313 E6.52000
G1 X108.610 Y96.258 E6.59532
G1 X107.962 Y96.908 E6.61878
G1 X106.403 Y96.913 E6.65866
G1 X105.372 Y96.940 E6.68504
G1 X104.438 Y97.010 E6.70898
G1 X103.695 Y97.130 E6.72824
G1 X103.161 Y97.298 E6.74255
G1 X102.889 Y97.460 E6.75065
G1 X102.792 Y97.572 E6.75443
G1 X102.763 Y97.637 E6.75624
G1 X102.709 Y97.924 E6.76373
G1 X102.709 Y99.365 E6.80056
G1 X102.614 Y99.679 E6.80896
G1 X101.737 Y100.995 E6.84942
G1 X101.709 Y101.085 E6.85182
G1 X101.709 Y106.660 E6.99439
G1 X101.059 Y107.310 E7.01790
G1 X98.941 Y107.310 E7.07208
G1 X98.291 Y106.660 E7.09560
G1 X98.291 Y101.085 E7.23816
G1 X98.263 Y100.995 E7.24056
G1 X97.386 Y99.679 E7.28103
G1 X97.291 Y99.364 E7.28943
G1 X97.291 Y97.925 E7.32623
G1 X97.226 Y97.614 E7.33437
G1 X97.463 Y97.384 F9600.000
G1 X97.329 Y97.223 E7.33973 F450.000
G1 X96.973 Y97.009 E7.35034
G1 X96.379 Y96.822 E7.36627
G1 X95.599 Y96.694 E7.38648
G1 X94.644 Y96.623 E7.41096
G1 X93.602 Y96.596 E7.43763
G1 X92.170 Y96.591 E7.47425
G1 X91.707 Y96.127 E7.49101
G1 X91.707 Y93.452 E7.55942
G1 X92.218 Y92.981 E7.57719
G1 X94.553 Y93.173 E7.63711
G1 X96.429 Y93.289 E7.68516
G1 X98.231 Y93.359 E7.73130
G1 X99.998 Y93.382 E7.77648
G1 X101.765 Y93.359 E7.82167
G1 X103.571 Y93.289 E7.86791
G1 X105.447 Y93.173 E7.91596
G1 X107.781 Y92.981 E7.97587
G1 X108.293 Y93.452 E7.99365
G1 X108.293 Y96.127 E8.06206 F450.000
G1 X107.830 Y96.591 E8.07881
G1 X106.398 Y96.596 E8.11544
G1 X105.356 Y96.623 E8.14210
G1 X104.401 Y96.694 E8.16660
G1 X103.621 Y96.821 E8.18680
G1 X103.028 Y97.008 E8.20271
G1 X102.671 Y97.222 E8.21335
G1 X102.495 Y97.440 E8.22052
G1 X102.466 Y97.505 E8.22233
G1 X102.392 Y97.893 E8.23244
G1 X102.392 Y99.318 E8.26886
G1 X102.324 Y99.542 E8.27487
G1 X101.420 Y100.899 E8.31658
G1 X101.392 Y100.989 E8.31898
G1 X101.392 Y106.529 E8.46065
G1 X100.928 Y106.993 E8.47744
G1 X99.072 Y106.993 E8.52490
G1 X98.608 Y106.529 E8.54170
G1 X98.608 Y100.989 E8.68336
G1 X98.580 Y100.899 E8.68576
G1 X97.676 Y99.542 E8.72748
G1 X97.608 Y99.318 E8.73348
G1 X97.608 Y97.894 E8.76988
G1 X97.534 Y97.505 E8.78000
G1 X97.489 Y97.420 E8.78247
G1 X97.717 Y97.194 F9600.000
G1 X97.547 Y96.985 E8.78938 F450.000
G1 X97.141 Y96.735 E8.80157
G1 X96.453 Y96.513 E8.82007
G1 X95.622 Y96.378 E8.84158
G1 X94.668 Y96.307 E8.86607
G1 X93.607 Y96.279 E8.89321
G1 X92.302 Y96.275 E8.92658
G1 X92.024 Y95.996 E8.93663
G1 X92.024 Y93.591 E8.99814
G1 X92.331 Y93.309 E9.00880
G1 X94.531 Y93.489 E9.06525
G1 X96.413 Y93.606 E9.11347
G1 X98.223 Y93.676 E9.15981
G1 X99.998 Y93.699 E9.20520
G1 X101.777 Y93.676 E9.25070
G1 X103.587 Y93.606 E9.29704
G1 X105.469 Y93.489 E9.34526
G1 X107.669 Y93.309 E9.40170
G1 X107.976 Y93.591 E9.41236 F450.000
G1 X107.976 Y95.996 E9.47387
G1 X107.698 Y96.275 E9.48393
G1 X106.393 Y96.279 E9.51729
G1 X105.332 Y96.307 E9.54444
G1 X104.377 Y96.378 E9.56893
G1 X103.547 Y96.512 E9.59044
G1 X102.859 Y96.734 E9.60893
G1 X102.453 Y96.984 E9.62113
G1 X102.198 Y97.308 E9.63168
G1 X102.169 Y97.373 E9.63349
G1 X102.075 Y97.862 E9.64622
G1 X102.075 Y99.271 E9.68224
G1 X102.034 Y99.405 E9.68585
G1 X101.102 Y100.803 E9.72882
G1 X101.075 Y100.893 E9.73122
G1 X101.075 Y106.397 E9.87198
G1 X100.797 Y106.676 E9.88205
G1 X99.203 Y106.676 E9.92280
G1 X98.925 Y106.397 E9.93288
G1 X98.925 Y100.893 E10.07364
G1 X98.898 Y100.803 E10.07604
G1 X97.966 Y99.405 E10.11901
G1 X97.925 Y99.271 E10.12261
G1 X97.922 Y97.832 E10.15939
G1 X97.831 Y97.374 E10.17135
G1 X97.744 Y97.231 E10.17563
G1 E9.17563 F1200.00000
G92 E0
G1 X92.341 Y95.865 F9600.000
G1 E1.00000 F1200.00000
G1 X92.341 Y93.730 E1.05460 F450.000
G1 X92.444 Y93.636 E1.05816
G1 X94.508 Y93.806 E1.11112
G1 X96.397 Y93.923 E1.15952
G1 X98.215 Y93.993 E1.20606
G1 X99.998 Y94.016 E1.25166
G1 X101.785 Y93.993 E1.29737
G1 X103.600 Y93.923 E1.34381
G1 X105.492 Y93.806 E1.39230
G1 X107.556 Y93.636 E1.44527
G1 X107.659 Y93.730 E1.44882
G1 X107.659 Y95.865 E1.50343
G1 X107.566 Y95.958 E1.50678
G1 X105.317 Y95.990 E1.56431
G1 X104.340 Y96.062 E1.58936
G1 X103.473 Y96.203 E1.61181
G1 X102.761 Y96.427 E1.63091
G1 X102.235 Y96.746 E1.64665
G1 X101.901 Y97.177 E1.66058
G1 X101.872 Y97.241 E1.66239
G1 X101.758 Y97.831 E1.67775
G1 X101.758 Y99.224 E1.71337
G1 X101.745 Y99.269 E1.71457
G1 X100.785 Y100.707 E1.75879
G1 X100.758 Y100.797 E1.76119
G1 X100.758 Y106.266 E1.90105
G1 X100.665 Y106.359 E1.90441
G1 X99.335 Y106.359 E1.93843
G1 X99.242 Y106.266 E1.94179
G1 X99.242 Y100.797 E2.08165
G1 X99.215 Y100.707 E2.08405
G1 X98.255 Y99.269 E2.12827
G1 X98.242 Y99.224 E2.12947
G1 X98.239 Y97.801 E2.16586
G1 X98.128 Y97.242 E2.18043
G1 X98.099 Y97.177 E2.18224
G1 X97.810 Y96.787 E2.19467
G1 X97.239 Y96.428 E2.21190
G1 X96.527 Y96.204 E2.23101
G1 X95.660 Y96.062 E2.25347
G1 X94.683 Y95.990 E2.27851
G1 X92.434 Y95.958 E2.33605
G1 X92.373 Y95.897 E2.33825
G1 E1.33825 F1200.00000
G92 E0
G1 X100.420 Y106.020 F9600.000
G1 E1.00000 F1200.00000
G1 X99.580 Y106.020 E1.02146 F450.000
G1 X99.580 Y100.646 E1.15891
G1 X98.580 Y99.146 E1.20502
G1 X98.580 Y97.783 E1.23986
G1 X98.438 Y97.066 E1.25856
G1 X98.024 Y96.508 E1.27632
G1 X97.400 Y96.124 E1.29507
G1 X96.617 Y95.875 E1.31607
G1 X95.707 Y95.726 E1.33967
G1 X94.695 Y95.651 E1.36560
G1 X92.680 Y95.622 E1.41715
G1 X92.680 Y93.995 E1.45876
G1 X94.485 Y94.143 E1.50509
G1 X96.382 Y94.261 E1.55368
G1 X98.208 Y94.331 E1.60043
G1 X100.000 Y94.355 E1.64626
G1 X101.792 Y94.331 E1.69208
G1 X103.618 Y94.261 E1.73883
G1 X105.515 Y94.143 E1.78743
G1 X107.320 Y93.995 E1.83375
G1 X107.320 Y95.622 E1.87536
G1 X105.305 Y95.651 E1.92691
G1 X104.293 Y95.726 E1.95284
G1 X103.383 Y95.874 E1.97643
G1 X102.600 Y96.123 E1.99744
G1 X101.976 Y96.508 E2.01620
G1 X101.562 Y97.065 E2.03394
G1 X101.420 Y97.782 E2.05264
G1 X101.420 Y99.146 E2.08751
G1 X100.420 Y100.646 E2.13361
G1 X100.420 Y105.975 E2.26991
G1 X100.160 Y105.870 F9600.000
G1 X100.103 Y105.703 F9600.000
G1 X99.897 Y105.703 E2.27516 F450.000
G1 X99.897 Y100.550 E2.40695
G1 X98.897 Y99.050 E2.45306
G1 X98.897 Y97.752 E2.48624
G1 X98.735 Y96.934 E2.50757
G1 X98.242 Y96.270 E2.52871
G1 X97.533 Y95.834 E2.55002
G1 X96.691 Y95.566 E2.57260
G1 X95.744 Y95.411 E2.59715
G1 X94.710 Y95.334 E2.62368
G1 X92.997 Y95.310 E2.66748
G1 X92.997 Y94.339 E2.69230
G1 X94.462 Y94.460 E2.72990
G1 X96.366 Y94.578 E2.77867
G1 X98.200 Y94.648 E2.82561
G1 X100.000 Y94.672 E2.87165
G1 X101.800 Y94.648 E2.91769
G1 X103.634 Y94.578 E2.96464
G1 X105.538 Y94.460 E3.01341
G1 X107.003 Y94.339 E3.05100
G1 X107.003 Y95.310 E3.07582
G1 X105.290 Y95.334 E3.11962
G1 X104.256 Y95.411 E3.14615
G1 X103.309 Y95.565 E3.17069
G1 X102.467 Y95.833 E3.19329
G1 X101.758 Y96.270 E3.21460
G1 X101.265 Y96.933 E3.23572
G1 X101.103 Y97.751 E3.25705
G1 X101.103 Y99.050 E3.29026
G1 X100.103 Y100.550 E3.33636
G1 X100.103 Y105.658 E3.46701
G1 E2.46701 F1200.00000
G92 E0
G1 X100.000 Y100.132 F9600.000
G1 E1.00000 F1200.00000
G1 X99.215 Y98.954 E1.03621 F450.000
G1 X99.215 Y97.721 E1.06774
G1 X99.032 Y96.802 E1.09169
G1 X98.461 Y96.032 E1.11622
G1 X97.666 Y95.543 E1.14008
G1 X96.765 Y95.257 E1.16425
G1 X95.782 Y95.096 E1.18974
G1 X94.724 Y95.017 E1.21688
G1 X93.314 Y94.997 E1.25292
G1 X93.314 Y94.684 E1.26094
G1 X94.440 Y94.776 E1.28982
G1 X96.350 Y94.894 E1.33877
G1 X98.192 Y94.965 E1.38591
G1 X100.000 Y94.989 E1.43216
G1 X101.808 Y94.965 E1.47841
G1 X103.650 Y94.894 E1.52555
G1 X105.560 Y94.776 E1.57450
G1 X106.686 Y94.684 E1.60338
G1 X106.686 Y94.997 E1.61140
G1 X105.276 Y95.017 E1.64744
G1 X104.219 Y95.096 E1.67457
G1 X103.235 Y95.256 E1.70006
G1 X102.334 Y95.543 E1.72425
G1 X101.539 Y96.032 E1.74811
G1 X100.968 Y96.801 E1.77261
G1 X100.785 Y97.720 E1.79657
G1 X100.785 Y98.954 E1.82812
G1 X100.025 Y100.094 E1.86318
G1 X100.067 Y99.713 F9600.000
G1 X99.861 Y99.507 E1.87111 F450.000
G1 X99.397 Y98.567 F9600.000
G1 X100.272 Y99.442 E1.90467 F450.000
G1 X100.462 Y99.157 E1.91397
G1 X99.397 Y98.092 E1.95483
G1 X99.394 Y97.613 E1.96782
G1 X100.603 Y98.823 E2.01421
G1 X100.603 Y98.347 E2.02711
G1 X99.276 Y97.020 E2.07801
G1 E1.07801 F1200.00000
G92 E0
G1 X98.104 Y95.373 F9600.000
G1 E1.00000 F1200.00000
G1 X100.603 Y97.872 E1.09584 F450.000
G1 X100.664 Y97.457 E1.10721
G1 X98.358 Y95.151 E1.19566
G1 X98.840 Y95.157 E1.20873
G1 X100.743 Y97.060 E1.28171
G1 X100.853 Y96.695 E1.29206
G1 X99.321 Y95.163 E1.35080
G1 X99.803 Y95.170 E1.36387
G1 X101.056 Y96.422 E1.41191
G1 X101.259 Y96.149 E1.42112
G1 X100.276 Y95.167 E1.45882
G1 X100.745 Y95.161 E1.47155
G1 X101.474 Y95.889 E1.49947
G1 X101.768 Y95.707 E1.50884
G1 X101.215 Y95.154 E1.53005
G1 X101.684 Y95.148 E1.54278
G1 X101.863 Y95.327 E1.54964
G1 X102.054 Y95.286 F9600.000
G1 X103.282 Y95.077 E1.58150 F450.000
G1 E0.58150 F1200.00000
G92 E0
G1 X97.945 Y95.286 F9600.000
G1 E1.00000 F1200.00000
G1 X96.710 Y95.077 E1.03203 F450.000
M140 S110 ; wait for bed temperature to be reached
G1 Z0.400 F9600.000
G1 E0.03203 F1200.00000
G92 E0
G1 X100.000 Y100.132 F9600.000
G1 E1.00000 F1200.00000
G1 X99.215 Y98.954 E1.03621 F900.000
G1 X99.215 Y97.721 E1.06774
G1 X99.032 Y96.802 E1.09169
G1 X98.461 Y96.032 E1.11622
G1 X97.666 Y95.543 E1.14008
G1 X96.765 Y95.257 E1.16425
G1 X95.782 Y95.096 E1.18974
G1 X94.724 Y95.017 E1.21688
G1 X93.314 Y94.997 E1.25292
G1 X93.314 Y94.684 E1.26094
G1 X94.440 Y94.776 E1.28982
G1 X96.350 Y94.894 E1.33877
G1 X98.192 Y94.965 E1.38591
G1 X100.000 Y94.989 E1.43216
