; generated by Slic3r 1.2.9 on 2016-02-05 at 17:49:49

; H1_0.30
; H11_0.20
; H12_0.36
; H13_0.20
; H14_0.36
; H15_True
; H5_False
; H6_False
; H4_30
; H3_30
; H2_QUJTLUZEUGxhc3QtMjQw
; H31_True
; H32_1.00
; H33_True
; H34_70
; H35_1.50
; H36_True
; H37_True
; H23_240
; H22_240
; H25_110
; H24_115
; H21_0.97
; H26_1400.00
; H27_1
; H7_0

; external perimeters extrusion width = 0.36mm
; perimeters extrusion width = 0.36mm
; infill extrusion width = 0.36mm
; solid infill extrusion width = 0.36mm
; top infill extrusion width = 0.30mm

M107
M85 S600
M104 S200
M190 S115
M109 S240
G28
G90
G1 X20 Y0 F10000
G21 ; set units to millimeters
G90 ; use absolute coordinates
M82 ; use absolute distances for extrusion
G92 E0
G1 Z0.200 F9600.000
G1 E-1.00000 F1200.00000
G92 E0
G1 X86.858 Y86.064 F9600.000
G1 E1.00000 F1200.00000
G1 X89.000 Y85.366 E1.05761 F900.000
G1 X111.000 Y85.366 E1.62025
G1 X112.647 Y85.760 E1.66355
G1 X113.936 Y86.858 E1.70686 F900.000
G1 X114.634 Y89.000 E1.76447
G1 X114.634 Y111.000 E2.32711
G1 X114.240 Y112.647 E2.37041
G1 X113.142 Y113.936 E2.41372
G1 X111.000 Y114.634 E2.47133
G1 X89.000 Y114.634 E3.03397
G1 X87.353 Y114.240 E3.07727
G1 X86.064 Y113.142 E3.12058
G1 X85.366 Y111.000 E3.17819
G1 X85.366 Y89.000 E3.74082
G1 X85.760 Y87.353 E3.78413
G1 X86.829 Y86.098 E3.82628
G1 X87.112 Y86.295 F9600.000
G1 X87.165 Y86.237 E3.82831 F900.000
G1 X89.000 Y85.683 E3.87732
G1 X111.000 Y85.683 E4.43996
G1 X112.568 Y86.077 E4.48130
G1 X113.763 Y87.165 E4.52265 F900.000
G1 X114.317 Y89.000 E4.57166
G1 X114.317 Y111.000 E5.13430
G1 X113.923 Y112.568 E5.17564
G1 X112.835 Y113.763 E5.21699
G1 X111.000 Y114.317 E5.26600
G1 X89.000 Y114.317 E5.82863
G1 X87.432 Y113.923 E5.86998
G1 X86.237 Y112.835 E5.91133
G1 X85.683 Y111.000 E5.96034
G1 X85.683 Y89.000 E6.52297
G1 X86.077 Y87.432 E6.56432
G1 X87.082 Y86.328 E6.60249
G1 X87.951 Y87.134 F9600.000
G1 X88.146 Y86.939 E6.60955 F900.000
G1 X111.854 Y86.939 E7.21585
G1 X113.061 Y88.146 E7.25952
G1 X113.061 Y111.854 E7.86582 F900.000
G1 X111.854 Y113.061 E7.90948
G1 X88.146 Y113.061 E8.51578
G1 X86.939 Y111.854 E8.55945
G1 X86.939 Y88.146 E9.16575
G1 X87.919 Y87.166 E9.20120
G1 X88.175 Y87.358 F9600.000
G1 X88.278 Y87.256 E9.20491 F900.000
G1 X111.722 Y87.256 E9.80449
G1 X112.744 Y88.278 E9.84144 F900.000
G1 X112.744 Y111.722 E10.44102
G1 X111.722 Y112.744 E10.47797
G1 X88.278 Y112.744 E11.07755
G1 X87.256 Y111.722 E11.11450
G1 X87.256 Y88.278 E11.71408
G1 X88.143 Y87.390 E11.74618
G1 X88.399 Y87.583 F9600.000
G1 X111.591 Y87.573 E12.33928 F900.000
G1 X112.427 Y88.409 E12.36951
G1 X112.427 Y111.591 E12.96238 F900.000
G1 X111.591 Y112.427 E12.99261
G1 X88.409 Y112.427 E13.58547
G1 X87.573 Y111.591 E13.61570
G1 X87.573 Y88.409 E14.20857
G1 X88.368 Y87.614 E14.23731
G1 X88.540 Y87.890 F9600.000
G1 X111.460 Y87.890 E14.82345 F900.000
G1 X112.110 Y88.540 E14.84696 F900.000
G1 X112.110 Y111.460 E15.43311
G1 X111.460 Y112.110 E15.45662
G1 X88.540 Y112.110 E16.04277
G1 X87.890 Y111.460 E16.06628
G1 X87.890 Y88.540 E16.65243
G1 X88.508 Y87.922 E16.67479
G1 X88.672 Y88.207 F9600.000
G1 X111.328 Y88.207 E17.25422 F900.000
G1 X111.793 Y88.672 E17.27102
G1 X111.793 Y111.328 E17.85045 F900.000
G1 X111.328 Y111.793 E17.86724
G1 X88.672 Y111.793 E18.44667
G1 X88.207 Y111.328 E18.46346
G1 X88.207 Y88.672 E19.04289
G1 X88.640 Y88.239 E19.05854
G1 X88.803 Y88.524 F9600.000
G1 X111.197 Y88.524 E19.63125 F900.000
G1 X111.476 Y88.803 E19.64133 F900.000
G1 X111.476 Y111.197 E20.21404
G1 X111.197 Y111.476 E20.22411
G1 X88.803 Y111.476 E20.79683
G1 X88.524 Y111.197 E20.80690
G1 X88.524 Y88.803 E21.37961
G1 X88.771 Y88.556 E21.38854
G1 X88.934 Y88.841 F9600.000
G1 X111.066 Y88.841 E21.95453 F900.000
G1 X111.159 Y88.934 E21.95789
G1 X111.159 Y111.066 E22.52389
G1 X111.066 Y111.159 E22.52725
G1 X88.934 Y111.159 E23.09324
G1 X88.841 Y111.066 E23.09660
G1 X88.841 Y88.934 E23.66259
G1 X88.903 Y88.873 E23.66480
G1 E22.66480 F1200.00000
G92 E0
G1 X110.820 Y110.820 F9600.000
G1 E1.00000 F1200.00000
G1 X89.180 Y110.820 E1.55343 F900.000
G1 X89.180 Y89.180 E2.10686
G1 X110.820 Y89.180 E2.66029
G1 X110.820 Y110.775 E3.21256
G1 X110.560 Y110.670 F9600.000
G1 X110.503 Y110.503 F9600.000
G1 X89.497 Y110.503 E3.74977 F900.000
G1 X89.497 Y89.497 E4.28698
G1 X110.503 Y89.497 E4.82419
G1 X110.503 Y110.458 E5.36025
G1 X110.186 Y110.186 F9600.000
G1 X89.814 Y110.186 E5.88124 F900.000
G1 X89.814 Y89.814 E6.40224
G1 X110.186 Y89.814 E6.92323
G1 X110.186 Y110.141 E7.44307
G1 E6.44307 F1200.00000
G92 E0
G1 X110.004 Y90.171 F9600.000
G1 E1.00000 F1200.00000
G1 X109.829 Y89.996 E1.00634 F900.000
G1 X109.378 Y89.996 E1.01793
G1 X110.004 Y90.622 E1.04066
G1 X110.004 Y91.072 E1.05225
G1 X108.928 Y89.996 E1.09137
G1 X108.477 Y89.996 E1.10296
G1 X110.004 Y91.523 E1.15846
G1 X110.004 Y91.974 E1.17005
G1 X108.026 Y89.996 E1.24194
G1 X107.575 Y89.996 E1.25353
G1 X110.004 Y92.425 E1.34181
G1 X110.004 Y92.875 E1.35340
G1 X107.125 Y89.996 E1.45806
G1 X106.674 Y89.996 E1.46965
G1 X110.004 Y93.326 E1.59070
G1 X110.004 Y93.777 E1.60229
G1 X106.223 Y89.996 E1.73973
G1 X105.772 Y89.996 E1.75132
G1 X110.004 Y94.228 E1.90514
G1 X110.004 Y94.678 E1.91673
G1 X105.322 Y89.996 E2.08694
G1 X104.871 Y89.996 E2.09853
G1 X110.004 Y95.129 E2.28513
G1 X110.004 Y95.580 E2.29672
G1 X104.420 Y89.996 E2.49971
G1 X103.969 Y89.996 E2.51129
G1 X110.004 Y96.031 E2.73067
G1 X110.004 Y96.481 E2.74225
G1 X103.519 Y89.996 E2.97801
G1 X103.068 Y89.996 E2.98960
G1 X110.004 Y96.932 E3.24175
G1 X110.004 Y97.383 E3.25334
G1 X102.617 Y89.996 E3.52187
G1 X102.166 Y89.996 E3.53346
G1 X110.004 Y97.834 E3.81838
G1 X110.004 Y98.284 E3.82997
G1 X101.716 Y89.996 E4.13128
G1 X101.265 Y89.996 E4.14286
G1 X110.004 Y98.735 E4.46056
G1 X110.004 Y99.186 E4.47214
G1 X100.814 Y89.996 E4.80623
G1 X100.363 Y89.996 E4.81781
G1 X110.004 Y99.637 E5.16828
G1 X110.004 Y100.087 E5.17987
G1 X99.913 Y89.996 E5.54673
G1 X99.462 Y89.996 E5.55831
G1 X110.004 Y100.538 E5.94156
G1 X110.004 Y100.989 E5.95314
G1 X99.011 Y89.996 E6.35277
G1 X98.560 Y89.996 E6.36436
G1 X110.004 Y101.440 E6.78037
G1 X110.004 Y101.890 E6.79196
G1 X98.110 Y89.996 E7.22437
G1 X97.659 Y89.996 E7.23595
G1 X110.004 Y102.341 E7.68474
G1 X110.004 Y102.792 E7.69633
G1 X97.208 Y89.996 E8.16151
G1 X96.758 Y89.996 E8.17309
G1 X110.004 Y103.242 E8.65466
G1 X110.004 Y103.693 E8.66624
G1 X96.307 Y89.996 E9.16419
G1 X95.856 Y89.996 E9.17578
G1 X110.004 Y104.144 E9.69012
G1 X110.004 Y104.595 E9.70171
G1 X95.405 Y89.996 E10.23243
G1 X94.955 Y89.996 E10.24402
G1 X110.004 Y105.045 E10.79113
G1 X110.004 Y105.496 E10.80272
G1 X94.504 Y89.996 E11.36621
G1 X94.053 Y89.996 E11.37780
G1 X110.004 Y105.947 E11.95769
G1 X110.004 Y106.398 E11.96927
G1 X93.602 Y89.996 E12.56554
G1 X93.152 Y89.996 E12.57713
G1 X110.004 Y106.848 E13.18979
G1 X110.004 Y107.299 E13.20138
G1 X92.701 Y89.996 E13.83042
G1 X92.250 Y89.996 E13.84201
G1 X110.004 Y107.750 E14.48744
G1 X110.004 Y108.201 E14.49903
G1 X91.799 Y89.996 E15.16085
G1 X91.349 Y89.996 E15.17243
G1 X110.004 Y108.651 E15.85064
G1 X110.004 Y109.102 E15.86223
G1 X90.898 Y89.996 E16.55682
G1 X90.447 Y89.996 E16.56841
G1 X110.004 Y109.553 E17.27939
G1 X109.984 Y109.984 E17.29047
G1 X90.016 Y90.016 E18.01638
G1 X89.996 Y90.447 E18.02747
G1 X109.553 Y110.004 E18.73844
G1 X109.102 Y110.004 E18.75003
G1 X89.996 Y90.898 E19.44462
G1 X89.996 Y91.349 E19.45621
G1 X108.651 Y110.004 E20.13441
G1 X108.201 Y110.004 E20.14600
G1 X89.996 Y91.799 E20.80781
G1 X89.996 Y92.250 E20.81940
G1 X107.750 Y110.004 E21.46483
G1 X107.299 Y110.004 E21.47642
G1 X89.996 Y92.701 E22.10546
G1 X89.996 Y93.152 E22.11705
G1 X106.848 Y110.004 E22.72970
G1 X106.398 Y110.004 E22.74129
G1 X89.996 Y93.602 E23.33756
G1 X89.996 Y94.053 E23.34915
G1 X105.947 Y110.004 E23.92903
G1 X105.496 Y110.004 E23.94062
G1 X89.996 Y94.504 E24.50411
G1 X89.996 Y94.955 E24.51570
G1 X105.045 Y110.004 E25.06281
G1 X104.595 Y110.004 E25.07439
G1 X89.996 Y95.405 E25.60511
G1 X89.996 Y95.856 E25.61670
G1 X104.144 Y110.004 E26.13104
G1 X103.693 Y110.004 E26.14262
G1 X89.996 Y96.307 E26.64057
G1 X89.996 Y96.758 E26.65216
G1 X103.242 Y110.004 E27.13372
G1 X102.792 Y110.004 E27.14531
G1 X89.996 Y97.208 E27.61048
G1 X89.996 Y97.659 E27.62207
G1 X102.341 Y110.004 E28.07085
G1 X101.890 Y110.004 E28.08244
G1 X89.996 Y98.110 E28.51484
G1 X89.996 Y98.561 E28.52643
G1 X101.439 Y110.004 E28.94244
G1 X100.989 Y110.004 E28.95403
G1 X89.996 Y99.011 E29.35365
G1 X89.996 Y99.462 E29.36524
G1 X100.538 Y110.004 E29.74848
G1 X100.087 Y110.004 E29.76007
G1 X89.996 Y99.913 E30.12692
G1 X89.996 Y100.364 E30.13851
G1 X99.636 Y110.004 E30.48897
G1 X99.186 Y110.004 E30.50056
G1 X89.996 Y100.814 E30.83464
G1 X89.996 Y101.265 E30.84623
G1 X98.735 Y110.004 E31.16392
G1 X98.284 Y110.004 E31.17551
G1 X89.996 Y101.716 E31.47681
G1 X89.996 Y102.167 E31.48840
G1 X97.833 Y110.004 E31.77332
G1 X97.383 Y110.004 E31.78491
G1 X89.996 Y102.617 E32.05344
G1 X89.996 Y103.068 E32.06502
G1 X96.932 Y110.004 E32.31717
G1 X96.481 Y110.004 E32.32876
G1 X89.996 Y103.519 E32.56451
G1 X89.996 Y103.969 E32.57610
G1 X96.031 Y110.004 E32.79547
G1 X95.580 Y110.004 E32.80706
G1 X89.996 Y104.420 E33.01004
G1 X89.996 Y104.871 E33.02163
G1 X95.129 Y110.004 E33.20823
G1 X94.678 Y110.004 E33.21982
G1 X89.996 Y105.322 E33.39003
G1 X89.996 Y105.772 E33.40161
G1 X94.228 Y110.004 E33.55544
G1 X93.777 Y110.004 E33.56702
G1 X89.996 Y106.223 E33.70446
G1 X89.996 Y106.674 E33.71605
G1 X93.326 Y110.004 E33.83710
G1 X92.875 Y110.004 E33.84869
G1 X89.996 Y107.125 E33.95335
G1 X89.996 Y107.575 E33.96494
G1 X92.425 Y110.004 E34.05321
G1 X91.974 Y110.004 E34.06480
G1 X89.996 Y108.026 E34.13669
G1 X89.996 Y108.477 E34.14828
G1 X91.523 Y110.004 E34.20378
G1 X91.072 Y110.004 E34.21537
G1 X89.996 Y108.928 E34.25448
G1 X89.996 Y109.378 E34.26607
G1 X90.622 Y110.004 E34.28880
G1 X90.171 Y110.004 E34.30038
G1 X89.996 Y109.829 E34.30673
M140 S110 ; wait for bed temperature to be reached
G1 Z0.400 F9600.000
G1 E33.30673 F1200.00000
G92 E0
G1 X110.186 Y110.186 F9600.000
G1 E1.00000 F1200.00000
G1 X89.814 Y110.186 E1.52099 F1800.000
G1 X89.814 Y89.814 E2.04198
G1 X110.186 Y89.814 E2.56298
G1 X110.186 Y110.141 E3.08282
G1 X110.503 Y110.503 F9600.000
G1 X89.497 Y110.503 E3.62003 F1800.000
G1 X89.497 Y89.497 E4.15724
G1 X110.503 Y89.497 E4.69445
G1 X110.503 Y110.458 E5.23051
G1 X110.820 Y110.820 F9600.000
G1 X89.180 Y110.820 E5.78394 F1800.000
G1 X89.180 Y89.180 E6.33736
G1 X110.820 Y89.180 E6.89079
G1 X110.820 Y110.775 E7.44307
G1 X110.560 Y110.670 F9600.000
G1 X109.829 Y110.004 F9600.000
G1 X110.004 Y109.829 E7.44941 F1800.000
G1 X110.004 Y109.378 E7.46100
G1 X109.378 Y110.004 E7.48373
G1 X108.928 Y110.004 E7.49532
G1 X110.004 Y108.928 E7.53444
G1 X110.004 Y108.477 E7.54603
G1 X108.477 Y110.004 E7.60153
G1 X108.026 Y110.004 E7.61312
G1 X110.004 Y108.026 E7.68501
G1 X110.004 Y107.575 E7.69660
G1 X107.575 Y110.004 E7.78488
G1 X107.125 Y110.004 E7.79647
G1 X110.004 Y107.125 E7.90113
G1 X110.004 Y106.674 E7.91272
G1 X106.674 Y110.004 E8.03377
G1 X106.223 Y110.004 E8.04536
G1 X110.004 Y106.223 E8.18280
G1 X110.004 Y105.772 E8.19439
G1 X105.772 Y110.004 E8.34821
G1 X105.322 Y110.004 E8.35980
G1 X110.004 Y105.322 E8.53001
G1 X110.004 Y104.871 E8.54160
G1 X104.871 Y110.004 E8.72820
G1 X104.420 Y110.004 E8.73979
G1 X110.004 Y104.420 E8.94277
G1 X110.004 Y103.969 E8.95436
G1 X103.969 Y110.004 E9.17374
G1 X103.519 Y110.004 E9.18532
G1 X110.004 Y103.519 E9.42108
G1 X110.004 Y103.068 E9.43267
G1 X103.068 Y110.004 E9.68482
G1 X102.617 Y110.004 E9.69641
G1 X110.004 Y102.617 E9.96494
G1 X110.004 Y102.166 E9.97653
G1 X102.166 Y110.004 E10.26145
G1 X101.716 Y110.004 E10.27304
G1 X110.004 Y101.716 E10.57434
G1 X110.004 Y101.265 E10.58593
G1 X101.265 Y110.004 E10.90363
G1 X100.814 Y110.004 E10.91521
G1 X110.004 Y100.814 E11.24930
G1 X110.004 Y100.363 E11.26088
G1 X100.363 Y110.004 E11.61135
G1 X99.913 Y110.004 E11.62294
G1 X110.004 Y99.913 E11.98979
G1 X110.004 Y99.462 E12.00138
G1 X99.462 Y110.004 E12.38462
G1 X99.011 Y110.004 E12.39621
G1 X110.004 Y99.011 E12.79584
G1 X110.004 Y98.560 E12.80743
G1 X98.560 Y110.004 E13.22344
G1 X98.110 Y110.004 E13.23503
G1 X110.004 Y98.110 E13.66743
G1 X110.004 Y97.659 E13.67902
G1 X97.659 Y110.004 E14.12781
G1 X97.208 Y110.004 E14.13940
G1 X110.004 Y97.208 E14.60458
G1 X110.004 Y96.758 E14.61616
G1 X96.758 Y110.004 E15.09773
G1 X96.307 Y110.004 E15.10931
G1 X110.004 Y96.307 E15.60726
G1 X110.004 Y95.856 E15.61885
G1 X95.856 Y110.004 E16.13319
G1 X95.405 Y110.004 E16.14478
G1 X110.004 Y95.405 E16.67550
G1 X110.004 Y94.955 E16.68709
G1 X94.955 Y110.004 E17.23420
G1 X94.504 Y110.004 E17.24578
G1 X110.004 Y94.504 E17.80928
G1 X110.004 Y94.053 E17.82087
G1 X94.053 Y110.004 E18.40075
G1 X93.602 Y110.004 E18.41234
G1 X110.004 Y93.602 E19.00861
G1 X110.004 Y93.152 E19.02020
G1 X93.152 Y110.004 E19.63286
G1 X92.701 Y110.004 E19.64445
G1 X110.004 Y92.701 E20.27349
G1 X110.004 Y92.250 E20.28508
G1 X92.250 Y110.004 E20.93051
G1 X91.799 Y110.004 E20.94210
G1 X110.004 Y91.799 E21.60392
G1 X110.004 Y91.349 E21.61550
G1 X91.349 Y110.004 E22.29371
G1 X90.898 Y110.004 E22.30530
G1 X110.004 Y90.898 E22.99989
G1 X110.004 Y90.447 E23.01148
G1 X90.447 Y110.004 E23.72246
G1 X90.016 Y109.984 E23.73354
G1 X109.984 Y90.016 E24.45945
G1 X109.553 Y89.996 E24.47054
G1 X89.996 Y109.553 E25.18151
G1 X89.996 Y109.102 E25.19310
G1 X109.102 Y89.996 E25.88769
G1 X108.651 Y89.996 E25.89928
G1 X89.996 Y108.651 E26.57748
G1 X89.996 Y108.201 E26.58907
G1 X108.201 Y89.996 E27.25088
G1 X107.750 Y89.996 E27.26247
G1 X89.996 Y107.750 E27.90790
G1 X89.996 Y107.299 E27.91949
G1 X107.299 Y89.996 E28.54853
G1 X106.848 Y89.996 E28.56012
G1 X89.996 Y106.848 E29.17277
G1 X89.996 Y106.398 E29.18436
G1 X106.398 Y89.996 E29.78063
G1 X105.947 Y89.996 E29.79221
G1 X89.996 Y105.947 E30.37210
G1 X89.996 Y105.496 E30.38368
G1 X105.496 Y89.996 E30.94718
G1 X105.045 Y89.996 E30.95877
G1 X89.996 Y105.045 E31.50587
G1 X89.996 Y104.595 E31.51746
G1 X104.595 Y89.996 E32.04818
G1 X104.144 Y89.996 E32.05977
G1 X89.996 Y104.144 E32.57410
G1 X89.996 Y103.693 E32.58569
G1 X103.693 Y89.996 E33.08364
G1 X103.242 Y89.996 E33.09523
G1 X89.996 Y103.242 E33.57679
G1 X89.996 Y102.792 E33.58837
G1 X102.792 Y89.996 E34.05355
G1 X102.341 Y89.996 E34.06513
G1 X89.996 Y102.341 E34.51392
G1 X89.996 Y101.890 E34.52551
G1 X101.890 Y89.996 E34.95791
G1 X101.439 Y89.996 E34.96950
G1 X89.996 Y101.439 E35.38551
G1 X89.996 Y100.989 E35.39710
G1 X100.989 Y89.996 E35.79672
G1 X100.538 Y89.996 E35.80831
G1 X89.996 Y100.538 E36.19155
G1 X89.996 Y100.087 E36.20314
G1 X100.087 Y89.996 E36.56999
G1 X99.636 Y89.996 E36.58158
G1 X89.996 Y99.636 E36.93204
G1 X89.996 Y99.186 E36.94363
G1 X99.186 Y89.996 E37.27771
G1 X98.735 Y89.996 E37.28930
G1 X89.996 Y98.735 E37.60699
G1 X89.996 Y98.284 E37.61858
G1 X98.284 Y89.996 E37.91988
G1 X97.833 Y89.996 E37.93147
G1 X89.996 Y97.833 E38.21639
G1 X89.996 Y97.383 E38.22797
G1 X97.383 Y89.996 E38.49650
G1 X96.932 Y89.996 E38.50809
G1 X89.996 Y96.932 E38.76024
G1 X89.996 Y96.481 E38.77182
G1 X96.481 Y89.996 E39.00758
G1 X96.031 Y89.996 E39.01917
G1 X89.996 Y96.031 E39.23854
G1 X89.996 Y95.580 E39.25013
G1 X95.580 Y89.996 E39.45311
G1 X95.129 Y89.996 E39.46470
G1 X89.996 Y95.129 E39.65130
G1 X89.996 Y94.678 E39.66288
G1 X94.678 Y89.996 E39.83309
G1 X94.228 Y89.996 E39.84468
G1 X89.996 Y94.228 E39.99850
G1 X89.996 Y93.777 E40.01009
G1 X93.777 Y89.996 E40.14753
G1 X93.326 Y89.996 E40.15912
G1 X89.996 Y93.326 E40.28017
G1 X89.996 Y92.875 E40.29175
G1 X92.875 Y89.996 E40.39642
G1 X92.425 Y89.996 E40.40800
G1 X89.996 Y92.425 E40.49628
G1 X89.996 Y91.974 E40.50787
G1 X91.974 Y89.996 E40.57976
G1 X91.523 Y89.996 E40.59134
G1 X89.996 Y91.523 E40.64685
G1 X89.996 Y91.072 E40.65843
G1 X91.072 Y89.996 E40.69755
G1 X90.622 Y89.996 E40.70914
G1 X89.996 Y90.622 E40.73187
G1 X89.996 Y90.171 E40.74345
G1 X90.171 Y89.996 E40.74979
G1 Z0.600 F9600.000
G1 E39.74979 F1200.00000
G92 E0
G1 X110.186 Y110.186 F9600.000
G1 E1.00000 F1200.00000
G1 X89.814 Y110.186 E1.52099 F1800.000
G1 X89.814 Y89.814 E2.04198
G1 X110.186 Y89.814 E2.56298
G1 X110.186 Y110.141 E3.08282
G1 X110.503 Y110.503 F9600.000
