; G-Code generated by Simplify3D(R) Version 3.0.0
; фев 5, 2016 at 5:44:05 
; Settings Summary
;   processName,Process1
;   applyToModels,wheel_motor2_right
;   profileName,prusa 1mm (modified)
;   profileVersion,2016-01-19 15:41:13
;   baseProfile,Default
;   printMaterial,PLA
;   printQuality,Medium
;   printExtruders,
;   extruderName,Extruder 1
;   extruderToolheadNumber,0
;   extruderDiameter,0.5
;   extruderAutoWidth,0
;   extruderWidth,0.59
;   extrusionMultiplier,1.01
;   extruderUseRetract,1
;   extruderRetractionDistance,4
;   extruderExtraRestartDistance,-0.2
;   extruderRetractionZLift,0
;   extruderRetractionSpeed,2400
;   extruderUseCoasting,1
;   extruderCoastingDistance,0.2
;   extruderUseWipe,0
;   extruderWipeDistance,5
;   primaryExtruder,0
;   layerHeight,0.2
;   topSolidLayers,3
;   bottomSolidLayers,3
;   perimeterOutlines,1
;   printPerimetersInsideOut,0
;   startPointOption,1
;   startPointOriginX,150
;   startPointOriginY,0
;   startPointOriginZ,120
;   sequentialIslands,0
;   spiralVaseMode,0
;   firstLayerHeightPercentage,85
;   firstLayerWidthPercentage,100
;   firstLayerUnderspeed,0.22
;   useRaft,0
;   raftExtruder,0
;   raftLayers,3
;   raftOffset,3
;   raftSeparationDistance,0.14
;   raftInfill,85
;   disableRaftBaseLayers,0
;   useSkirt,1
;   skirtExtruder,0
;   skirtLayers,1
;   skirtOutlines,10
;   skirtOffset,0
;   usePrimePillar,0
;   primePillarExtruder,999
;   primePillarWidth,12
;   primePillarLocation,7
;   primePillarSpeedMultiplier,1
;   useOozeShield,0
;   oozeShieldExtruder,999
;   oozeShieldOffset,2
;   oozeShieldOutlines,1
;   oozeShieldSidewallShape,1
;   oozeShieldSidewallAngle,30
;   oozeShieldSpeedMultiplier,1
;   infillExtruder,0
;   internalInfillPattern,Wiggle
;   externalInfillPattern,Concentric
;   infillPercentage,26
;   outlineOverlapPercentage,15
;   infillExtrusionWidthPercentage,100
;   minInfillLength,5
;   infillLayerInterval,1
;   infillAngles,0
;   overlapInfillAngles,0
;   generateSupport,0
;   supportExtruder,0
;   supportInfillPercentage,30
;   supportExtraInflation,0
;   denseSupportLayers,0
;   denseSupportInfillPercentage,70
;   supportLayerInterval,1
;   supportHorizontalPartOffset,0.3
;   supportUpperSeparationLayers,1
;   supportLowerSeparationLayers,1
;   supportType,0
;   supportGridSpacing,4
;   maxOverhangAngle,45
;   supportAngles,0
;   temperatureName,Extruder 1 Temperature,Heated Bed
;   temperatureNumber,0,1
;   temperatureSetpointCount,2,1
;   temperatureSetpointLayers,1,2,1
;   temperatureSetpointTemperatures,240,225,115
;   temperatureStabilizeAtStartup,1,1
;   temperatureHeatedBed,0,1
;   temperatureRelayBetweenLayers,0,0
;   temperatureRelayBetweenLoops,0,0
;   fanLayers,1
;   fanSpeeds,0
;   blipFanToFullPower,0
;   adjustSpeedForCooling,1
;   minSpeedLayerTime,10
;   minCoolingSpeedSlowdown,20
;   increaseFanForCooling,0
;   minFanLayerTime,45
;   maxCoolingFanSpeed,100
;   increaseFanForBridging,0
;   bridgingFanSpeed,100
;   use5D,1
;   relativeEdistances,0
;   allowEaxisZeroing,1
;   independentExtruderAxes,0
;   includeM10123,0
;   stickySupport,1
;   applyToolheadOffsets,0
;   gcodeXoffset,0
;   gcodeYoffset,0
;   gcodeZoffset,0
;   overrideMachineDefinition,1
;   machineTypeOverride,0
;   strokeXoverride,200
;   strokeYoverride,200
;   strokeZoverride,200
;   originOffsetXoverride,0
;   originOffsetYoverride,0
;   originOffsetZoverride,0
;   homeXdirOverride,-1
;   homeYdirOverride,-1
;   homeZdirOverride,-1
;   flipXoverride,1
;   flipYoverride,-1
;   flipZoverride,1
;   toolheadOffsets,0,0|0,0|0,0|0,0|0,0|0,0
;   overrideFirmwareConfiguration,1
;   firmwareTypeOverride,RepRap (Marlin/Repetier/Sprinter)
;   GPXconfigOverride,r2
;   baudRateOverride,115200
;   overridePrinterModels,0
;   printerModelsOverride
;   startingGcode,;Sliced at: {day} {date} {time},;Basic settings: Layer height: {layer_height} Walls: {wall_thickness} Fill: {fill_density},;Print time: {print_time},;Filament used: {filament_amount}m {filament_weight}g,;Filament cost: {filament_cost},;M190 S{print_bed_temperature} ;Uncomment to add your own bed temperature line,;M109 S{print_temperature} ;Uncomment to add your own temperature line,G21        ;metric values,G90        ;absolute positioning,M82        ;set extruder to absolute mode,M107       ;start with the fan off,,G28 X0 Y0  ;move X/Y to min endstops,G28 Z0     ;move Z to min endstops,,G1 Z15.0 F{travel_speed} ;move the platform down 15mm,,G92 E0                  ;zero the extruded length,G1 F200 E3              ;extrude 3mm of feed stock,G92 E0                  ;zero the extruded length again,G1 F{travel_speed},;Put printing message on LCD screen,M117 Printing...,
;   layerChangeGcode,
;   retractionGcode,
;   toolChangeGcode,
;   endingGcode,M104 S0 ; turn off extruder,M140 S0 ; turn off bed,G28 X0;,M84 ; disable motors
;   createX3G,0
;   celebration,0
;   celebrationSong,Random Song
;   createMB5G,0
;   postProcessing,
;   defaultSpeed,3600
;   outlineUnderspeed,0.5
;   solidInfillUnderspeed,0.8
;   supportUnderspeed,0.8
;   rapidXYspeed,4800
;   rapidZspeed,1002
;   minBridgingArea,50
;   bridgingExtraInflation,0
;   bridgingExtrusionMultiplier,1
;   bridgingSpeedMultiplier,1
;   filamentDiameter,1.75
;   filamentPricePerKg,46
;   filamentDensity,1.25
;   useMinPrintHeight,0
;   minPrintHeight,0
;   useMaxPrintHeight,0
;   maxPrintHeight,0
;   useDiaphragm,0
;   diaphragmLayerInterval,20
;   robustSlicing,1
;   mergeAllIntoSolid,0
;   onlyRetractWhenCrossingOutline,1
;   retractBetweenLayers,1
;   useRetractionMinTravel,1
;   retractionMinTravel,3
;   retractWhileWiping,0
;   onlyWipeOutlines,1
;   avoidCrossingOutline,1
;   maxMovementDetourFactor,3
;   toolChangeRetractionDistance,12
;   toolChangeExtraRestartDistance,-0.5
;   toolChangeRetractionSpeed,600
;   allowThinWallGapFill,1
;   thinWallAllowedOverlapPercentage,1
;   horizontalSizeCompensation,0
G90
M82
M106 S0
M140 S115
M190 S115
M104 S240 T0
M109 S240 T0
;Sliced at: {day} {date} {time}
;Basic settings: Layer height: {layer_height} Walls: {wall_thickness} Fill: {fill_density}
;Print time: {print_time}
;Filament used: {filament_amount}m {filament_weight}g
;Filament cost: {filament_cost}
;M190 S{print_bed_temperature} ;Uncomment to add your own bed temperature line
;M109 S{print_temperature} ;Uncomment to add your own temperature line
G21        ;metric values
G90        ;absolute positioning
M82        ;set extruder to absolute mode
M107       ;start with the fan off
G28 X0 Y0  ;move X/Y to min endstops
G28 Z0     ;move Z to min endstops
G1 Z15.0 F{travel_speed} ;move the platform down 15mm
G92 E0                  ;zero the extruded length
G1 F200 E3              ;extrude 3mm of feed stock
G92 E0                  ;zero the extruded length again
G1 F{travel_speed}
;Put printing message on LCD screen
M117 Printing...
G92 E0
G1 E-4.0000 F2400
G1 Z0.170 F1002
; layer 1, Z = 0.17
T0
; tool H0.200 W0.590
; skirt
G1 X79.026 Y77.551 F4800
G1 E-0.2000 F720
G92 E0
G1 X83.867 Y73.856 E0.3018 F792
G1 X85.845 Y73.781 E0.3998
G1 X86.990 Y72.169 E0.4978
G1 X92.732 Y70.147 E0.7994
G1 X94.633 Y70.687 E0.8973
G1 X96.236 Y69.498 E0.9962
G1 X102.327 Y69.362 E1.2981
G1 X103.965 Y70.465 E1.3960
G1 X105.816 Y69.839 E1.4928
G1 X111.655 Y71.563 E1.7945
G1 X112.893 Y73.134 E1.8935
G1 X114.873 Y73.113 E1.9916
G1 X119.880 Y76.568 E2.2931
G1 X120.563 Y78.431 E2.3914
G1 X122.453 Y79.023 E2.4895
G1 X126.148 Y83.869 E2.7915
G1 X126.221 Y85.842 E2.8893
G1 X127.834 Y86.987 E2.9873
G1 X129.855 Y92.729 E3.2889
G1 X129.315 Y94.634 E3.3871
G1 X130.501 Y96.236 E3.4858
G1 X130.634 Y102.319 E3.7873
G1 X129.534 Y103.959 E3.8851
G1 X130.164 Y105.827 E3.9828
G1 X128.427 Y111.666 E4.2847
G1 X126.868 Y112.890 E4.3829
G1 X126.887 Y114.885 E4.4817
G1 X123.420 Y119.886 E4.7832
G1 X121.564 Y120.565 E4.8812
G1 X120.974 Y122.449 E4.9790
G1 X116.133 Y126.144 E5.2807
G1 X114.158 Y126.218 E5.3787
G1 X113.008 Y127.836 E5.4770
G1 X107.267 Y129.858 E5.7786
G1 X105.362 Y129.317 E5.8767
G1 X103.764 Y130.502 E5.9753
G1 X97.673 Y130.638 E6.2772
G1 X96.039 Y129.538 E6.3747
G1 X94.177 Y130.167 E6.4721
G1 X88.332 Y128.430 E6.7743
G1 X87.108 Y126.872 E6.8724
G1 X85.116 Y126.891 E6.9712
G1 X80.114 Y123.422 E7.2728
G1 X79.437 Y121.568 E7.3706
G1 X77.548 Y120.976 E7.4686
G1 X73.852 Y116.132 E7.7705
G1 X73.779 Y114.157 E7.8685
G1 X72.166 Y113.011 E7.9665
G1 X70.144 Y107.270 E8.2681
G1 X70.685 Y105.365 E8.3662
G1 X69.499 Y103.764 E8.4649
G1 X69.366 Y97.676 E8.7667
G1 X70.466 Y96.040 E8.8643
G1 X69.836 Y94.171 E8.9621
G1 X71.572 Y88.334 E9.2638
G1 X73.131 Y87.110 E9.3620
G1 X73.113 Y85.115 E9.4609
G1 X76.580 Y80.113 E9.7624
G1 X78.436 Y79.435 E9.8603
G1 X78.966 Y77.742 E9.9482
G1 X79.026 Y77.551 F792
G1 X79.533 Y77.906 F4800
G92 E0
G1 X84.077 Y74.439 E0.2832 F792
G1 X86.157 Y74.360 E0.3864
G1 X87.363 Y72.664 E0.4895
G1 X92.751 Y70.766 E0.7726
G1 X94.751 Y71.333 E0.8756
G1 X96.437 Y70.084 E0.9796
G1 X102.153 Y69.956 E1.2629
G1 X103.878 Y71.118 E1.3659
G1 X105.828 Y70.458 E1.4679
G1 X111.308 Y72.076 E1.7510
G1 X112.609 Y73.727 E1.8552
G1 X114.692 Y73.705 E1.9584
G1 X119.390 Y76.947 E2.2412
G1 X120.110 Y78.907 E2.3447
G1 X122.097 Y79.530 E2.4479
G1 X125.566 Y84.078 E2.7313
G1 X125.642 Y86.154 E2.8342
G1 X127.339 Y87.360 E2.9374
G1 X129.237 Y92.748 E3.2204
G1 X128.668 Y94.752 E3.3237
G1 X129.915 Y96.436 E3.4275
G1 X130.040 Y102.146 E3.7105
G1 X128.882 Y103.872 E3.8135
G1 X129.545 Y105.838 E3.9163
G1 X127.915 Y111.318 E4.1996
G1 X126.276 Y112.606 E4.3029
G1 X126.295 Y114.703 E4.4068
G1 X123.042 Y119.396 E4.6898
G1 X121.088 Y120.111 E4.7928
G1 X120.467 Y122.093 E4.8958
G1 X115.923 Y125.561 E5.1790
G1 X113.845 Y125.640 E5.2820
G1 X112.636 Y127.341 E5.3855
G1 X107.248 Y129.239 E5.6685
G1 X105.244 Y128.670 E5.7717
G1 X103.563 Y129.916 E5.8754
G1 X97.847 Y130.044 E6.1587
G1 X96.127 Y128.886 E6.2614
G1 X94.165 Y129.548 E6.3640
G1 X88.680 Y127.918 E6.6476
G1 X87.393 Y126.280 E6.7508
G1 X85.298 Y126.299 E6.8546
G1 X80.604 Y123.043 E7.1377
G1 X79.891 Y121.092 E7.2406
G1 X77.904 Y120.469 E7.3438
G1 X74.434 Y115.923 E7.6272
G1 X74.358 Y113.845 E7.7302
G1 X72.661 Y112.639 E7.8334
G1 X70.763 Y107.251 E8.1164
G1 X71.332 Y105.247 E8.2196
G1 X70.085 Y103.564 E8.3234
G1 X69.960 Y97.850 E8.6066
G1 X71.118 Y96.128 E8.7094
G1 X70.455 Y94.160 E8.8124
G1 X72.084 Y88.682 E9.0955
G1 X73.724 Y87.394 E9.1988
G1 X73.705 Y85.297 E9.3028
G1 X76.958 Y80.603 E9.5857
G1 X78.911 Y79.889 E9.6888
G1 X79.473 Y78.097 E9.7818
G1 X79.533 Y77.906 F792
G1 X80.040 Y78.262 F4800
G92 E0
G1 X84.286 Y75.021 E0.2647 F792
G1 X86.470 Y74.939 E0.3730
G1 X87.735 Y73.158 E0.4812
G1 X92.770 Y71.385 E0.7457
G1 X94.869 Y71.980 E0.8538
G1 X96.638 Y70.669 E0.9629
G1 X101.979 Y70.550 E1.2276
G1 X103.790 Y71.770 E1.3358
G1 X105.840 Y71.077 E1.4430
G1 X110.961 Y72.589 E1.7076
G1 X112.325 Y74.320 E1.8168
G1 X114.511 Y74.297 E1.9251
G1 X118.901 Y77.326 E2.1894
G1 X119.656 Y79.383 E2.2980
G1 X121.742 Y80.037 E2.4063
G1 X124.983 Y84.287 E2.6711
G1 X125.063 Y86.467 E2.7792
G1 X126.845 Y87.732 E2.8875
G1 X128.618 Y92.767 E3.1520
G1 X128.021 Y94.870 E3.2603
G1 X129.329 Y96.637 E3.3692
G1 X129.447 Y101.972 E3.6336
G1 X128.230 Y103.784 E3.7418
G1 X128.926 Y105.850 E3.8498
G1 X127.403 Y110.970 E4.1145
G1 X125.683 Y112.321 E4.2229
G1 X125.704 Y114.521 E4.3319
G1 X122.664 Y118.907 E4.5963
G1 X120.612 Y119.657 E4.7045
G1 X119.960 Y121.738 E4.8126
G1 X115.714 Y124.979 E5.0772
G1 X113.532 Y125.061 E5.1854
G1 X112.263 Y126.847 E5.2939
G1 X107.228 Y128.620 E5.5584
G1 X105.126 Y128.023 E5.6667
G1 X103.362 Y129.331 E5.7755
G1 X98.021 Y129.450 E6.0402
G1 X96.215 Y128.233 E6.1482
G1 X94.154 Y128.929 E6.2559
G1 X89.028 Y127.406 E6.5209
G1 X87.677 Y125.687 E6.6292
G1 X85.480 Y125.707 E6.7381
G1 X81.094 Y122.665 E7.0026
G1 X80.346 Y120.616 E7.1107
G1 X78.259 Y119.962 E7.2190
G1 X75.017 Y115.714 E7.4838
G1 X74.936 Y113.532 E7.5920
G1 X73.155 Y112.266 E7.7003
G1 X71.382 Y107.231 E7.9648
G1 X71.978 Y105.129 E8.0730
G1 X70.670 Y103.363 E8.1819
G1 X70.553 Y98.024 E8.4465
G1 X71.770 Y96.216 E8.5545
G1 X71.074 Y94.149 E8.6626
G1 X72.596 Y89.031 E8.9272
G1 X74.317 Y87.679 E9.0356
G1 X74.296 Y85.479 E9.1446
G1 X77.336 Y81.093 E9.4091
G1 X79.387 Y80.343 E9.5173
G1 X79.980 Y78.453 E9.6154
G1 X80.040 Y78.262 F792
G1 X80.547 Y78.617 F4800
G92 E0
G1 X84.495 Y75.604 E0.2461 F792
G1 X86.783 Y75.517 E0.3595
G1 X88.108 Y73.652 E0.4729
G1 X92.789 Y72.004 E0.7188
G1 X94.987 Y72.627 E0.8320
G1 X96.838 Y71.255 E0.9462
G1 X101.805 Y71.144 E1.1923
G1 X103.703 Y72.422 E1.3057
G1 X105.852 Y71.695 E1.4182
G1 X110.614 Y73.101 E1.6642
G1 X112.041 Y74.913 E1.7784
G1 X114.330 Y74.889 E1.8918
G1 X118.412 Y77.706 E2.1376
G1 X119.202 Y79.859 E2.2513
G1 X121.386 Y80.544 E2.3647
G1 X124.400 Y84.496 E2.6109
G1 X124.484 Y86.779 E2.7241
G1 X126.351 Y88.105 E2.8376
G1 X127.999 Y92.787 E3.0835
G1 X127.375 Y94.989 E3.1969
G1 X128.744 Y96.837 E3.3109
G1 X128.853 Y101.798 E3.5568
G1 X127.578 Y103.697 E3.6701
G1 X128.307 Y105.861 E3.7833
G1 X126.891 Y110.622 E4.0294
G1 X125.090 Y112.036 E4.1428
G1 X125.112 Y114.339 E4.2569
G1 X122.285 Y118.417 E4.5028
G1 X120.136 Y119.203 E4.6162
G1 X119.453 Y121.383 E4.7294
G1 X115.505 Y124.396 E4.9755
G1 X113.220 Y124.483 E5.0888
G1 X111.891 Y126.353 E5.2024
G1 X107.209 Y128.001 E5.4484
G1 X105.008 Y127.376 E5.5617
G1 X103.162 Y128.745 E5.6756
G1 X98.195 Y128.856 E5.9218
G1 X96.302 Y127.581 E6.0349
G1 X94.143 Y128.310 E6.1478
G1 X89.376 Y126.894 E6.3942
G1 X87.962 Y125.094 E6.5076
G1 X85.662 Y125.116 E6.6216
G1 X81.584 Y122.287 E6.8675
G1 X80.800 Y120.140 E6.9807
G1 X78.614 Y119.455 E7.0942
G1 X75.600 Y115.505 E7.3404
G1 X75.515 Y113.220 E7.4537
G1 X73.649 Y111.894 E7.5672
G1 X72.001 Y107.212 E7.8131
G1 X72.625 Y105.011 E7.9265
G1 X71.256 Y103.163 E8.0404
G1 X71.147 Y98.198 E8.2865
G1 X72.423 Y96.304 E8.3997
G1 X71.693 Y94.138 E8.5129
G1 X73.108 Y89.379 E8.7589
G1 X74.910 Y87.963 E8.8724
G1 X74.888 Y85.661 E8.9865
G1 X77.715 Y81.583 E9.2324
G1 X79.863 Y80.797 E9.3457
G1 X80.487 Y78.808 E9.4490
G1 X80.547 Y78.617 F792
G1 X81.054 Y78.972 F4800
G92 E0
G1 X84.704 Y76.186 E0.2275 F792
G1 X86.760 Y76.108 E0.3295
G1 X87.286 Y76.450 E0.3605
G1 X87.288 Y75.825 E0.3915
G1 X88.480 Y74.147 E0.4935
G1 X92.809 Y72.622 E0.7209
G1 X94.792 Y73.185 E0.8230
G1 X95.184 Y73.671 E0.8540
G1 X95.382 Y73.069 E0.8853
G1 X97.039 Y71.841 E0.9876
G1 X101.630 Y71.738 E1.2151
G1 X103.340 Y72.890 E1.3173
G1 X103.558 Y73.464 E1.3477
G1 X103.917 Y72.973 E1.3779
G1 X105.864 Y72.314 E1.4797
G1 X110.266 Y73.614 E1.7071
G1 X111.545 Y75.236 E1.8095
G1 X111.577 Y75.872 E1.8410
G1 X112.090 Y75.502 E1.8723
G1 X114.149 Y75.481 E1.9743
G1 X117.922 Y78.085 E2.2015
G1 X118.632 Y80.020 E2.3036
G1 X118.469 Y80.625 E2.3347
G1 X119.062 Y80.434 E2.3656
G1 X121.031 Y81.051 E2.4678
G1 X123.818 Y84.704 E2.6955
G1 X123.893 Y86.764 E2.7976
G1 X123.555 Y87.283 E2.8283
G1 X124.178 Y87.285 E2.8592
G1 X125.856 Y88.477 E2.9612
G1 X127.381 Y92.806 E3.1886
G1 X126.818 Y94.789 E3.2907
G1 X126.330 Y95.183 E3.3218
G1 X126.931 Y95.380 E3.3531
G1 X128.158 Y97.038 E3.4553
G1 X128.259 Y101.624 E3.6826
G1 X127.113 Y103.330 E3.7844
G1 X126.529 Y103.554 E3.8154
G1 X127.031 Y103.921 E3.8462
G1 X127.688 Y105.872 E3.9482
G1 X126.379 Y110.274 E4.1758
G1 X124.756 Y111.549 E4.2781
G1 X124.130 Y111.580 E4.3091
G1 X124.501 Y112.094 E4.3405
G1 X124.520 Y114.157 E4.4427
G1 X121.907 Y117.927 E4.6700
G1 X119.975 Y118.634 E4.7720
G1 X119.373 Y118.472 E4.8028
G1 X119.563 Y119.060 E4.8335
G1 X118.946 Y121.027 E4.9356
G1 X115.296 Y123.814 E5.1632
G1 X113.239 Y123.892 E5.2651
G1 X112.713 Y123.550 E5.2962
G1 X112.711 Y124.180 E5.3275
