; G-Code generated by Simplify3D(R) Version 3.0.0
; фев 5, 2016 at 5:44:41 
; Settings Summary
;   processName,Process1
;   applyToModels,wheel_motor2_left
;   profileName,prusa 1mm (modified)
;   profileVersion,2016-01-19 15:41:13
;   baseProfile,Default
;   printMaterial,PLA
;   printQuality,Medium
;   printExtruders,
;   extruderName,Extruder 1
;   extruderToolheadNumber,0
;   extruderDiameter,0.5
;   extruderAutoWidth,0
;   extruderWidth,0.59
;   extrusionMultiplier,1.01
;   extruderUseRetract,1
;   extruderRetractionDistance,4
;   extruderExtraRestartDistance,-0.2
;   extruderRetractionZLift,0
;   extruderRetractionSpeed,2400
;   extruderUseCoasting,1
;   extruderCoastingDistance,0.2
;   extruderUseWipe,0
;   extruderWipeDistance,5
;   primaryExtruder,0
;   layerHeight,0.2
;   topSolidLayers,3
;   bottomSolidLayers,3
;   perimeterOutlines,1
;   printPerimetersInsideOut,0
;   startPointOption,1
;   startPointOriginX,150
;   startPointOriginY,0
;   startPointOriginZ,120
;   sequentialIslands,0
;   spiralVaseMode,0
;   firstLayerHeightPercentage,85
;   firstLayerWidthPercentage,100
;   firstLayerUnderspeed,0.22
;   useRaft,0
;   raftExtruder,0
;   raftLayers,3
;   raftOffset,3
;   raftSeparationDistance,0.14
;   raftInfill,85
;   disableRaftBaseLayers,0
;   useSkirt,1
;   skirtExtruder,0
;   skirtLayers,1
;   skirtOutlines,10
;   skirtOffset,0
;   usePrimePillar,0
;   primePillarExtruder,999
;   primePillarWidth,12
;   primePillarLocation,7
;   primePillarSpeedMultiplier,1
;   useOozeShield,0
;   oozeShieldExtruder,999
;   oozeShieldOffset,2
;   oozeShieldOutlines,1
;   oozeShieldSidewallShape,1
;   oozeShieldSidewallAngle,30
;   oozeShieldSpeedMultiplier,1
;   infillExtruder,0
;   internalInfillPattern,Wiggle
;   externalInfillPattern,Concentric
;   infillPercentage,26
;   outlineOverlapPercentage,15
;   infillExtrusionWidthPercentage,100
;   minInfillLength,5
;   infillLayerInterval,1
;   infillAngles,0
;   overlapInfillAngles,0
;   generateSupport,0
;   supportExtruder,0
;   supportInfillPercentage,30
;   supportExtraInflation,0
;   denseSupportLayers,0
;   denseSupportInfillPercentage,70
;   supportLayerInterval,1
;   supportHorizontalPartOffset,0.3
;   supportUpperSeparationLayers,1
;   supportLowerSeparationLayers,1
;   supportType,0
;   supportGridSpacing,4
;   maxOverhangAngle,45
;   supportAngles,0
;   temperatureName,Extruder 1 Temperature,Heated Bed
;   temperatureNumber,0,1
;   temperatureSetpointCount,2,1
;   temperatureSetpointLayers,1,2,1
;   temperatureSetpointTemperatures,240,225,115
;   temperatureStabilizeAtStartup,1,1
;   temperatureHeatedBed,0,1
;   temperatureRelayBetweenLayers,0,0
;   temperatureRelayBetweenLoops,0,0
;   fanLayers,1
;   fanSpeeds,0
;   blipFanToFullPower,0
;   adjustSpeedForCooling,1
;   minSpeedLayerTime,10
;   minCoolingSpeedSlowdown,20
;   increaseFanForCooling,0
;   minFanLayerTime,45
;   maxCoolingFanSpeed,100
;   increaseFanForBridging,0
;   bridgingFanSpeed,100
;   use5D,1
;   relativeEdistances,0
;   allowEaxisZeroing,1
;   independentExtruderAxes,0
;   includeM10123,0
;   stickySupport,1
;   applyToolheadOffsets,0
;   gcodeXoffset,0
;   gcodeYoffset,0
;   gcodeZoffset,0
;   overrideMachineDefinition,1
;   machineTypeOverride,0
;   strokeXoverride,200
;   strokeYoverride,200
;   strokeZoverride,200
;   originOffsetXoverride,0
;   originOffsetYoverride,0
;   originOffsetZoverride,0
;   homeXdirOverride,-1
;   homeYdirOverride,-1
;   homeZdirOverride,-1
;   flipXoverride,1
;   flipYoverride,-1
;   flipZoverride,1
;   toolheadOffsets,0,0|0,0|0,0|0,0|0,0|0,0
;   overrideFirmwareConfiguration,1
;   firmwareTypeOverride,RepRap (Marlin/Repetier/Sprinter)
;   GPXconfigOverride,r2
;   baudRateOverride,115200
;   overridePrinterModels,0
;   printerModelsOverride
;   startingGcode,;Sliced at: {day} {date} {time},;Basic settings: Layer height: {layer_height} Walls: {wall_thickness} Fill: {fill_density},;Print time: {print_time},;Filament used: {filament_amount}m {filament_weight}g,;Filament cost: {filament_cost},;M190 S{print_bed_temperature} ;Uncomment to add your own bed temperature line,;M109 S{print_temperature} ;Uncomment to add your own temperature line,G21        ;metric values,G90        ;absolute positioning,M82        ;set extruder to absolute mode,M107       ;start with the fan off,,G28 X0 Y0  ;move X/Y to min endstops,G28 Z0     ;move Z to min endstops,,G1 Z15.0 F{travel_speed} ;move the platform down 15mm,,G92 E0                  ;zero the extruded length,G1 F200 E3              ;extrude 3mm of feed stock,G92 E0                  ;zero the extruded length again,G1 F{travel_speed},;Put printing message on LCD screen,M117 Printing...,
;   layerChangeGcode,
;   retractionGcode,
;   toolChangeGcode,
;   endingGcode,M104 S0 ; turn off extruder,M140 S0 ; turn off bed,G28 X0;,M84 ; disable motors
;   createX3G,0
;   celebration,0
;   celebrationSong,Random Song
;   createMB5G,0
;   postProcessing,
;   defaultSpeed,3600
;   outlineUnderspeed,0.5
;   solidInfillUnderspeed,0.8
;   supportUnderspeed,0.8
;   rapidXYspeed,4800
;   rapidZspeed,1002
;   minBridgingArea,50
;   bridgingExtraInflation,0
;   bridgingExtrusionMultiplier,1
;   bridgingSpeedMultiplier,1
;   filamentDiameter,1.75
;   filamentPricePerKg,46
;   filamentDensity,1.25
;   useMinPrintHeight,0
;   minPrintHeight,0
;   useMaxPrintHeight,0
;   maxPrintHeight,0
;   useDiaphragm,0
;   diaphragmLayerInterval,20
;   robustSlicing,1
;   mergeAllIntoSolid,0
;   onlyRetractWhenCrossingOutline,1
;   retractBetweenLayers,1
;   useRetractionMinTravel,1
;   retractionMinTravel,3
;   retractWhileWiping,0
;   onlyWipeOutlines,1
;   avoidCrossingOutline,1
;   maxMovementDetourFactor,3
;   toolChangeRetractionDistance,12
;   toolChangeExtraRestartDistance,-0.5
;   toolChangeRetractionSpeed,600
;   allowThinWallGapFill,1
;   thinWallAllowedOverlapPercentage,1
;   horizontalSizeCompensation,0
G90
M82
M106 S0
M140 S115
M190 S115
M104 S240 T0
M109 S240 T0
;Sliced at: {day} {date} {time}
;Basic settings: Layer height: {layer_height} Walls: {wall_thickness} Fill: {fill_density}
;Print time: {print_time}
;Filament used: {filament_amount}m {filament_weight}g
;Filament cost: {filament_cost}
;M190 S{print_bed_temperature} ;Uncomment to add your own bed temperature line
;M109 S{print_temperature} ;Uncomment to add your own temperature line
G21        ;metric values
G90        ;absolute positioning
M82        ;set extruder to absolute mode
M107       ;start with the fan off
G28 X0 Y0  ;move X/Y to min endstops
G28 Z0     ;move Z to min endstops
G1 Z15.0 F{travel_speed} ;move the platform down 15mm
G92 E0                  ;zero the extruded length
G1 F200 E3              ;extrude 3mm of feed stock
G92 E0                  ;zero the extruded length again
G1 F{travel_speed}
;Put printing message on LCD screen
M117 Printing...
G92 E0
G1 E-4.0000 F2400
G1 Z0.170 F1002
; layer 1, Z = 0.17
T0
; tool H0.200 W0.590
; skirt
G1 X77.548 Y79.024 F4800
G1 E-0.2000 F720
G92 E0
G1 X79.437 Y78.432 E0.0981 F792
G1 X80.114 Y76.578 E0.1959
G1 X85.116 Y73.109 E0.4975
G1 X87.108 Y73.128 E0.5962
G1 X88.332 Y71.570 E0.6943
G1 X94.177 Y69.833 E0.9965
G1 X96.039 Y70.462 E1.0939
G1 X97.673 Y69.362 E1.1915
G1 X103.764 Y69.498 E1.4933
G1 X105.362 Y70.683 E1.5920
G1 X107.267 Y70.142 E1.6900
G1 X113.008 Y72.164 E1.9917
G1 X114.158 Y73.782 E2.0900
G1 X116.133 Y73.856 E2.1879
G1 X120.974 Y77.551 E2.4897
G1 X121.564 Y79.435 E2.5875
G1 X123.420 Y80.114 E2.6854
G1 X126.887 Y85.115 E2.9869
G1 X126.868 Y87.110 E3.0857
G1 X128.427 Y88.334 E3.1840
G1 X130.164 Y94.173 E3.4858
G1 X129.534 Y96.041 E3.5835
G1 X130.634 Y97.681 E3.6813
G1 X130.501 Y103.764 E3.9828
G1 X129.315 Y105.366 E4.0816
G1 X129.855 Y107.271 E4.1797
G1 X127.834 Y113.013 E4.4813
G1 X126.221 Y114.158 E4.5794
G1 X126.148 Y116.131 E4.6772
G1 X122.452 Y120.977 E4.9791
G1 X120.563 Y121.569 E5.0772
G1 X119.880 Y123.432 E5.1756
G1 X114.873 Y126.887 E5.4770
G1 X112.893 Y126.866 E5.5751
G1 X111.655 Y128.437 E5.6742
G1 X105.816 Y130.161 E5.9758
G1 X103.965 Y129.535 E6.0727
G1 X102.327 Y130.638 E6.1705
G1 X96.236 Y130.502 E6.4724
G1 X94.633 Y129.313 E6.5713
G1 X92.732 Y129.853 E6.6692
G1 X86.990 Y127.831 E6.9708
G1 X85.845 Y126.219 E7.0688
G1 X83.867 Y126.144 E7.1669
G1 X79.026 Y122.449 E7.4686
G1 X78.436 Y120.565 E7.5664
G1 X76.580 Y119.887 E7.6643
G1 X73.113 Y114.885 E7.9659
G1 X73.131 Y112.890 E8.0647
G1 X71.572 Y111.666 E8.1630
G1 X69.836 Y105.829 E8.4647
G1 X70.466 Y103.960 E8.5624
G1 X69.366 Y102.324 E8.6601
G1 X69.499 Y96.236 E8.9619
G1 X70.685 Y94.635 E9.0606
G1 X70.144 Y92.730 E9.1587
G1 X72.166 Y86.989 E9.4603
G1 X73.779 Y85.843 E9.5583
G1 X73.852 Y83.868 E9.6562
G1 X77.427 Y79.183 E9.9482
G1 X77.548 Y79.024 F792
G1 X77.904 Y79.531 F4800
G92 E0
G1 X79.891 Y78.908 E0.1032 F792
G1 X80.604 Y76.957 E0.2062
G1 X85.298 Y73.701 E0.4892
G1 X87.393 Y73.720 E0.5930
G1 X88.680 Y72.082 E0.6962
G1 X94.165 Y70.452 E0.9798
G1 X96.127 Y71.114 E1.0824
G1 X97.847 Y69.956 E1.1851
G1 X103.563 Y70.084 E1.4684
G1 X105.244 Y71.330 E1.5721
G1 X107.248 Y70.761 E1.6753
G1 X112.636 Y72.659 E1.9584
G1 X113.845 Y74.360 E2.0618
G1 X115.923 Y74.439 E2.1648
G1 X120.467 Y77.907 E2.4481
G1 X121.088 Y79.889 E2.5510
G1 X123.042 Y80.604 E2.6541
G1 X126.295 Y85.297 E2.9370
G1 X126.276 Y87.394 E3.0410
G1 X127.915 Y88.682 E3.1443
G1 X129.545 Y94.162 E3.4275
G1 X128.882 Y96.128 E3.5304
G1 X130.040 Y97.854 E3.6334
G1 X129.915 Y103.564 E3.9163
G1 X128.668 Y105.248 E4.0202
G1 X129.237 Y107.252 E4.1234
G1 X127.339 Y112.640 E4.4064
G1 X125.642 Y113.846 E4.5096
G1 X125.566 Y115.922 E4.6125
G1 X122.097 Y120.470 E4.8959
G1 X120.110 Y121.093 E4.9991
G1 X119.390 Y123.053 E5.1026
G1 X114.692 Y126.295 E5.3855
G1 X112.609 Y126.273 E5.4887
G1 X111.308 Y127.924 E5.5928
G1 X105.828 Y129.542 E5.8759
G1 X103.878 Y128.882 E5.9779
G1 X102.153 Y130.044 E6.0810
G1 X96.437 Y129.916 E6.3643
G1 X94.751 Y128.667 E6.4683
G1 X92.751 Y129.234 E6.5713
G1 X87.363 Y127.336 E6.8543
G1 X86.157 Y125.640 E6.9574
G1 X84.077 Y125.561 E7.0606
G1 X79.533 Y122.094 E7.3438
G1 X78.911 Y120.111 E7.4468
G1 X76.958 Y119.397 E7.5498
G1 X73.705 Y114.703 E7.8328
G1 X73.724 Y112.606 E7.9367
G1 X72.084 Y111.317 E8.0401
G1 X70.455 Y105.840 E8.3232
G1 X71.118 Y103.872 E8.4261
G1 X69.960 Y102.150 E8.5290
G1 X70.085 Y96.436 E8.8121
G1 X71.332 Y94.753 E8.9159
G1 X70.763 Y92.749 E9.0191
G1 X72.661 Y87.361 E9.3022
G1 X74.358 Y86.155 E9.4053
G1 X74.434 Y84.077 E9.5084
G1 X77.782 Y79.690 E9.7818
G1 X77.904 Y79.531 F792
G1 X78.259 Y80.038 F4800
G92 E0
G1 X80.346 Y79.384 E0.1083 F792
G1 X81.094 Y77.335 E0.2165
G1 X85.480 Y74.293 E0.4809
G1 X87.677 Y74.313 E0.5898
G1 X89.028 Y72.594 E0.6981
G1 X94.154 Y71.071 E0.9631
G1 X96.215 Y71.767 E1.0709
G1 X98.021 Y70.550 E1.1788
G1 X103.362 Y70.669 E1.4435
G1 X105.126 Y71.977 E1.5523
G1 X107.228 Y71.380 E1.6606
G1 X112.263 Y73.153 E1.9251
G1 X113.532 Y74.939 E2.0336
G1 X115.714 Y75.021 E2.1418
G1 X119.960 Y78.262 E2.4065
G1 X120.612 Y80.343 E2.5145
G1 X122.664 Y81.093 E2.6228
G1 X125.704 Y85.479 E2.8872
G1 X125.683 Y87.679 E2.9962
G1 X127.403 Y89.030 E3.1046
G1 X128.926 Y94.150 E3.3692
G1 X128.230 Y96.216 E3.4772
G1 X129.447 Y98.028 E3.5854
G1 X129.329 Y103.363 E3.8498
G1 X128.021 Y105.130 E3.9587
G1 X128.618 Y107.233 E4.0670
G1 X126.845 Y112.268 E4.3315
G1 X125.063 Y113.533 E4.4398
G1 X124.983 Y115.713 E4.5479
G1 X121.742 Y119.963 E4.8127
G1 X119.656 Y120.617 E4.9211
G1 X118.901 Y122.674 E5.0296
G1 X114.511 Y125.703 E5.2939
G1 X112.325 Y125.680 E5.4022
G1 X110.961 Y127.411 E5.5114
G1 X105.840 Y128.923 E5.7760
G1 X103.790 Y128.230 E5.8832
G1 X101.979 Y129.450 E5.9914
G1 X96.638 Y129.331 E6.2561
G1 X94.869 Y128.020 E6.3652
G1 X92.770 Y128.615 E6.4733
G1 X87.735 Y126.842 E6.7378
G1 X86.470 Y125.061 E6.8461
G1 X84.286 Y124.979 E6.9544
G1 X80.040 Y121.738 E7.2190
G1 X79.387 Y119.657 E7.3271
G1 X77.336 Y118.907 E7.4353
G1 X74.296 Y114.521 E7.6997
G1 X74.317 Y112.321 E7.8087
G1 X72.596 Y110.969 E7.9171
G1 X71.074 Y105.851 E8.1817
G1 X71.770 Y103.784 E8.2898
G1 X70.553 Y101.976 E8.3978
G1 X70.670 Y96.636 E8.6624
G1 X71.978 Y94.871 E8.7713
G1 X71.382 Y92.769 E8.8796
G1 X73.155 Y87.734 E9.1441
G1 X74.936 Y86.468 E9.2524
G1 X75.017 Y84.286 E9.3606
G1 X78.138 Y80.197 E9.6154
G1 X78.259 Y80.038 F792
G1 X78.614 Y80.545 F4800
G92 E0
G1 X80.800 Y79.860 E0.1135 F792
G1 X81.584 Y77.713 E0.2267
G1 X85.662 Y74.884 E0.4726
G1 X87.962 Y74.906 E0.5866
G1 X89.376 Y73.106 E0.7000
G1 X94.143 Y71.690 E0.9464
G1 X96.302 Y72.419 E1.0594
G1 X98.195 Y71.144 E1.1725
G1 X103.162 Y71.255 E1.4186
G1 X105.008 Y72.624 E1.5325
G1 X107.209 Y71.999 E1.6459
G1 X111.891 Y73.647 E1.8918
G1 X113.220 Y75.517 E2.0055
G1 X115.505 Y75.604 E2.1188
G1 X119.453 Y78.617 E2.3649
G1 X120.136 Y80.797 E2.4781
G1 X122.285 Y81.583 E2.5914
G1 X125.112 Y85.661 E2.8373
G1 X125.090 Y87.964 E2.9514
G1 X126.891 Y89.378 E3.0649
G1 X128.307 Y94.139 E3.3110
G1 X127.578 Y96.303 E3.4241
G1 X128.853 Y98.202 E3.5375
G1 X128.744 Y103.163 E3.7833
G1 X127.375 Y105.011 E3.8973
G1 X127.999 Y107.213 E4.0107
G1 X126.351 Y111.895 E4.2566
G1 X124.484 Y113.221 E4.3701
G1 X124.400 Y115.504 E4.4833
G1 X121.386 Y119.456 E4.7295
G1 X119.202 Y120.140 E4.8430
G1 X118.412 Y122.294 E4.9567
G1 X114.330 Y125.111 E5.2024
G1 X112.041 Y125.087 E5.3158
G1 X110.614 Y126.899 E5.4301
G1 X105.852 Y128.305 E5.6761
G1 X103.703 Y127.578 E5.7885
G1 X101.805 Y128.856 E5.9019
G1 X96.838 Y128.745 E6.1480
G1 X94.987 Y127.373 E6.2622
G1 X92.789 Y127.996 E6.3754
G1 X88.108 Y126.348 E6.6213
G1 X86.783 Y124.483 E6.7347
G1 X84.495 Y124.396 E6.8481
G1 X80.547 Y121.383 E7.0942
G1 X79.863 Y119.203 E7.2074
G1 X77.715 Y118.417 E7.3208
G1 X74.888 Y114.339 E7.5667
G1 X74.910 Y112.036 E7.6807
G1 X73.108 Y110.621 E7.7942
G1 X71.693 Y105.862 E8.0403
G1 X72.423 Y103.696 E8.1535
G1 X71.147 Y101.802 E8.2667
G1 X71.256 Y96.837 E8.5127
G1 X72.625 Y94.989 E8.6267
G1 X72.001 Y92.788 E8.7401
G1 X73.649 Y88.106 E8.9860
G1 X75.515 Y86.780 E9.0994
G1 X75.600 Y84.495 E9.2127
G1 X78.493 Y80.704 E9.4490
G1 X78.614 Y80.545 F792
G1 X78.969 Y81.052 F4800
G92 E0
G1 X80.937 Y80.435 E0.1022 F792
G1 X81.531 Y80.626 E0.1331
G1 X81.368 Y80.024 E0.1640
G1 X82.074 Y78.091 E0.2660
G1 X85.844 Y75.476 E0.4933
G1 X87.908 Y75.495 E0.5956
G1 X88.417 Y75.863 E0.6267
G1 X88.448 Y75.242 E0.6575
G1 X89.724 Y73.618 E0.7598
G1 X94.131 Y72.308 E0.9876
G1 X96.083 Y72.968 E1.0897
G1 X96.443 Y73.461 E1.1200
G1 X96.660 Y72.890 E1.1502
G1 X98.369 Y71.738 E1.2524
G1 X102.961 Y71.841 E1.4799
G1 X104.618 Y73.069 E1.5822
G1 X104.814 Y73.666 E1.6133
G1 X105.207 Y73.180 E1.6443
G1 X107.190 Y72.617 E1.7464
G1 X111.518 Y74.142 E1.9738
G1 X112.711 Y75.820 E2.0758
G1 X112.713 Y76.450 E2.1070
G1 X113.239 Y76.108 E2.1381
G1 X115.296 Y76.186 E2.2401
G1 X118.946 Y78.973 E2.4676
G1 X119.563 Y80.940 E2.5698
G1 X119.373 Y81.528 E2.6004
G1 X119.975 Y81.366 E2.6313
G1 X121.907 Y82.073 E2.7332
G1 X124.520 Y85.843 E2.9605
G1 X124.501 Y87.906 E3.0627
G1 X124.130 Y88.420 E3.0942
G1 X124.756 Y88.451 E3.1252
G1 X126.379 Y89.726 E3.2275
G1 X127.688 Y94.128 E3.4550
G1 X127.031 Y96.079 E3.5570
G1 X126.529 Y96.446 E3.5878
G1 X127.113 Y96.670 E3.6189
G1 X128.259 Y98.376 E3.7207
G1 X128.158 Y102.962 E3.9480
G1 X126.931 Y104.620 E4.0502
G1 X126.330 Y104.817 E4.0815
G1 X126.818 Y105.211 E4.1126
G1 X127.381 Y107.194 E4.2147
G1 X125.856 Y111.523 E4.4421
G1 X124.178 Y112.715 E4.5441
G1 X123.555 Y112.717 E4.5750
G1 X123.893 Y113.236 E4.6057
G1 X123.818 Y115.296 E4.7078
G1 X121.031 Y118.949 E4.9355
G1 X119.062 Y119.566 E5.0377
G1 X118.469 Y119.375 E5.0686
G1 X118.632 Y119.980 E5.0996
G1 X117.922 Y121.915 E5.2018
